(G-CODE GENERATED BY FLATCAM v8.991 - www.flatcam.org - Version Date: 2019/12/27)

(Name: AutoToolZeroProbe_Copper_Signal_Bot.gbr_iso_cnc_0.4)
(Type: G-code from Geometry)
(Units: MM)

(Created on Monday, 13 April 2020 at 11:29)

(TOOL DIAMETER: 0.4 mm)
(Feedrate: 120.0 mm/min)
(Feedrate_Z: 60.0 mm/min)
(Feedrate rapids 1500.0 mm/min)

(Z_Cut: -0.1 mm)
(Z_Move: 2.0 mm)
(Z Toolchange: 15.0 mm)
(X,Y Toolchange: 0.0000, 0.0000 mm)
(Z Start: None mm)
(Z End: 15.0 mm)
(Steps per circle: 64)
(Preprocessor Geometry: default)

(X range:  -18.9998 ...   18.9998  mm)
(Y range:  -14.6150 ...    7.3751  mm)

(Spindle Speed: None RPM)
G21
G90
G94




G01 F120.00
G00 Z2.0000
S15000M03
M1
G00 X-0.3751 Y1.5794
G01 F60.00
G01 Z-0.1000
G01 F120.00
G01 X-0.4658 Y1.5567
G01 X-0.4775 Y1.5531
G01 X-0.6161 Y1.5035
G01 X-0.6275 Y1.4988
G01 X-0.7605 Y1.4359
G01 X-0.7714 Y1.4301
G01 X-0.8976 Y1.3544
G01 X-0.9078 Y1.3476
G01 X-1.0261 Y1.2599
G01 X-1.0355 Y1.2521
G01 X-1.1446 Y1.1533
G01 X-1.1533 Y1.1446
G01 X-1.2521 Y1.0355
G01 X-1.2599 Y1.0261
G01 X-1.3476 Y0.9078
G01 X-1.3544 Y0.8976
G01 X-1.4301 Y0.7714
G01 X-1.4359 Y0.7605
G01 X-1.4988 Y0.6275
G01 X-1.5035 Y0.6161
G01 X-1.5531 Y0.4775
G01 X-1.5567 Y0.4658
G01 X-1.5924 Y0.3230
G01 X-1.5948 Y0.3110
G01 X-1.6164 Y0.1654
G01 X-1.6176 Y0.1532
G01 X-1.6248 Y0.0061
G01 X-1.6248 Y-0.0061
G01 X-1.6176 Y-0.1532
G01 X-1.6164 Y-0.1654
G01 X-1.5948 Y-0.3110
G01 X-1.5924 Y-0.3230
G01 X-1.5567 Y-0.4658
G01 X-1.5531 Y-0.4775
G01 X-1.5035 Y-0.6161
G01 X-1.4988 Y-0.6275
G01 X-1.4359 Y-0.7605
G01 X-1.4301 Y-0.7714
G01 X-1.3544 Y-0.8976
G01 X-1.3476 Y-0.9078
G01 X-1.2599 Y-1.0261
G01 X-1.2521 Y-1.0355
G01 X-1.1533 Y-1.1446
G01 X-1.1446 Y-1.1533
G01 X-1.0355 Y-1.2521
G01 X-1.0261 Y-1.2599
G01 X-0.9078 Y-1.3476
G01 X-0.8976 Y-1.3544
G01 X-0.7714 Y-1.4301
G01 X-0.7605 Y-1.4359
G01 X-0.6275 Y-1.4988
G01 X-0.6161 Y-1.5035
G01 X-0.4775 Y-1.5531
G01 X-0.4658 Y-1.5567
G01 X-0.3230 Y-1.5924
G01 X-0.3110 Y-1.5948
G01 X-0.1654 Y-1.6164
G01 X-0.1532 Y-1.6176
G01 X-0.0061 Y-1.6248
G01 X0.0061 Y-1.6248
G01 X0.1532 Y-1.6176
G01 X0.1654 Y-1.6164
G01 X0.3110 Y-1.5948
G01 X0.3230 Y-1.5924
G01 X0.4658 Y-1.5567
G01 X0.4775 Y-1.5531
G01 X0.6161 Y-1.5035
G01 X0.6275 Y-1.4988
G01 X0.7605 Y-1.4359
G01 X0.7714 Y-1.4301
G01 X0.8976 Y-1.3544
G01 X0.9078 Y-1.3476
G01 X1.0261 Y-1.2599
G01 X1.0355 Y-1.2521
G01 X1.1446 Y-1.1533
G01 X1.1533 Y-1.1446
G01 X1.2521 Y-1.0355
G01 X1.2599 Y-1.0261
G01 X1.3476 Y-0.9078
G01 X1.3544 Y-0.8976
G01 X1.4301 Y-0.7714
G01 X1.4359 Y-0.7605
G01 X1.4988 Y-0.6275
G01 X1.5035 Y-0.6161
G01 X1.5531 Y-0.4775
G01 X1.5567 Y-0.4658
G01 X1.5924 Y-0.3230
G01 X1.5948 Y-0.3110
G01 X1.6164 Y-0.1654
G01 X1.6176 Y-0.1532
G01 X1.6248 Y-0.0061
G01 X1.6248 Y0.0061
G01 X1.6176 Y0.1532
G01 X1.6164 Y0.1654
G01 X1.5948 Y0.3110
G01 X1.5924 Y0.3230
G01 X1.5567 Y0.4658
G01 X1.5531 Y0.4775
G01 X1.5035 Y0.6161
G01 X1.4988 Y0.6275
G01 X1.4359 Y0.7605
G01 X1.4301 Y0.7714
G01 X1.3544 Y0.8976
G01 X1.3476 Y0.9078
G01 X1.2599 Y1.0261
G01 X1.2521 Y1.0355
G01 X1.1533 Y1.1446
G01 X1.1446 Y1.1533
G01 X1.0355 Y1.2521
G01 X1.0261 Y1.2599
G01 X0.9078 Y1.3476
G01 X0.8976 Y1.3544
G01 X0.7714 Y1.4301
G01 X0.7605 Y1.4359
G01 X0.6275 Y1.4988
G01 X0.6161 Y1.5035
G01 X0.4775 Y1.5531
G01 X0.4658 Y1.5567
G01 X0.3751 Y1.5794
G01 X0.3751 Y4.9246
G01 X2.0754 Y6.6249
G01 X10.8446 Y6.6249
G01 X12.6249 Y4.8446
G01 X12.6249 Y2.7250
G01 X12.3000 Y2.7250
G01 X12.2877 Y2.7244
G01 X12.2756 Y2.7226
G01 X12.2637 Y2.7196
G01 X12.2522 Y2.7155
G01 X12.2411 Y2.7102
G01 X12.2306 Y2.7039
G01 X12.2207 Y2.6966
G01 X12.2116 Y2.6884
G01 X12.2034 Y2.6793
G01 X12.1961 Y2.6694
G01 X12.1898 Y2.6589
G01 X12.1845 Y2.6478
G01 X12.1804 Y2.6363
G01 X12.1774 Y2.6244
G01 X12.1756 Y2.6123
G01 X12.1750 Y2.6000
G01 X12.1750 Y1.4000
G01 X12.1756 Y1.3877
G01 X12.1774 Y1.3756
G01 X12.1804 Y1.3637
G01 X12.1845 Y1.3522
G01 X12.1898 Y1.3411
G01 X12.1961 Y1.3306
G01 X12.2034 Y1.3207
G01 X12.2116 Y1.3116
G01 X12.2207 Y1.3034
G01 X12.2306 Y1.2961
G01 X12.2411 Y1.2898
G01 X12.2522 Y1.2845
G01 X12.2637 Y1.2804
G01 X12.2756 Y1.2774
G01 X12.2877 Y1.2756
G01 X12.3000 Y1.2750
G01 X13.7000 Y1.2750
G01 X13.7123 Y1.2756
G01 X13.7244 Y1.2774
G01 X13.7363 Y1.2804
G01 X13.7478 Y1.2845
G01 X13.7589 Y1.2898
G01 X13.7694 Y1.2961
G01 X13.7793 Y1.3034
G01 X13.7884 Y1.3116
G01 X13.7966 Y1.3207
G01 X13.8039 Y1.3306
G01 X13.8102 Y1.3411
G01 X13.8155 Y1.3522
G01 X13.8196 Y1.3637
G01 X13.8226 Y1.3756
G01 X13.8244 Y1.3877
G01 X13.8250 Y1.4000
G01 X13.8250 Y2.6000
G01 X13.8244 Y2.6123
G01 X13.8226 Y2.6244
G01 X13.8196 Y2.6363
G01 X13.8155 Y2.6478
G01 X13.8102 Y2.6589
G01 X13.8039 Y2.6694
G01 X13.7966 Y2.6793
G01 X13.7884 Y2.6884
G01 X13.7793 Y2.6966
G01 X13.7694 Y2.7039
G01 X13.7589 Y2.7102
G01 X13.7478 Y2.7155
G01 X13.7363 Y2.7196
G01 X13.7244 Y2.7226
G01 X13.7123 Y2.7244
G01 X13.7000 Y2.7250
G01 X13.3751 Y2.7250
G01 X13.3751 Y5.0000
G01 X13.3738 Y5.0306
G01 X13.3726 Y5.0429
G01 X13.3690 Y5.0671
G01 X13.3666 Y5.0792
G01 X13.3606 Y5.1030
G01 X13.3570 Y5.1147
G01 X13.3488 Y5.1378
G01 X13.3441 Y5.1492
G01 X13.3336 Y5.1714
G01 X13.3278 Y5.1822
G01 X13.3152 Y5.2032
G01 X13.3084 Y5.2134
G01 X13.2938 Y5.2331
G01 X13.2860 Y5.2426
G01 X13.2653 Y5.2653
G01 X11.2653 Y7.2653
G01 X11.2426 Y7.2860
G01 X11.2331 Y7.2938
G01 X11.2134 Y7.3084
G01 X11.2032 Y7.3152
G01 X11.1822 Y7.3278
G01 X11.1714 Y7.3336
G01 X11.1492 Y7.3441
G01 X11.1378 Y7.3488
G01 X11.1147 Y7.3570
G01 X11.1030 Y7.3606
G01 X11.0792 Y7.3666
G01 X11.0671 Y7.3690
G01 X11.0429 Y7.3726
G01 X11.0306 Y7.3738
G01 X11.0000 Y7.3751
G01 X1.9200 Y7.3751
G01 X1.8894 Y7.3738
G01 X1.8771 Y7.3726
G01 X1.8529 Y7.3690
G01 X1.8408 Y7.3666
G01 X1.8170 Y7.3606
G01 X1.8053 Y7.3570
G01 X1.7822 Y7.3488
G01 X1.7708 Y7.3441
G01 X1.7486 Y7.3336
G01 X1.7378 Y7.3278
G01 X1.7168 Y7.3152
G01 X1.7066 Y7.3084
G01 X1.6869 Y7.2938
G01 X1.6774 Y7.2860
G01 X1.6547 Y7.2653
G01 X-0.2653 Y5.3453
G01 X-0.2860 Y5.3226
G01 X-0.2938 Y5.3131
G01 X-0.3084 Y5.2934
G01 X-0.3152 Y5.2832
G01 X-0.3278 Y5.2622
G01 X-0.3336 Y5.2514
G01 X-0.3441 Y5.2292
G01 X-0.3488 Y5.2178
G01 X-0.3570 Y5.1947
G01 X-0.3606 Y5.1830
G01 X-0.3666 Y5.1592
G01 X-0.3690 Y5.1471
G01 X-0.3726 Y5.1229
G01 X-0.3738 Y5.1106
G01 X-0.3751 Y5.0800
G01 X-0.3751 Y1.5794
G00 Z2.0000
G00 X-2.3960 Y2.2870
G01 F60.00
G01 Z-0.1000
G01 F120.00
G01 X-2.3837 Y2.2876
G01 X-2.3716 Y2.2894
G01 X-2.3597 Y2.2924
G01 X-2.3482 Y2.2965
G01 X-2.3371 Y2.3018
G01 X-2.3266 Y2.3081
G01 X-2.3167 Y2.3154
G01 X-2.3076 Y2.3236
G01 X-2.2994 Y2.3327
G01 X-2.2921 Y2.3426
G01 X-2.2858 Y2.3531
G01 X-2.2805 Y2.3642
G01 X-2.2764 Y2.3757
G01 X-2.2734 Y2.3876
G01 X-2.2716 Y2.3997
G01 X-2.2710 Y2.4120
G01 X-2.2710 Y4.6120
G01 X-2.2716 Y4.6243
G01 X-2.2734 Y4.6364
G01 X-2.2764 Y4.6483
G01 X-2.2805 Y4.6598
G01 X-2.2858 Y4.6709
G01 X-2.2921 Y4.6814
G01 X-2.2994 Y4.6913
G01 X-2.3076 Y4.7004
G01 X-2.3167 Y4.7086
G01 X-2.3266 Y4.7159
G01 X-2.3371 Y4.7222
G01 X-2.3482 Y4.7275
G01 X-2.3597 Y4.7316
G01 X-2.3716 Y4.7346
G01 X-2.3837 Y4.7364
G01 X-2.3960 Y4.7370
G01 X-4.1960 Y4.7370
G01 X-4.2083 Y4.7364
G01 X-4.2204 Y4.7346
G01 X-4.2323 Y4.7316
G01 X-4.2438 Y4.7275
G01 X-4.2549 Y4.7222
G01 X-4.2654 Y4.7159
G01 X-4.2753 Y4.7086
G01 X-4.2844 Y4.7004
G01 X-4.2926 Y4.6913
G01 X-4.2999 Y4.6814
G01 X-4.3062 Y4.6709
G01 X-4.3115 Y4.6598
G01 X-4.3156 Y4.6483
G01 X-4.3186 Y4.6364
G01 X-4.3204 Y4.6243
G01 X-4.3210 Y4.6120
G01 X-4.3210 Y2.4120
G01 X-4.3204 Y2.3997
G01 X-4.3186 Y2.3876
G01 X-4.3156 Y2.3757
G01 X-4.3115 Y2.3642
G01 X-4.3062 Y2.3531
G01 X-4.2999 Y2.3426
G01 X-4.2926 Y2.3327
G01 X-4.2844 Y2.3236
G01 X-4.2753 Y2.3154
G01 X-4.2654 Y2.3081
G01 X-4.2549 Y2.3018
G01 X-4.2438 Y2.2965
G01 X-4.2323 Y2.2924
G01 X-4.2204 Y2.2894
G01 X-4.2083 Y2.2876
G01 X-4.1960 Y2.2870
G01 X-2.3960 Y2.2870
G00 Z2.0000
G00 X-6.0734 Y2.2870
G01 F60.00
G01 Z-0.1000
G01 F120.00
G01 X-4.9360 Y2.2870
G01 X-4.9237 Y2.2876
G01 X-4.9116 Y2.2894
G01 X-4.8997 Y2.2924
G01 X-4.8882 Y2.2965
G01 X-4.8771 Y2.3018
G01 X-4.8666 Y2.3081
G01 X-4.8567 Y2.3154
G01 X-4.8476 Y2.3236
G01 X-4.8394 Y2.3327
G01 X-4.8321 Y2.3426
G01 X-4.8258 Y2.3531
G01 X-4.8205 Y2.3642
G01 X-4.8164 Y2.3757
G01 X-4.8134 Y2.3876
G01 X-4.8116 Y2.3997
G01 X-4.8110 Y2.4120
G01 X-4.8110 Y4.6120
G01 X-4.8116 Y4.6243
G01 X-4.8134 Y4.6364
G01 X-4.8164 Y4.6483
G01 X-4.8205 Y4.6598
G01 X-4.8258 Y4.6709
G01 X-4.8321 Y4.6814
G01 X-4.8394 Y4.6913
G01 X-4.8476 Y4.7004
G01 X-4.8567 Y4.7086
G01 X-4.8666 Y4.7159
G01 X-4.8771 Y4.7222
G01 X-4.8882 Y4.7275
G01 X-4.8997 Y4.7316
G01 X-4.9116 Y4.7346
G01 X-4.9237 Y4.7364
G01 X-4.9360 Y4.7370
G01 X-6.7360 Y4.7370
G01 X-6.7483 Y4.7364
G01 X-6.7604 Y4.7346
G01 X-6.7723 Y4.7316
G01 X-6.7838 Y4.7275
G01 X-6.7949 Y4.7222
G01 X-6.8054 Y4.7159
G01 X-6.8153 Y4.7086
G01 X-6.8244 Y4.7004
G01 X-6.8326 Y4.6913
G01 X-6.8399 Y4.6814
G01 X-6.8462 Y4.6709
G01 X-6.8515 Y4.6598
G01 X-6.8556 Y4.6483
G01 X-6.8586 Y4.6364
G01 X-6.8604 Y4.6243
G01 X-6.8610 Y4.6120
G01 X-6.8610 Y2.5595
G01 X-9.1553 Y0.2653
G01 X-9.1760 Y0.2426
G01 X-9.1838 Y0.2331
G01 X-9.1984 Y0.2134
G01 X-9.2052 Y0.2032
G01 X-9.2178 Y0.1822
G01 X-9.2236 Y0.1714
G01 X-9.2341 Y0.1492
G01 X-9.2388 Y0.1378
G01 X-9.2470 Y0.1147
G01 X-9.2506 Y0.1030
G01 X-9.2566 Y0.0792
G01 X-9.2590 Y0.0671
G01 X-9.2626 Y0.0429
G01 X-9.2638 Y0.0306
G01 X-9.2651 Y-0.0000
G01 X-9.2651 Y-0.4450
G01 X-9.9980 Y-0.4450
G01 X-10.0103 Y-0.4456
G01 X-10.0224 Y-0.4474
G01 X-10.0343 Y-0.4504
G01 X-10.0458 Y-0.4545
G01 X-10.0569 Y-0.4598
G01 X-10.0674 Y-0.4661
G01 X-10.0773 Y-0.4734
G01 X-10.0864 Y-0.4816
G01 X-10.0946 Y-0.4907
G01 X-10.1019 Y-0.5006
G01 X-10.1082 Y-0.5111
G01 X-10.1135 Y-0.5222
G01 X-10.1176 Y-0.5337
G01 X-10.1206 Y-0.5456
G01 X-10.1224 Y-0.5577
G01 X-10.1230 Y-0.5700
G01 X-10.1230 Y-1.9700
G01 X-10.1224 Y-1.9823
G01 X-10.1206 Y-1.9944
G01 X-10.1176 Y-2.0063
G01 X-10.1135 Y-2.0178
G01 X-10.1082 Y-2.0289
G01 X-10.1019 Y-2.0394
G01 X-10.0946 Y-2.0493
G01 X-10.0864 Y-2.0584
G01 X-10.0773 Y-2.0666
G01 X-10.0674 Y-2.0739
G01 X-10.0569 Y-2.0802
G01 X-10.0458 Y-2.0855
G01 X-10.0343 Y-2.0896
G01 X-10.0224 Y-2.0926
G01 X-10.0103 Y-2.0944
G01 X-9.9980 Y-2.0950
G01 X-9.2651 Y-2.0950
G01 X-9.2651 Y-3.8550
G01 X-9.9900 Y-3.8550
G01 X-10.0023 Y-3.8556
G01 X-10.0144 Y-3.8574
G01 X-10.0263 Y-3.8604
G01 X-10.0378 Y-3.8645
G01 X-10.0489 Y-3.8698
G01 X-10.0594 Y-3.8761
G01 X-10.0693 Y-3.8834
G01 X-10.0784 Y-3.8916
G01 X-10.0866 Y-3.9007
G01 X-10.0939 Y-3.9106
G01 X-10.1002 Y-3.9211
G01 X-10.1055 Y-3.9322
G01 X-10.1096 Y-3.9437
G01 X-10.1126 Y-3.9556
G01 X-10.1144 Y-3.9677
G01 X-10.1150 Y-3.9800
G01 X-10.1150 Y-6.1800
G01 X-10.1144 Y-6.1923
G01 X-10.1126 Y-6.2044
G01 X-10.1096 Y-6.2163
G01 X-10.1055 Y-6.2278
G01 X-10.1002 Y-6.2389
G01 X-10.0939 Y-6.2494
G01 X-10.0866 Y-6.2593
G01 X-10.0784 Y-6.2684
G01 X-10.0693 Y-6.2766
G01 X-10.0594 Y-6.2839
G01 X-10.0489 Y-6.2902
G01 X-10.0378 Y-6.2955
G01 X-10.0263 Y-6.2996
G01 X-10.0144 Y-6.3026
G01 X-10.0023 Y-6.3044
G01 X-9.9900 Y-6.3050
G01 X-9.2651 Y-6.3050
G01 X-9.2651 Y-8.8900
G01 X-9.2638 Y-8.9206
G01 X-9.2626 Y-8.9329
G01 X-9.2590 Y-8.9571
G01 X-9.2566 Y-8.9692
G01 X-9.2506 Y-8.9930
G01 X-9.2470 Y-9.0047
G01 X-9.2388 Y-9.0278
G01 X-9.2341 Y-9.0392
G01 X-9.2236 Y-9.0614
G01 X-9.2178 Y-9.0722
G01 X-9.2052 Y-9.0932
G01 X-9.1984 Y-9.1034
G01 X-9.1838 Y-9.1231
G01 X-9.1760 Y-9.1326
G01 X-9.1553 Y-9.1553
G01 X-8.5225 Y-9.7880
G01 X-9.3669 Y-10.6324
G01 X-9.8086 Y-10.1906
G01 X-9.8177 Y-10.1824
G01 X-9.8276 Y-10.1751
G01 X-9.8381 Y-10.1688
G01 X-9.8492 Y-10.1635
G01 X-9.8607 Y-10.1594
G01 X-9.8726 Y-10.1564
G01 X-9.8847 Y-10.1546
G01 X-9.8970 Y-10.1540
G01 X-9.9093 Y-10.1546
G01 X-9.9214 Y-10.1564
G01 X-9.9333 Y-10.1594
G01 X-9.9448 Y-10.1635
G01 X-9.9559 Y-10.1688
G01 X-9.9664 Y-10.1751
G01 X-9.9763 Y-10.1824
G01 X-9.9854 Y-10.1906
G01 X-11.3994 Y-11.6046
G01 X-11.4076 Y-11.6137
G01 X-11.4149 Y-11.6236
G01 X-11.4212 Y-11.6341
G01 X-11.4265 Y-11.6452
G01 X-11.4306 Y-11.6567
G01 X-11.4336 Y-11.6686
G01 X-11.4354 Y-11.6807
G01 X-11.4360 Y-11.6930
G01 X-11.4354 Y-11.7053
G01 X-11.4336 Y-11.7174
G01 X-11.4306 Y-11.7293
G01 X-11.4265 Y-11.7408
G01 X-11.4212 Y-11.7519
G01 X-11.4149 Y-11.7624
G01 X-11.4076 Y-11.7723
G01 X-11.3994 Y-11.7814
G01 X-9.9854 Y-13.1954
G01 X-9.9763 Y-13.2036
G01 X-9.9664 Y-13.2109
G01 X-9.9559 Y-13.2172
G01 X-9.9448 Y-13.2225
G01 X-9.9333 Y-13.2266
G01 X-9.9214 Y-13.2296
G01 X-9.9093 Y-13.2314
G01 X-9.8970 Y-13.2320
G01 X-9.8847 Y-13.2314
G01 X-9.8726 Y-13.2296
G01 X-9.8607 Y-13.2266
G01 X-9.8492 Y-13.2225
G01 X-9.8381 Y-13.2172
G01 X-9.8276 Y-13.2109
G01 X-9.8177 Y-13.2036
G01 X-9.8086 Y-13.1954
G01 X-8.3946 Y-11.7814
G01 X-8.3864 Y-11.7723
G01 X-8.3791 Y-11.7624
G01 X-8.3728 Y-11.7519
G01 X-8.3675 Y-11.7408
G01 X-8.3634 Y-11.7293
G01 X-8.3604 Y-11.7174
G01 X-8.3586 Y-11.7053
G01 X-8.3580 Y-11.6930
G01 X-8.3586 Y-11.6807
G01 X-8.3604 Y-11.6686
G01 X-8.3634 Y-11.6567
G01 X-8.3675 Y-11.6452
G01 X-8.3728 Y-11.6341
G01 X-8.3791 Y-11.6236
G01 X-8.3864 Y-11.6137
G01 X-8.3946 Y-11.6046
G01 X-8.8364 Y-11.1629
G01 X-7.9920 Y-10.3185
G01 X-5.9803 Y-12.3303
G01 X-5.9576 Y-12.3510
G01 X-5.9481 Y-12.3588
G01 X-5.9284 Y-12.3734
G01 X-5.9182 Y-12.3802
G01 X-5.8972 Y-12.3928
G01 X-5.8864 Y-12.3986
G01 X-5.8642 Y-12.4091
G01 X-5.8528 Y-12.4138
G01 X-5.8297 Y-12.4220
G01 X-5.8180 Y-12.4256
G01 X-5.7942 Y-12.4316
G01 X-5.7821 Y-12.4340
G01 X-5.7579 Y-12.4376
G01 X-5.7456 Y-12.4388
G01 X-5.7150 Y-12.4401
G01 X3.6950 Y-12.4401
G01 X3.6950 Y-14.4900
G01 X3.6956 Y-14.5023
G01 X3.6974 Y-14.5144
G01 X3.7004 Y-14.5263
G01 X3.7045 Y-14.5378
G01 X3.7098 Y-14.5489
G01 X3.7161 Y-14.5594
G01 X3.7234 Y-14.5693
G01 X3.7316 Y-14.5784
G01 X3.7407 Y-14.5866
G01 X3.7506 Y-14.5939
G01 X3.7611 Y-14.6002
G01 X3.7722 Y-14.6055
G01 X3.7837 Y-14.6096
G01 X3.7956 Y-14.6126
G01 X3.8077 Y-14.6144
G01 X3.8200 Y-14.6150
G01 X5.0700 Y-14.6150
G01 X5.0823 Y-14.6144
G01 X5.0944 Y-14.6126
G01 X5.1063 Y-14.6096
G01 X5.1178 Y-14.6055
G01 X5.1289 Y-14.6002
G01 X5.1394 Y-14.5939
G01 X5.1493 Y-14.5866
G01 X5.1584 Y-14.5784
G01 X5.1666 Y-14.5693
G01 X5.1739 Y-14.5594
G01 X5.1802 Y-14.5489
G01 X5.1855 Y-14.5378
G01 X5.1896 Y-14.5263
G01 X5.1926 Y-14.5144
G01 X5.1944 Y-14.5023
G01 X5.1950 Y-14.4900
G01 X5.1950 Y-11.4900
G01 X5.1944 Y-11.4777
G01 X5.1926 Y-11.4656
G01 X5.1896 Y-11.4537
G01 X5.1855 Y-11.4422
G01 X5.1802 Y-11.4311
G01 X5.1739 Y-11.4206
G01 X5.1666 Y-11.4107
G01 X5.1584 Y-11.4016
G01 X5.1493 Y-11.3934
G01 X5.1394 Y-11.3861
G01 X5.1289 Y-11.3798
G01 X5.1178 Y-11.3745
G01 X5.1063 Y-11.3704
G01 X5.0944 Y-11.3674
G01 X5.0823 Y-11.3656
G01 X5.0700 Y-11.3650
G01 X3.8200 Y-11.3650
G01 X3.8077 Y-11.3656
G01 X3.7956 Y-11.3674
G01 X3.7837 Y-11.3704
G01 X3.7722 Y-11.3745
G01 X3.7611 Y-11.3798
G01 X3.7506 Y-11.3861
G01 X3.7407 Y-11.3934
G01 X3.7316 Y-11.4016
G01 X3.7234 Y-11.4107
G01 X3.7161 Y-11.4206
G01 X3.7098 Y-11.4311
G01 X3.7045 Y-11.4422
G01 X3.7004 Y-11.4537
G01 X3.6974 Y-11.4656
G01 X3.6956 Y-11.4777
G01 X3.6950 Y-11.4900
G01 X3.6950 Y-11.6899
G01 X-5.5596 Y-11.6899
G01 X-8.5149 Y-8.7346
G01 X-8.5149 Y-6.3050
G01 X-7.7900 Y-6.3050
G01 X-7.7777 Y-6.3044
G01 X-7.7656 Y-6.3026
G01 X-7.7537 Y-6.2996
G01 X-7.7422 Y-6.2955
G01 X-7.7311 Y-6.2902
G01 X-7.7206 Y-6.2839
G01 X-7.7107 Y-6.2766
G01 X-7.7016 Y-6.2684
G01 X-7.6934 Y-6.2593
G01 X-7.6861 Y-6.2494
G01 X-7.6798 Y-6.2389
G01 X-7.6745 Y-6.2278
G01 X-7.6704 Y-6.2163
G01 X-7.6674 Y-6.2044
G01 X-7.6656 Y-6.1923
G01 X-7.6650 Y-6.1800
G01 X-7.6650 Y-3.9800
G01 X-7.6656 Y-3.9677
G01 X-7.6674 Y-3.9556
G01 X-7.6704 Y-3.9437
G01 X-7.6745 Y-3.9322
G01 X-7.6798 Y-3.9211
G01 X-7.6861 Y-3.9106
G01 X-7.6934 Y-3.9007
G01 X-7.7016 Y-3.8916
G01 X-7.7107 Y-3.8834
G01 X-7.7206 Y-3.8761
G01 X-7.7311 Y-3.8698
G01 X-7.7422 Y-3.8645
G01 X-7.7537 Y-3.8604
G01 X-7.7656 Y-3.8574
G01 X-7.7777 Y-3.8556
G01 X-7.7900 Y-3.8550
G01 X-8.5149 Y-3.8550
G01 X-8.5149 Y-0.1554
G01 X-6.0847 Y2.2747
G01 X-6.0734 Y2.2870
G00 Z2.0000
G00 X-7.4760 Y2.2870
G01 F60.00
G01 Z-0.1000
G01 F120.00
G01 X-7.4637 Y2.2876
G01 X-7.4516 Y2.2894
G01 X-7.4397 Y2.2924
G01 X-7.4282 Y2.2965
G01 X-7.4171 Y2.3018
G01 X-7.4066 Y2.3081
G01 X-7.3967 Y2.3154
G01 X-7.3876 Y2.3236
G01 X-7.3794 Y2.3327
G01 X-7.3721 Y2.3426
G01 X-7.3658 Y2.3531
G01 X-7.3605 Y2.3642
G01 X-7.3564 Y2.3757
G01 X-7.3534 Y2.3876
G01 X-7.3516 Y2.3997
G01 X-7.3510 Y2.4120
G01 X-7.3510 Y4.6120
G01 X-7.3516 Y4.6243
G01 X-7.3534 Y4.6364
G01 X-7.3564 Y4.6483
G01 X-7.3605 Y4.6598
G01 X-7.3658 Y4.6709
G01 X-7.3721 Y4.6814
G01 X-7.3794 Y4.6913
G01 X-7.3876 Y4.7004
G01 X-7.3967 Y4.7086
G01 X-7.4066 Y4.7159
G01 X-7.4171 Y4.7222
G01 X-7.4282 Y4.7275
G01 X-7.4397 Y4.7316
G01 X-7.4516 Y4.7346
G01 X-7.4637 Y4.7364
G01 X-7.4760 Y4.7370
G01 X-9.2760 Y4.7370
G01 X-9.2883 Y4.7364
G01 X-9.3004 Y4.7346
G01 X-9.3123 Y4.7316
G01 X-9.3238 Y4.7275
G01 X-9.3349 Y4.7222
G01 X-9.3454 Y4.7159
G01 X-9.3553 Y4.7086
G01 X-9.3644 Y4.7004
G01 X-9.3726 Y4.6913
G01 X-9.3799 Y4.6814
G01 X-9.3862 Y4.6709
G01 X-9.3915 Y4.6598
G01 X-9.3956 Y4.6483
G01 X-9.3986 Y4.6364
G01 X-9.4004 Y4.6243
G01 X-9.4010 Y4.6120
G01 X-9.4010 Y3.0175
G01 X-11.6953 Y0.7233
G01 X-11.7160 Y0.7006
G01 X-11.7238 Y0.6911
G01 X-11.7384 Y0.6714
G01 X-11.7452 Y0.6612
G01 X-11.7578 Y0.6402
G01 X-11.7636 Y0.6294
G01 X-11.7741 Y0.6072
G01 X-11.7788 Y0.5958
G01 X-11.7870 Y0.5727
G01 X-11.7906 Y0.5610
G01 X-11.7966 Y0.5372
G01 X-11.7990 Y0.5251
G01 X-11.8026 Y0.5009
G01 X-11.8038 Y0.4886
G01 X-11.8051 Y0.4580
G01 X-11.8051 Y-0.4450
G01 X-12.0300 Y-0.4450
G01 X-12.0423 Y-0.4456
G01 X-12.0544 Y-0.4474
G01 X-12.0663 Y-0.4504
G01 X-12.0778 Y-0.4545
G01 X-12.0889 Y-0.4598
G01 X-12.0994 Y-0.4661
G01 X-12.1093 Y-0.4734
G01 X-12.1184 Y-0.4816
G01 X-12.1266 Y-0.4907
G01 X-12.1339 Y-0.5006
G01 X-12.1402 Y-0.5111
G01 X-12.1455 Y-0.5222
G01 X-12.1496 Y-0.5337
G01 X-12.1526 Y-0.5456
G01 X-12.1544 Y-0.5577
G01 X-12.1550 Y-0.5700
G01 X-12.1550 Y-1.9700
G01 X-12.1544 Y-1.9823
G01 X-12.1526 Y-1.9944
G01 X-12.1496 Y-2.0063
G01 X-12.1455 Y-2.0178
G01 X-12.1402 Y-2.0289
G01 X-12.1339 Y-2.0394
G01 X-12.1266 Y-2.0493
G01 X-12.1184 Y-2.0584
G01 X-12.1093 Y-2.0666
G01 X-12.0994 Y-2.0739
G01 X-12.0889 Y-2.0802
G01 X-12.0778 Y-2.0855
G01 X-12.0663 Y-2.0896
G01 X-12.0544 Y-2.0926
G01 X-12.0423 Y-2.0944
G01 X-12.0300 Y-2.0950
G01 X-11.8051 Y-2.0950
G01 X-11.8051 Y-3.8550
G01 X-12.5300 Y-3.8550
G01 X-12.5423 Y-3.8556
G01 X-12.5544 Y-3.8574
G01 X-12.5663 Y-3.8604
G01 X-12.5778 Y-3.8645
G01 X-12.5889 Y-3.8698
G01 X-12.5994 Y-3.8761
G01 X-12.6093 Y-3.8834
G01 X-12.6184 Y-3.8916
G01 X-12.6266 Y-3.9007
G01 X-12.6339 Y-3.9106
G01 X-12.6402 Y-3.9211
G01 X-12.6455 Y-3.9322
G01 X-12.6496 Y-3.9437
G01 X-12.6526 Y-3.9556
G01 X-12.6544 Y-3.9677
G01 X-12.6550 Y-3.9800
G01 X-12.6550 Y-4.7049
G01 X-13.1450 Y-4.7049
G01 X-13.1450 Y-4.4800
G01 X-13.1456 Y-4.4677
G01 X-13.1474 Y-4.4556
G01 X-13.1504 Y-4.4437
G01 X-13.1545 Y-4.4322
G01 X-13.1598 Y-4.4211
G01 X-13.1661 Y-4.4106
G01 X-13.1734 Y-4.4007
G01 X-13.1816 Y-4.3916
G01 X-13.1907 Y-4.3834
G01 X-13.2006 Y-4.3761
G01 X-13.2111 Y-4.3698
G01 X-13.2222 Y-4.3645
G01 X-13.2337 Y-4.3604
G01 X-13.2456 Y-4.3574
G01 X-13.2577 Y-4.3556
G01 X-13.2700 Y-4.3550
G01 X-14.6700 Y-4.3550
G01 X-14.6823 Y-4.3556
G01 X-14.6944 Y-4.3574
G01 X-14.7063 Y-4.3604
G01 X-14.7178 Y-4.3645
G01 X-14.7289 Y-4.3698
G01 X-14.7394 Y-4.3761
G01 X-14.7493 Y-4.3834
G01 X-14.7584 Y-4.3916
G01 X-14.7666 Y-4.4007
G01 X-14.7739 Y-4.4106
G01 X-14.7802 Y-4.4211
G01 X-14.7855 Y-4.4322
G01 X-14.7896 Y-4.4437
G01 X-14.7926 Y-4.4556
G01 X-14.7944 Y-4.4677
G01 X-14.7950 Y-4.4800
G01 X-14.7950 Y-5.6800
G01 X-14.7944 Y-5.6923
G01 X-14.7926 Y-5.7044
G01 X-14.7896 Y-5.7163
G01 X-14.7855 Y-5.7278
G01 X-14.7802 Y-5.7389
G01 X-14.7739 Y-5.7494
G01 X-14.7666 Y-5.7593
G01 X-14.7584 Y-5.7684
G01 X-14.7493 Y-5.7766
G01 X-14.7394 Y-5.7839
G01 X-14.7289 Y-5.7902
G01 X-14.7178 Y-5.7955
G01 X-14.7063 Y-5.7996
G01 X-14.6944 Y-5.8026
G01 X-14.6823 Y-5.8044
G01 X-14.6700 Y-5.8050
G01 X-13.2700 Y-5.8050
G01 X-13.2577 Y-5.8044
G01 X-13.2456 Y-5.8026
G01 X-13.2337 Y-5.7996
G01 X-13.2222 Y-5.7955
G01 X-13.2111 Y-5.7902
G01 X-13.2006 Y-5.7839
G01 X-13.1907 Y-5.7766
G01 X-13.1816 Y-5.7684
G01 X-13.1734 Y-5.7593
G01 X-13.1661 Y-5.7494
G01 X-13.1598 Y-5.7389
G01 X-13.1545 Y-5.7278
G01 X-13.1504 Y-5.7163
G01 X-13.1474 Y-5.7044
G01 X-13.1456 Y-5.6923
G01 X-13.1450 Y-5.6800
G01 X-13.1450 Y-5.4551
G01 X-12.6550 Y-5.4551
G01 X-12.6550 Y-6.1800
G01 X-12.6544 Y-6.1923
G01 X-12.6526 Y-6.2044
G01 X-12.6496 Y-6.2163
G01 X-12.6455 Y-6.2278
G01 X-12.6402 Y-6.2389
G01 X-12.6339 Y-6.2494
G01 X-12.6266 Y-6.2593
G01 X-12.6184 Y-6.2684
G01 X-12.6093 Y-6.2766
G01 X-12.5994 Y-6.2839
G01 X-12.5889 Y-6.2902
G01 X-12.5778 Y-6.2955
G01 X-12.5663 Y-6.2996
G01 X-12.5544 Y-6.3026
G01 X-12.5423 Y-6.3044
G01 X-12.5300 Y-6.3050
G01 X-10.3300 Y-6.3050
G01 X-10.3177 Y-6.3044
G01 X-10.3056 Y-6.3026
G01 X-10.2937 Y-6.2996
G01 X-10.2822 Y-6.2955
G01 X-10.2711 Y-6.2902
G01 X-10.2606 Y-6.2839
G01 X-10.2507 Y-6.2766
G01 X-10.2416 Y-6.2684
G01 X-10.2334 Y-6.2593
G01 X-10.2261 Y-6.2494
G01 X-10.2198 Y-6.2389
G01 X-10.2145 Y-6.2278
G01 X-10.2104 Y-6.2163
G01 X-10.2074 Y-6.2044
G01 X-10.2056 Y-6.1923
G01 X-10.2050 Y-6.1800
G01 X-10.2050 Y-3.9800
G01 X-10.2056 Y-3.9677
G01 X-10.2074 Y-3.9556
G01 X-10.2104 Y-3.9437
G01 X-10.2145 Y-3.9322
G01 X-10.2198 Y-3.9211
G01 X-10.2261 Y-3.9106
G01 X-10.2334 Y-3.9007
G01 X-10.2416 Y-3.8916
G01 X-10.2507 Y-3.8834
G01 X-10.2606 Y-3.8761
G01 X-10.2711 Y-3.8698
G01 X-10.2822 Y-3.8645
G01 X-10.2937 Y-3.8604
G01 X-10.3056 Y-3.8574
G01 X-10.3177 Y-3.8556
G01 X-10.3300 Y-3.8550
G01 X-11.0549 Y-3.8550
G01 X-11.0549 Y-2.0950
G01 X-10.8300 Y-2.0950
G01 X-10.8177 Y-2.0944
G01 X-10.8056 Y-2.0926
G01 X-10.7937 Y-2.0896
G01 X-10.7822 Y-2.0855
G01 X-10.7711 Y-2.0802
G01 X-10.7606 Y-2.0739
G01 X-10.7507 Y-2.0666
G01 X-10.7416 Y-2.0584
G01 X-10.7334 Y-2.0493
G01 X-10.7261 Y-2.0394
G01 X-10.7198 Y-2.0289
G01 X-10.7145 Y-2.0178
G01 X-10.7104 Y-2.0063
G01 X-10.7074 Y-1.9944
G01 X-10.7056 Y-1.9823
G01 X-10.7050 Y-1.9700
G01 X-10.7050 Y-0.5700
G01 X-10.7056 Y-0.5577
G01 X-10.7074 Y-0.5456
G01 X-10.7104 Y-0.5337
G01 X-10.7145 Y-0.5222
G01 X-10.7198 Y-0.5111
G01 X-10.7261 Y-0.5006
G01 X-10.7334 Y-0.4907
G01 X-10.7416 Y-0.4816
G01 X-10.7507 Y-0.4734
G01 X-10.7606 Y-0.4661
G01 X-10.7711 Y-0.4598
G01 X-10.7822 Y-0.4545
G01 X-10.7937 Y-0.4504
G01 X-10.8056 Y-0.4474
G01 X-10.8177 Y-0.4456
G01 X-10.8300 Y-0.4450
G01 X-11.0549 Y-0.4450
G01 X-11.0549 Y0.3026
G01 X-9.0705 Y2.2870
G01 X-7.4760 Y2.2870
G00 Z2.0000
G00 X2.6840 Y2.2870
G01 F60.00
G01 Z-0.1000
G01 F120.00
G01 X2.6963 Y2.2876
G01 X2.7084 Y2.2894
G01 X2.7203 Y2.2924
G01 X2.7318 Y2.2965
G01 X2.7429 Y2.3018
G01 X2.7534 Y2.3081
G01 X2.7633 Y2.3154
G01 X2.7724 Y2.3236
G01 X2.7806 Y2.3327
G01 X2.7879 Y2.3426
G01 X2.7942 Y2.3531
G01 X2.7995 Y2.3642
G01 X2.8036 Y2.3757
G01 X2.8066 Y2.3876
G01 X2.8084 Y2.3997
G01 X2.8090 Y2.4120
G01 X2.8090 Y4.6120
G01 X2.8084 Y4.6243
G01 X2.8066 Y4.6364
G01 X2.8036 Y4.6483
G01 X2.7995 Y4.6598
G01 X2.7942 Y4.6709
G01 X2.7879 Y4.6814
G01 X2.7806 Y4.6913
G01 X2.7724 Y4.7004
G01 X2.7633 Y4.7086
G01 X2.7534 Y4.7159
G01 X2.7429 Y4.7222
G01 X2.7318 Y4.7275
G01 X2.7203 Y4.7316
G01 X2.7084 Y4.7346
G01 X2.6963 Y4.7364
G01 X2.6840 Y4.7370
G01 X0.8840 Y4.7370
G01 X0.8717 Y4.7364
G01 X0.8596 Y4.7346
G01 X0.8477 Y4.7316
G01 X0.8362 Y4.7275
G01 X0.8251 Y4.7222
G01 X0.8146 Y4.7159
G01 X0.8047 Y4.7086
G01 X0.7956 Y4.7004
G01 X0.7874 Y4.6913
G01 X0.7801 Y4.6814
G01 X0.7738 Y4.6709
G01 X0.7685 Y4.6598
G01 X0.7644 Y4.6483
G01 X0.7614 Y4.6364
G01 X0.7596 Y4.6243
G01 X0.7590 Y4.6120
G01 X0.7590 Y2.4120
G01 X0.7596 Y2.3997
G01 X0.7614 Y2.3876
G01 X0.7644 Y2.3757
G01 X0.7685 Y2.3642
G01 X0.7738 Y2.3531
G01 X0.7801 Y2.3426
G01 X0.7874 Y2.3327
G01 X0.7956 Y2.3236
G01 X0.8047 Y2.3154
G01 X0.8146 Y2.3081
G01 X0.8251 Y2.3018
G01 X0.8362 Y2.2965
G01 X0.8477 Y2.2924
G01 X0.8596 Y2.2894
G01 X0.8717 Y2.2876
G01 X0.8840 Y2.2870
G01 X2.6840 Y2.2870
G00 Z2.0000
G00 X7.7640 Y2.2870
G01 F60.00
G01 Z-0.1000
G01 F120.00
G01 X7.7763 Y2.2876
G01 X7.7884 Y2.2894
G01 X7.8003 Y2.2924
G01 X7.8118 Y2.2965
G01 X7.8229 Y2.3018
G01 X7.8334 Y2.3081
G01 X7.8433 Y2.3154
G01 X7.8524 Y2.3236
G01 X7.8606 Y2.3327
G01 X7.8679 Y2.3426
G01 X7.8742 Y2.3531
G01 X7.8795 Y2.3642
G01 X7.8836 Y2.3757
G01 X7.8866 Y2.3876
G01 X7.8884 Y2.3997
G01 X7.8890 Y2.4120
G01 X7.8890 Y4.6120
G01 X7.8884 Y4.6243
G01 X7.8866 Y4.6364
G01 X7.8836 Y4.6483
G01 X7.8795 Y4.6598
G01 X7.8742 Y4.6709
G01 X7.8679 Y4.6814
G01 X7.8606 Y4.6913
G01 X7.8524 Y4.7004
G01 X7.8433 Y4.7086
G01 X7.8334 Y4.7159
G01 X7.8229 Y4.7222
G01 X7.8118 Y4.7275
G01 X7.8003 Y4.7316
G01 X7.7884 Y4.7346
G01 X7.7763 Y4.7364
G01 X7.7640 Y4.7370
G01 X5.9640 Y4.7370
G01 X5.9517 Y4.7364
G01 X5.9396 Y4.7346
G01 X5.9277 Y4.7316
G01 X5.9162 Y4.7275
G01 X5.9051 Y4.7222
G01 X5.8946 Y4.7159
G01 X5.8847 Y4.7086
G01 X5.8756 Y4.7004
G01 X5.8674 Y4.6913
G01 X5.8601 Y4.6814
G01 X5.8538 Y4.6709
G01 X5.8485 Y4.6598
G01 X5.8444 Y4.6483
G01 X5.8414 Y4.6364
G01 X5.8396 Y4.6243
G01 X5.8390 Y4.6120
G01 X5.8390 Y2.4120
G01 X5.8396 Y2.3997
G01 X5.8414 Y2.3876
G01 X5.8444 Y2.3757
G01 X5.8485 Y2.3642
G01 X5.8538 Y2.3531
G01 X5.8601 Y2.3426
G01 X5.8674 Y2.3327
G01 X5.8756 Y2.3236
G01 X5.8847 Y2.3154
G01 X5.8946 Y2.3081
G01 X5.9051 Y2.3018
G01 X5.9162 Y2.2965
G01 X5.9277 Y2.2924
G01 X5.9396 Y2.2894
G01 X5.9517 Y2.2876
G01 X5.9640 Y2.2870
G01 X5.9749 Y2.2870
G01 X5.9749 Y2.0950
G01 X5.7500 Y2.0950
G01 X5.7377 Y2.0944
G01 X5.7256 Y2.0926
G01 X5.7137 Y2.0896
G01 X5.7022 Y2.0855
G01 X5.6911 Y2.0802
G01 X5.6806 Y2.0739
G01 X5.6707 Y2.0666
G01 X5.6616 Y2.0584
G01 X5.6534 Y2.0493
G01 X5.6461 Y2.0394
G01 X5.6398 Y2.0289
G01 X5.6345 Y2.0178
G01 X5.6304 Y2.0063
G01 X5.6274 Y1.9944
G01 X5.6256 Y1.9823
G01 X5.6250 Y1.9700
G01 X5.6250 Y0.5700
G01 X5.6256 Y0.5577
G01 X5.6274 Y0.5456
G01 X5.6304 Y0.5337
G01 X5.6345 Y0.5222
G01 X5.6398 Y0.5111
G01 X5.6461 Y0.5006
G01 X5.6534 Y0.4907
G01 X5.6616 Y0.4816
G01 X5.6707 Y0.4734
G01 X5.6806 Y0.4661
G01 X5.6911 Y0.4598
G01 X5.7022 Y0.4545
G01 X5.7137 Y0.4504
G01 X5.7256 Y0.4474
G01 X5.7377 Y0.4456
G01 X5.7500 Y0.4450
G01 X5.9749 Y0.4450
G01 X5.9749 Y0.1554
G01 X4.2896 Y-1.5299
G01 X2.5339 Y-1.5300
G01 X2.5094 Y-1.5312
G01 X2.4971 Y-1.5324
G01 X2.4729 Y-1.5360
G01 X2.4608 Y-1.5384
G01 X2.4370 Y-1.5444
G01 X2.4253 Y-1.5480
G01 X2.4022 Y-1.5562
G01 X2.3908 Y-1.5609
G01 X2.3686 Y-1.5714
G01 X2.3578 Y-1.5772
G01 X2.3368 Y-1.5898
G01 X2.3266 Y-1.5966
G01 X2.3069 Y-1.6112
G01 X2.2974 Y-1.6190
G01 X2.2747 Y-1.6397
G01 X0.2427 Y-3.6717
G01 X0.2220 Y-3.6944
G01 X0.2142 Y-3.7039
G01 X0.1996 Y-3.7236
G01 X0.1928 Y-3.7338
G01 X0.1802 Y-3.7548
G01 X0.1744 Y-3.7656
G01 X0.1639 Y-3.7878
G01 X0.1592 Y-3.7992
G01 X0.1510 Y-3.8223
G01 X0.1474 Y-3.8340
G01 X0.1414 Y-3.8578
G01 X0.1390 Y-3.8699
G01 X0.1354 Y-3.8941
G01 X0.1342 Y-3.9064
G01 X0.1329 Y-3.9370
G01 X0.1329 Y-4.2550
G01 X-0.0920 Y-4.2550
G01 X-0.1043 Y-4.2556
G01 X-0.1164 Y-4.2574
G01 X-0.1283 Y-4.2604
G01 X-0.1398 Y-4.2645
G01 X-0.1509 Y-4.2698
G01 X-0.1614 Y-4.2761
G01 X-0.1713 Y-4.2834
G01 X-0.1804 Y-4.2916
G01 X-0.1886 Y-4.3007
G01 X-0.1959 Y-4.3106
G01 X-0.2022 Y-4.3211
G01 X-0.2075 Y-4.3322
G01 X-0.2116 Y-4.3437
G01 X-0.2146 Y-4.3556
G01 X-0.2164 Y-4.3677
G01 X-0.2170 Y-4.3800
G01 X-0.2170 Y-4.7049
G01 X-2.5850 Y-4.7049
G01 X-2.5850 Y-3.9800
G01 X-2.5856 Y-3.9677
G01 X-2.5874 Y-3.9556
G01 X-2.5904 Y-3.9437
G01 X-2.5945 Y-3.9322
G01 X-2.5998 Y-3.9211
G01 X-2.6061 Y-3.9106
G01 X-2.6134 Y-3.9007
G01 X-2.6216 Y-3.8916
G01 X-2.6307 Y-3.8834
G01 X-2.6406 Y-3.8761
G01 X-2.6511 Y-3.8698
G01 X-2.6622 Y-3.8645
G01 X-2.6737 Y-3.8604
G01 X-2.6856 Y-3.8574
G01 X-2.6977 Y-3.8556
G01 X-2.7100 Y-3.8550
G01 X-4.9100 Y-3.8550
G01 X-4.9223 Y-3.8556
G01 X-4.9344 Y-3.8574
G01 X-4.9463 Y-3.8604
G01 X-4.9578 Y-3.8645
G01 X-4.9689 Y-3.8698
G01 X-4.9794 Y-3.8761
G01 X-4.9893 Y-3.8834
G01 X-4.9984 Y-3.8916
G01 X-5.0066 Y-3.9007
G01 X-5.0139 Y-3.9106
G01 X-5.0202 Y-3.9211
G01 X-5.0255 Y-3.9322
G01 X-5.0296 Y-3.9437
G01 X-5.0326 Y-3.9556
G01 X-5.0344 Y-3.9677
G01 X-5.0350 Y-3.9800
G01 X-5.0350 Y-6.1800
G01 X-5.0344 Y-6.1923
G01 X-5.0326 Y-6.2044
G01 X-5.0296 Y-6.2163
G01 X-5.0255 Y-6.2278
G01 X-5.0202 Y-6.2389
G01 X-5.0139 Y-6.2494
G01 X-5.0066 Y-6.2593
G01 X-4.9984 Y-6.2684
G01 X-4.9893 Y-6.2766
G01 X-4.9794 Y-6.2839
G01 X-4.9689 Y-6.2902
G01 X-4.9578 Y-6.2955
G01 X-4.9463 Y-6.2996
G01 X-4.9344 Y-6.3026
G01 X-4.9223 Y-6.3044
G01 X-4.9100 Y-6.3050
G01 X-2.7100 Y-6.3050
G01 X-2.6977 Y-6.3044
G01 X-2.6856 Y-6.3026
G01 X-2.6737 Y-6.2996
G01 X-2.6622 Y-6.2955
G01 X-2.6511 Y-6.2902
G01 X-2.6406 Y-6.2839
G01 X-2.6307 Y-6.2766
G01 X-2.6216 Y-6.2684
G01 X-2.6134 Y-6.2593
G01 X-2.6061 Y-6.2494
G01 X-2.5998 Y-6.2389
G01 X-2.5945 Y-6.2278
G01 X-2.5904 Y-6.2163
G01 X-2.5874 Y-6.2044
G01 X-2.5856 Y-6.1923
G01 X-2.5850 Y-6.1800
G01 X-2.5850 Y-5.4551
G01 X-0.2170 Y-5.4551
G01 X-0.2170 Y-5.7800
G01 X-0.2164 Y-5.7923
G01 X-0.2146 Y-5.8044
G01 X-0.2116 Y-5.8163
G01 X-0.2075 Y-5.8278
G01 X-0.2022 Y-5.8389
G01 X-0.1959 Y-5.8494
G01 X-0.1886 Y-5.8593
G01 X-0.1804 Y-5.8684
G01 X-0.1713 Y-5.8766
G01 X-0.1614 Y-5.8839
G01 X-0.1509 Y-5.8902
G01 X-0.1398 Y-5.8955
G01 X-0.1283 Y-5.8996
G01 X-0.1164 Y-5.9026
G01 X-0.1043 Y-5.9044
G01 X-0.0920 Y-5.9050
G01 X1.1080 Y-5.9050
G01 X1.1203 Y-5.9044
G01 X1.1324 Y-5.9026
G01 X1.1443 Y-5.8996
G01 X1.1558 Y-5.8955
G01 X1.1669 Y-5.8902
G01 X1.1774 Y-5.8839
G01 X1.1873 Y-5.8766
G01 X1.1964 Y-5.8684
G01 X1.2046 Y-5.8593
G01 X1.2119 Y-5.8494
G01 X1.2182 Y-5.8389
G01 X1.2235 Y-5.8278
G01 X1.2276 Y-5.8163
G01 X1.2306 Y-5.8044
G01 X1.2324 Y-5.7923
G01 X1.2330 Y-5.7800
G01 X1.2330 Y-4.3800
G01 X1.2324 Y-4.3677
G01 X1.2306 Y-4.3556
G01 X1.2276 Y-4.3437
G01 X1.2235 Y-4.3322
G01 X1.2182 Y-4.3211
G01 X1.2119 Y-4.3106
G01 X1.2046 Y-4.3007
G01 X1.1964 Y-4.2916
G01 X1.1873 Y-4.2834
G01 X1.1774 Y-4.2761
G01 X1.1669 Y-4.2698
G01 X1.1558 Y-4.2645
G01 X1.1443 Y-4.2604
G01 X1.1324 Y-4.2574
G01 X1.1203 Y-4.2556
G01 X1.1080 Y-4.2550
G01 X0.8831 Y-4.2550
G01 X0.8831 Y-4.0924
G01 X2.6954 Y-2.2801
G01 X4.4450 Y-2.2801
G01 X4.4756 Y-2.2788
G01 X4.4879 Y-2.2776
G01 X4.5121 Y-2.2740
G01 X4.5242 Y-2.2716
G01 X4.5480 Y-2.2656
G01 X4.5597 Y-2.2620
G01 X4.5828 Y-2.2538
G01 X4.5942 Y-2.2491
G01 X4.6164 Y-2.2386
G01 X4.6272 Y-2.2328
G01 X4.6482 Y-2.2202
G01 X4.6584 Y-2.2134
G01 X4.6781 Y-2.1988
G01 X4.6876 Y-2.1910
G01 X4.7058 Y-2.1745
G01 X6.6153 Y-0.2653
G01 X6.6360 Y-0.2426
G01 X6.6438 Y-0.2331
G01 X6.6584 Y-0.2134
G01 X6.6652 Y-0.2032
G01 X6.6778 Y-0.1822
G01 X6.6836 Y-0.1714
G01 X6.6941 Y-0.1492
G01 X6.6988 Y-0.1378
G01 X6.7070 Y-0.1147
G01 X6.7106 Y-0.1030
G01 X6.7166 Y-0.0792
G01 X6.7190 Y-0.0671
G01 X6.7226 Y-0.0429
G01 X6.7238 Y-0.0306
G01 X6.7251 Y0.0000
G01 X6.7251 Y0.4450
G01 X6.9500 Y0.4450
G01 X6.9623 Y0.4456
G01 X6.9744 Y0.4474
G01 X6.9863 Y0.4504
G01 X6.9978 Y0.4545
G01 X7.0089 Y0.4598
G01 X7.0194 Y0.4661
G01 X7.0293 Y0.4734
G01 X7.0384 Y0.4816
G01 X7.0466 Y0.4907
G01 X7.0539 Y0.5006
G01 X7.0602 Y0.5111
G01 X7.0655 Y0.5222
G01 X7.0696 Y0.5337
G01 X7.0726 Y0.5456
G01 X7.0744 Y0.5577
G01 X7.0750 Y0.5700
G01 X7.0750 Y1.9700
G01 X7.0744 Y1.9823
G01 X7.0726 Y1.9944
G01 X7.0696 Y2.0063
G01 X7.0655 Y2.0178
G01 X7.0602 Y2.0289
G01 X7.0539 Y2.0394
G01 X7.0466 Y2.0493
G01 X7.0384 Y2.0584
G01 X7.0293 Y2.0666
G01 X7.0194 Y2.0739
G01 X7.0089 Y2.0802
G01 X6.9978 Y2.0855
G01 X6.9863 Y2.0896
G01 X6.9744 Y2.0926
G01 X6.9623 Y2.0944
G01 X6.9500 Y2.0950
G01 X6.7251 Y2.0950
G01 X6.7251 Y2.2870
G01 X7.7640 Y2.2870
G00 Z2.0000
G00 X10.3040 Y2.2870
G01 F60.00
G01 Z-0.1000
G01 F120.00
G01 X10.3163 Y2.2876
G01 X10.3284 Y2.2894
G01 X10.3403 Y2.2924
G01 X10.3518 Y2.2965
G01 X10.3629 Y2.3018
G01 X10.3734 Y2.3081
G01 X10.3833 Y2.3154
G01 X10.3924 Y2.3236
G01 X10.4006 Y2.3327
G01 X10.4079 Y2.3426
G01 X10.4142 Y2.3531
G01 X10.4195 Y2.3642
G01 X10.4236 Y2.3757
G01 X10.4266 Y2.3876
G01 X10.4284 Y2.3997
G01 X10.4290 Y2.4120
G01 X10.4290 Y4.6120
G01 X10.4284 Y4.6243
G01 X10.4266 Y4.6364
G01 X10.4236 Y4.6483
G01 X10.4195 Y4.6598
G01 X10.4142 Y4.6709
G01 X10.4079 Y4.6814
G01 X10.4006 Y4.6913
G01 X10.3924 Y4.7004
G01 X10.3833 Y4.7086
G01 X10.3734 Y4.7159
G01 X10.3629 Y4.7222
G01 X10.3518 Y4.7275
G01 X10.3403 Y4.7316
G01 X10.3284 Y4.7346
G01 X10.3163 Y4.7364
G01 X10.3040 Y4.7370
G01 X8.5040 Y4.7370
G01 X8.4917 Y4.7364
G01 X8.4796 Y4.7346
G01 X8.4677 Y4.7316
G01 X8.4562 Y4.7275
G01 X8.4451 Y4.7222
G01 X8.4346 Y4.7159
G01 X8.4247 Y4.7086
G01 X8.4156 Y4.7004
G01 X8.4074 Y4.6913
G01 X8.4001 Y4.6814
G01 X8.3938 Y4.6709
G01 X8.3885 Y4.6598
G01 X8.3844 Y4.6483
G01 X8.3814 Y4.6364
G01 X8.3796 Y4.6243
G01 X8.3790 Y4.6120
G01 X8.3790 Y2.4120
G01 X8.3796 Y2.3997
G01 X8.3814 Y2.3876
G01 X8.3844 Y2.3757
G01 X8.3885 Y2.3642
G01 X8.3938 Y2.3531
G01 X8.4001 Y2.3426
G01 X8.4074 Y2.3327
G01 X8.4156 Y2.3236
G01 X8.4247 Y2.3154
G01 X8.4346 Y2.3081
G01 X8.4451 Y2.3018
G01 X8.4562 Y2.2965
G01 X8.4677 Y2.2924
G01 X8.4796 Y2.2894
G01 X8.4917 Y2.2876
G01 X8.5040 Y2.2870
G01 X10.3040 Y2.2870
G00 Z2.0000
G00 X10.6749 Y-2.9586
G01 F60.00
G01 Z-0.1000
G01 F120.00
G01 X10.6661 Y-2.9628
G01 X10.6556 Y-2.9691
G01 X10.6457 Y-2.9764
G01 X10.6366 Y-2.9846
G01 X10.6284 Y-2.9937
G01 X10.6211 Y-3.0036
G01 X10.6148 Y-3.0141
G01 X10.6095 Y-3.0252
G01 X10.6054 Y-3.0367
G01 X10.6024 Y-3.0486
G01 X10.6006 Y-3.0607
G01 X10.6000 Y-3.0730
G01 X10.6000 Y-4.2730
G01 X10.6006 Y-4.2853
G01 X10.6024 Y-4.2974
G01 X10.6054 Y-4.3093
G01 X10.6095 Y-4.3208
G01 X10.6148 Y-4.3319
G01 X10.6211 Y-4.3424
G01 X10.6284 Y-4.3523
G01 X10.6366 Y-4.3614
G01 X10.6457 Y-4.3696
G01 X10.6556 Y-4.3769
G01 X10.6661 Y-4.3832
G01 X10.6772 Y-4.3885
G01 X10.6887 Y-4.3926
G01 X10.7006 Y-4.3956
G01 X10.7127 Y-4.3974
G01 X10.7250 Y-4.3980
G01 X11.3750 Y-4.3980
G01 X11.3873 Y-4.3974
G01 X11.3994 Y-4.3956
G01 X11.4113 Y-4.3926
G01 X11.4228 Y-4.3885
G01 X11.4339 Y-4.3832
G01 X11.4444 Y-4.3769
G01 X11.4543 Y-4.3696
G01 X11.4634 Y-4.3614
G01 X11.4716 Y-4.3523
G01 X11.4789 Y-4.3424
G01 X11.4852 Y-4.3319
G01 X11.4905 Y-4.3208
G01 X11.4946 Y-4.3093
G01 X11.4976 Y-4.2974
G01 X11.4994 Y-4.2853
G01 X11.5000 Y-4.2730
G01 X11.5000 Y-3.0730
G01 X11.4994 Y-3.0607
G01 X11.4976 Y-3.0486
G01 X11.4946 Y-3.0367
G01 X11.4905 Y-3.0252
G01 X11.4852 Y-3.0141
G01 X11.4789 Y-3.0036
G01 X11.4716 Y-2.9937
G01 X11.4634 Y-2.9846
G01 X11.4543 Y-2.9764
G01 X11.4444 Y-2.9691
G01 X11.4339 Y-2.9628
G01 X11.4251 Y-2.9586
G01 X11.4251 Y-2.8250
G01 X11.5680 Y-2.8250
G01 X11.5803 Y-2.8244
G01 X11.5924 Y-2.8226
G01 X11.6043 Y-2.8196
G01 X11.6158 Y-2.8155
G01 X11.6269 Y-2.8102
G01 X11.6374 Y-2.8039
G01 X11.6473 Y-2.7966
G01 X11.6564 Y-2.7884
G01 X11.6646 Y-2.7793
G01 X11.6719 Y-2.7694
G01 X11.6782 Y-2.7589
G01 X11.6835 Y-2.7478
G01 X11.6876 Y-2.7363
G01 X11.6906 Y-2.7244
G01 X11.6924 Y-2.7123
G01 X11.6930 Y-2.7000
G01 X11.6930 Y-1.3000
G01 X11.6924 Y-1.2877
G01 X11.6906 Y-1.2756
G01 X11.6876 Y-1.2637
G01 X11.6835 Y-1.2522
G01 X11.6782 Y-1.2411
G01 X11.6719 Y-1.2306
G01 X11.6646 Y-1.2207
G01 X11.6564 Y-1.2116
G01 X11.6473 Y-1.2034
G01 X11.6374 Y-1.1961
G01 X11.6269 Y-1.1898
G01 X11.6158 Y-1.1845
G01 X11.6043 Y-1.1804
G01 X11.5924 Y-1.1774
G01 X11.5803 Y-1.1756
G01 X11.5680 Y-1.1750
G01 X11.4251 Y-1.1750
G01 X11.4251 Y4.9500
G01 X11.4238 Y4.9806
G01 X11.4226 Y4.9929
G01 X11.4190 Y5.0171
G01 X11.4166 Y5.0292
G01 X11.4106 Y5.0530
G01 X11.4070 Y5.0647
G01 X11.3988 Y5.0878
G01 X11.3941 Y5.0992
G01 X11.3836 Y5.1214
G01 X11.3778 Y5.1322
G01 X11.3652 Y5.1532
G01 X11.3584 Y5.1634
G01 X11.3438 Y5.1831
G01 X11.3360 Y5.1926
G01 X11.3153 Y5.2153
G01 X10.5503 Y5.9803
G01 X10.5276 Y6.0010
G01 X10.5181 Y6.0088
G01 X10.4984 Y6.0234
G01 X10.4882 Y6.0302
G01 X10.4672 Y6.0428
G01 X10.4564 Y6.0486
G01 X10.4342 Y6.0591
G01 X10.4228 Y6.0638
G01 X10.3997 Y6.0720
G01 X10.3880 Y6.0756
G01 X10.3642 Y6.0816
G01 X10.3521 Y6.0840
G01 X10.3279 Y6.0876
G01 X10.3156 Y6.0888
G01 X10.2850 Y6.0901
G01 X5.0800 Y6.0901
G01 X5.0494 Y6.0888
G01 X5.0371 Y6.0876
G01 X5.0129 Y6.0840
G01 X5.0008 Y6.0816
G01 X4.9770 Y6.0756
G01 X4.9653 Y6.0720
G01 X4.9422 Y6.0638
G01 X4.9308 Y6.0591
G01 X4.9086 Y6.0486
G01 X4.8978 Y6.0428
G01 X4.8768 Y6.0302
G01 X4.8666 Y6.0234
G01 X4.8469 Y6.0088
G01 X4.8374 Y6.0010
G01 X4.8147 Y5.9803
G01 X4.0587 Y5.2243
G01 X4.0380 Y5.2016
G01 X4.0302 Y5.1921
G01 X4.0156 Y5.1724
G01 X4.0088 Y5.1622
G01 X3.9962 Y5.1412
G01 X3.9904 Y5.1304
G01 X3.9799 Y5.1082
G01 X3.9752 Y5.0968
G01 X3.9670 Y5.0737
G01 X3.9634 Y5.0620
G01 X3.9574 Y5.0382
G01 X3.9550 Y5.0261
G01 X3.9514 Y5.0019
G01 X3.9502 Y4.9896
G01 X3.9489 Y4.9590
G01 X3.9489 Y4.7370
G01 X3.4240 Y4.7370
G01 X3.4117 Y4.7364
G01 X3.3996 Y4.7346
G01 X3.3877 Y4.7316
G01 X3.3762 Y4.7275
G01 X3.3651 Y4.7222
G01 X3.3546 Y4.7159
G01 X3.3447 Y4.7086
G01 X3.3356 Y4.7004
G01 X3.3274 Y4.6913
G01 X3.3201 Y4.6814
G01 X3.3138 Y4.6709
G01 X3.3085 Y4.6598
G01 X3.3044 Y4.6483
G01 X3.3014 Y4.6364
G01 X3.2996 Y4.6243
G01 X3.2990 Y4.6120
G01 X3.2990 Y2.4120
G01 X3.2996 Y2.3997
G01 X3.3014 Y2.3876
G01 X3.3044 Y2.3757
G01 X3.3085 Y2.3642
G01 X3.3138 Y2.3531
G01 X3.3201 Y2.3426
G01 X3.3274 Y2.3327
G01 X3.3356 Y2.3236
G01 X3.3447 Y2.3154
G01 X3.3546 Y2.3081
G01 X3.3651 Y2.3018
G01 X3.3762 Y2.2965
G01 X3.3877 Y2.2924
G01 X3.3996 Y2.2894
G01 X3.4117 Y2.2876
G01 X3.4240 Y2.2870
G01 X3.9489 Y2.2870
G01 X3.9489 Y2.0950
G01 X3.7180 Y2.0950
G01 X3.7057 Y2.0944
G01 X3.6936 Y2.0926
G01 X3.6817 Y2.0896
G01 X3.6702 Y2.0855
G01 X3.6591 Y2.0802
G01 X3.6486 Y2.0739
G01 X3.6387 Y2.0666
G01 X3.6296 Y2.0584
G01 X3.6214 Y2.0493
G01 X3.6141 Y2.0394
G01 X3.6078 Y2.0289
G01 X3.6025 Y2.0178
G01 X3.5984 Y2.0063
G01 X3.5954 Y1.9944
G01 X3.5936 Y1.9823
G01 X3.5930 Y1.9700
G01 X3.5930 Y0.5700
G01 X3.5936 Y0.5577
G01 X3.5954 Y0.5456
G01 X3.5984 Y0.5337
G01 X3.6025 Y0.5222
G01 X3.6078 Y0.5111
G01 X3.6141 Y0.5006
G01 X3.6214 Y0.4907
G01 X3.6296 Y0.4816
G01 X3.6387 Y0.4734
G01 X3.6486 Y0.4661
G01 X3.6591 Y0.4598
G01 X3.6702 Y0.4545
G01 X3.6817 Y0.4504
G01 X3.6936 Y0.4474
G01 X3.7057 Y0.4456
G01 X3.7180 Y0.4450
G01 X4.9180 Y0.4450
G01 X4.9303 Y0.4456
G01 X4.9424 Y0.4474
G01 X4.9543 Y0.4504
G01 X4.9658 Y0.4545
G01 X4.9769 Y0.4598
G01 X4.9874 Y0.4661
G01 X4.9973 Y0.4734
G01 X5.0064 Y0.4816
G01 X5.0146 Y0.4907
G01 X5.0219 Y0.5006
G01 X5.0282 Y0.5111
G01 X5.0335 Y0.5222
G01 X5.0376 Y0.5337
G01 X5.0406 Y0.5456
G01 X5.0424 Y0.5577
G01 X5.0430 Y0.5700
G01 X5.0430 Y1.9700
G01 X5.0424 Y1.9823
G01 X5.0406 Y1.9944
G01 X5.0376 Y2.0063
G01 X5.0335 Y2.0178
G01 X5.0282 Y2.0289
G01 X5.0219 Y2.0394
G01 X5.0146 Y2.0493
G01 X5.0064 Y2.0584
G01 X4.9973 Y2.0666
G01 X4.9874 Y2.0739
G01 X4.9769 Y2.0802
G01 X4.9658 Y2.0855
G01 X4.9543 Y2.0896
G01 X4.9424 Y2.0926
G01 X4.9303 Y2.0944
G01 X4.9180 Y2.0950
G01 X4.6991 Y2.0950
G01 X4.6991 Y2.2870
G01 X5.2240 Y2.2870
G01 X5.2363 Y2.2876
G01 X5.2484 Y2.2894
G01 X5.2603 Y2.2924
G01 X5.2718 Y2.2965
G01 X5.2829 Y2.3018
G01 X5.2934 Y2.3081
G01 X5.3033 Y2.3154
G01 X5.3124 Y2.3236
G01 X5.3206 Y2.3327
G01 X5.3279 Y2.3426
G01 X5.3342 Y2.3531
G01 X5.3395 Y2.3642
G01 X5.3436 Y2.3757
G01 X5.3466 Y2.3876
G01 X5.3484 Y2.3997
G01 X5.3490 Y2.4120
G01 X5.3490 Y4.6120
G01 X5.3484 Y4.6243
G01 X5.3466 Y4.6364
G01 X5.3436 Y4.6483
G01 X5.3395 Y4.6598
G01 X5.3342 Y4.6709
G01 X5.3279 Y4.6814
G01 X5.3206 Y4.6913
G01 X5.3124 Y4.7004
G01 X5.3033 Y4.7086
G01 X5.2934 Y4.7159
G01 X5.2829 Y4.7222
G01 X5.2718 Y4.7275
G01 X5.2603 Y4.7316
G01 X5.2484 Y4.7346
G01 X5.2363 Y4.7364
G01 X5.2240 Y4.7370
G01 X4.6991 Y4.7370
G01 X4.6991 Y4.8036
G01 X5.2354 Y5.3399
G01 X10.1296 Y5.3399
G01 X10.6749 Y4.7946
G01 X10.6749 Y-1.1750
G01 X10.3680 Y-1.1750
G01 X10.3557 Y-1.1756
G01 X10.3436 Y-1.1774
G01 X10.3317 Y-1.1804
G01 X10.3202 Y-1.1845
G01 X10.3091 Y-1.1898
G01 X10.2986 Y-1.1961
G01 X10.2887 Y-1.2034
G01 X10.2796 Y-1.2116
G01 X10.2714 Y-1.2207
G01 X10.2641 Y-1.2306
G01 X10.2578 Y-1.2411
G01 X10.2525 Y-1.2522
G01 X10.2484 Y-1.2637
G01 X10.2454 Y-1.2756
G01 X10.2436 Y-1.2877
G01 X10.2430 Y-1.3000
G01 X10.2430 Y-2.7000
G01 X10.2436 Y-2.7123
G01 X10.2454 Y-2.7244
G01 X10.2484 Y-2.7363
G01 X10.2525 Y-2.7478
G01 X10.2578 Y-2.7589
G01 X10.2641 Y-2.7694
G01 X10.2714 Y-2.7793
G01 X10.2796 Y-2.7884
G01 X10.2887 Y-2.7966
G01 X10.2986 Y-2.8039
G01 X10.3091 Y-2.8102
G01 X10.3202 Y-2.8155
G01 X10.3317 Y-2.8196
G01 X10.3436 Y-2.8226
G01 X10.3557 Y-2.8244
G01 X10.3680 Y-2.8250
G01 X10.6749 Y-2.8250
G01 X10.6749 Y-2.9586
G00 Z2.0000
G00 X12.5749 Y-2.9586
G01 F60.00
G01 Z-0.1000
G01 F120.00
G01 X12.5661 Y-2.9628
G01 X12.5556 Y-2.9691
G01 X12.5457 Y-2.9764
G01 X12.5366 Y-2.9846
G01 X12.5284 Y-2.9937
G01 X12.5211 Y-3.0036
G01 X12.5148 Y-3.0141
G01 X12.5095 Y-3.0252
G01 X12.5054 Y-3.0367
G01 X12.5024 Y-3.0486
G01 X12.5006 Y-3.0607
G01 X12.5000 Y-3.0730
G01 X12.5000 Y-4.2730
G01 X12.5006 Y-4.2853
G01 X12.5024 Y-4.2974
G01 X12.5054 Y-4.3093
G01 X12.5095 Y-4.3208
G01 X12.5148 Y-4.3319
G01 X12.5211 Y-4.3424
G01 X12.5284 Y-4.3523
G01 X12.5366 Y-4.3614
G01 X12.5457 Y-4.3696
G01 X12.5556 Y-4.3769
G01 X12.5661 Y-4.3832
G01 X12.5772 Y-4.3885
G01 X12.5887 Y-4.3926
G01 X12.6006 Y-4.3956
G01 X12.6127 Y-4.3974
G01 X12.6250 Y-4.3980
G01 X13.2750 Y-4.3980
G01 X13.2873 Y-4.3974
G01 X13.2994 Y-4.3956
G01 X13.3113 Y-4.3926
G01 X13.3228 Y-4.3885
G01 X13.3339 Y-4.3832
G01 X13.3444 Y-4.3769
G01 X13.3543 Y-4.3696
G01 X13.3634 Y-4.3614
G01 X13.3716 Y-4.3523
G01 X13.3789 Y-4.3424
G01 X13.3852 Y-4.3319
G01 X13.3905 Y-4.3208
G01 X13.3946 Y-4.3093
G01 X13.3976 Y-4.2974
G01 X13.3994 Y-4.2853
G01 X13.4000 Y-4.2730
G01 X13.4000 Y-3.0730
G01 X13.3994 Y-3.0607
G01 X13.3976 Y-3.0486
G01 X13.3946 Y-3.0367
G01 X13.3905 Y-3.0252
G01 X13.3852 Y-3.0141
G01 X13.3789 Y-3.0036
G01 X13.3716 Y-2.9937
G01 X13.3634 Y-2.9846
G01 X13.3543 Y-2.9764
G01 X13.3444 Y-2.9691
G01 X13.3339 Y-2.9628
G01 X13.3251 Y-2.9586
G01 X13.3251 Y-2.8250
G01 X13.6000 Y-2.8250
G01 X13.6123 Y-2.8244
G01 X13.6244 Y-2.8226
G01 X13.6363 Y-2.8196
G01 X13.6478 Y-2.8155
G01 X13.6589 Y-2.8102
G01 X13.6694 Y-2.8039
G01 X13.6793 Y-2.7966
G01 X13.6884 Y-2.7884
G01 X13.6966 Y-2.7793
G01 X13.7039 Y-2.7694
G01 X13.7102 Y-2.7589
G01 X13.7155 Y-2.7478
G01 X13.7196 Y-2.7363
G01 X13.7226 Y-2.7244
G01 X13.7244 Y-2.7123
G01 X13.7250 Y-2.7000
G01 X13.7250 Y-1.3000
G01 X13.7244 Y-1.2877
G01 X13.7226 Y-1.2756
G01 X13.7196 Y-1.2637
G01 X13.7155 Y-1.2522
G01 X13.7102 Y-1.2411
G01 X13.7039 Y-1.2306
G01 X13.6966 Y-1.2207
G01 X13.6884 Y-1.2116
G01 X13.6793 Y-1.2034
G01 X13.6694 Y-1.1961
G01 X13.6589 Y-1.1898
G01 X13.6478 Y-1.1845
G01 X13.6363 Y-1.1804
G01 X13.6244 Y-1.1774
G01 X13.6123 Y-1.1756
G01 X13.6000 Y-1.1750
G01 X13.3251 Y-1.1750
G01 X13.3251 Y-0.7570
G01 X13.7000 Y-0.7570
G01 X13.7123 Y-0.7564
G01 X13.7244 Y-0.7546
G01 X13.7363 Y-0.7516
G01 X13.7478 Y-0.7475
G01 X13.7589 Y-0.7422
G01 X13.7694 Y-0.7359
G01 X13.7793 Y-0.7286
G01 X13.7884 Y-0.7204
G01 X13.7966 Y-0.7113
G01 X13.8039 Y-0.7014
G01 X13.8102 Y-0.6909
G01 X13.8155 Y-0.6798
G01 X13.8196 Y-0.6683
G01 X13.8226 Y-0.6564
G01 X13.8244 Y-0.6443
G01 X13.8250 Y-0.6320
G01 X13.8250 Y0.5680
G01 X13.8244 Y0.5803
G01 X13.8226 Y0.5924
G01 X13.8196 Y0.6043
G01 X13.8155 Y0.6158
G01 X13.8102 Y0.6269
G01 X13.8039 Y0.6374
G01 X13.7966 Y0.6473
G01 X13.7884 Y0.6564
G01 X13.7793 Y0.6646
G01 X13.7694 Y0.6719
G01 X13.7589 Y0.6782
G01 X13.7478 Y0.6835
G01 X13.7363 Y0.6876
G01 X13.7244 Y0.6906
G01 X13.7123 Y0.6924
G01 X13.7000 Y0.6930
G01 X12.3000 Y0.6930
G01 X12.2877 Y0.6924
G01 X12.2756 Y0.6906
G01 X12.2637 Y0.6876
G01 X12.2522 Y0.6835
G01 X12.2411 Y0.6782
G01 X12.2306 Y0.6719
G01 X12.2207 Y0.6646
G01 X12.2116 Y0.6564
G01 X12.2034 Y0.6473
G01 X12.1961 Y0.6374
G01 X12.1898 Y0.6269
G01 X12.1845 Y0.6158
G01 X12.1804 Y0.6043
G01 X12.1774 Y0.5924
G01 X12.1756 Y0.5803
G01 X12.1750 Y0.5680
G01 X12.1750 Y-0.6320
G01 X12.1756 Y-0.6443
G01 X12.1774 Y-0.6564
G01 X12.1804 Y-0.6683
G01 X12.1845 Y-0.6798
G01 X12.1898 Y-0.6909
G01 X12.1961 Y-0.7014
G01 X12.2034 Y-0.7113
G01 X12.2116 Y-0.7204
G01 X12.2207 Y-0.7286
G01 X12.2306 Y-0.7359
G01 X12.2411 Y-0.7422
G01 X12.2522 Y-0.7475
G01 X12.2637 Y-0.7516
G01 X12.2756 Y-0.7546
G01 X12.2877 Y-0.7564
G01 X12.3000 Y-0.7570
G01 X12.5749 Y-0.7570
G01 X12.5749 Y-1.1750
G01 X12.4000 Y-1.1750
G01 X12.3877 Y-1.1756
G01 X12.3756 Y-1.1774
G01 X12.3637 Y-1.1804
G01 X12.3522 Y-1.1845
G01 X12.3411 Y-1.1898
G01 X12.3306 Y-1.1961
G01 X12.3207 Y-1.2034
G01 X12.3116 Y-1.2116
G01 X12.3034 Y-1.2207
G01 X12.2961 Y-1.2306
G01 X12.2898 Y-1.2411
G01 X12.2845 Y-1.2522
G01 X12.2804 Y-1.2637
G01 X12.2774 Y-1.2756
G01 X12.2756 Y-1.2877
G01 X12.2750 Y-1.3000
G01 X12.2750 Y-2.7000
G01 X12.2756 Y-2.7123
G01 X12.2774 Y-2.7244
G01 X12.2804 Y-2.7363
G01 X12.2845 Y-2.7478
G01 X12.2898 Y-2.7589
G01 X12.2961 Y-2.7694
G01 X12.3034 Y-2.7793
G01 X12.3116 Y-2.7884
G01 X12.3207 Y-2.7966
G01 X12.3306 Y-2.8039
G01 X12.3411 Y-2.8102
G01 X12.3522 Y-2.8155
G01 X12.3637 Y-2.8196
G01 X12.3756 Y-2.8226
G01 X12.3877 Y-2.8244
G01 X12.4000 Y-2.8250
G01 X12.5749 Y-2.8250
G01 X12.5749 Y-2.9586
G00 Z2.0000
G00 X11.6249 Y-7.0414
G01 F60.00
G01 Z-0.1000
G01 F120.00
G01 X11.6249 Y-8.3783
G01 X11.6137 Y-8.3864
G01 X11.6046 Y-8.3946
G01 X10.1906 Y-9.8086
G01 X10.1824 Y-9.8177
G01 X10.1751 Y-9.8276
G01 X10.1688 Y-9.8381
G01 X10.1635 Y-9.8492
G01 X10.1594 Y-9.8607
G01 X10.1564 Y-9.8726
G01 X10.1546 Y-9.8847
G01 X10.1540 Y-9.8970
G01 X10.1546 Y-9.9093
G01 X10.1564 Y-9.9214
G01 X10.1594 Y-9.9333
G01 X10.1635 Y-9.9448
G01 X10.1688 Y-9.9559
G01 X10.1751 Y-9.9664
G01 X10.1824 Y-9.9763
G01 X10.1906 Y-9.9854
G01 X11.6046 Y-11.3994
G01 X11.6137 Y-11.4076
G01 X11.6236 Y-11.4149
G01 X11.6341 Y-11.4212
G01 X11.6452 Y-11.4265
G01 X11.6567 Y-11.4306
G01 X11.6686 Y-11.4336
G01 X11.6807 Y-11.4354
G01 X11.6930 Y-11.4360
G01 X11.7053 Y-11.4354
G01 X11.7174 Y-11.4336
G01 X11.7293 Y-11.4306
G01 X11.7408 Y-11.4265
G01 X11.7519 Y-11.4212
G01 X11.7624 Y-11.4149
G01 X11.7723 Y-11.4076
G01 X11.7814 Y-11.3994
G01 X13.1954 Y-9.9854
G01 X13.2036 Y-9.9763
G01 X13.2109 Y-9.9664
G01 X13.2172 Y-9.9559
G01 X13.2225 Y-9.9448
G01 X13.2266 Y-9.9333
G01 X13.2296 Y-9.9214
G01 X13.2314 Y-9.9093
G01 X13.2320 Y-9.8970
G01 X13.2314 Y-9.8847
G01 X13.2296 Y-9.8726
G01 X13.2266 Y-9.8607
G01 X13.2225 Y-9.8492
G01 X13.2172 Y-9.8381
G01 X13.2109 Y-9.8276
G01 X13.2036 Y-9.8177
G01 X13.1954 Y-9.8086
G01 X12.3751 Y-8.9883
G01 X12.3751 Y-7.0414
G01 X12.3839 Y-7.0372
G01 X12.3944 Y-7.0309
G01 X12.4043 Y-7.0236
G01 X12.4134 Y-7.0154
G01 X12.4216 Y-7.0063
G01 X12.4289 Y-6.9964
G01 X12.4352 Y-6.9859
G01 X12.4405 Y-6.9748
G01 X12.4446 Y-6.9633
G01 X12.4476 Y-6.9514
G01 X12.4494 Y-6.9393
G01 X12.4500 Y-6.9270
G01 X12.4500 Y-5.7270
G01 X12.4494 Y-5.7147
G01 X12.4476 Y-5.7026
G01 X12.4446 Y-5.6907
G01 X12.4405 Y-5.6792
G01 X12.4352 Y-5.6681
G01 X12.4289 Y-5.6576
G01 X12.4216 Y-5.6477
G01 X12.4134 Y-5.6386
G01 X12.4043 Y-5.6304
G01 X12.3944 Y-5.6231
G01 X12.3839 Y-5.6168
G01 X12.3728 Y-5.6115
G01 X12.3613 Y-5.6074
G01 X12.3494 Y-5.6044
G01 X12.3373 Y-5.6026
G01 X12.3250 Y-5.6020
G01 X11.6750 Y-5.6020
G01 X11.6627 Y-5.6026
G01 X11.6506 Y-5.6044
G01 X11.6387 Y-5.6074
G01 X11.6272 Y-5.6115
G01 X11.6161 Y-5.6168
G01 X11.6056 Y-5.6231
G01 X11.5957 Y-5.6304
G01 X11.5866 Y-5.6386
G01 X11.5784 Y-5.6477
G01 X11.5711 Y-5.6576
G01 X11.5648 Y-5.6681
G01 X11.5595 Y-5.6792
G01 X11.5554 Y-5.6907
G01 X11.5524 Y-5.7026
G01 X11.5506 Y-5.7147
G01 X11.5500 Y-5.7270
G01 X11.5500 Y-6.9270
G01 X11.5506 Y-6.9393
G01 X11.5524 Y-6.9514
G01 X11.5554 Y-6.9633
G01 X11.5595 Y-6.9748
G01 X11.5648 Y-6.9859
G01 X11.5711 Y-6.9964
G01 X11.5784 Y-7.0063
G01 X11.5866 Y-7.0154
G01 X11.5957 Y-7.0236
G01 X11.6056 Y-7.0309
G01 X11.6161 Y-7.0372
G01 X11.6249 Y-7.0414
G00 Z2.0000
G00 X11.3994 Y-11.7814
G01 F60.00
G01 Z-0.1000
G01 F120.00
G01 X11.4076 Y-11.7723
G01 X11.4149 Y-11.7624
G01 X11.4212 Y-11.7519
G01 X11.4265 Y-11.7408
G01 X11.4306 Y-11.7293
G01 X11.4336 Y-11.7174
G01 X11.4354 Y-11.7053
G01 X11.4360 Y-11.6930
G01 X11.4354 Y-11.6807
G01 X11.4336 Y-11.6686
G01 X11.4306 Y-11.6567
G01 X11.4265 Y-11.6452
G01 X11.4212 Y-11.6341
G01 X11.4149 Y-11.6236
G01 X11.4076 Y-11.6137
G01 X11.3994 Y-11.6046
G01 X9.9854 Y-10.1906
G01 X9.9763 Y-10.1824
G01 X9.9664 Y-10.1751
G01 X9.9559 Y-10.1688
G01 X9.9448 Y-10.1635
G01 X9.9333 Y-10.1594
G01 X9.9214 Y-10.1564
G01 X9.9093 Y-10.1546
G01 X9.8970 Y-10.1540
G01 X9.8847 Y-10.1546
G01 X9.8726 Y-10.1564
G01 X9.8607 Y-10.1594
G01 X9.8492 Y-10.1635
G01 X9.8381 Y-10.1688
G01 X9.8276 Y-10.1751
G01 X9.8177 Y-10.1824
G01 X9.8086 Y-10.1906
G01 X9.3669 Y-10.6324
G01 X7.3601 Y-8.6256
G01 X7.3601 Y-6.4150
G01 X7.6100 Y-6.4150
G01 X7.6223 Y-6.4144
G01 X7.6344 Y-6.4126
G01 X7.6463 Y-6.4096
G01 X7.6578 Y-6.4055
G01 X7.6689 Y-6.4002
G01 X7.6794 Y-6.3939
G01 X7.6893 Y-6.3866
G01 X7.6984 Y-6.3784
G01 X7.7066 Y-6.3693
G01 X7.7139 Y-6.3594
G01 X7.7202 Y-6.3489
G01 X7.7255 Y-6.3378
G01 X7.7296 Y-6.3263
G01 X7.7326 Y-6.3144
G01 X7.7344 Y-6.3023
G01 X7.7350 Y-6.2900
G01 X7.7350 Y-3.2900
G01 X7.7344 Y-3.2777
G01 X7.7326 Y-3.2656
G01 X7.7296 Y-3.2537
G01 X7.7255 Y-3.2422
G01 X7.7202 Y-3.2311
G01 X7.7139 Y-3.2206
G01 X7.7066 Y-3.2107
G01 X7.6984 Y-3.2016
G01 X7.6893 Y-3.1934
G01 X7.6794 Y-3.1861
G01 X7.6689 Y-3.1798
G01 X7.6578 Y-3.1745
G01 X7.6463 Y-3.1704
G01 X7.6344 Y-3.1674
G01 X7.6223 Y-3.1656
G01 X7.6100 Y-3.1650
G01 X6.3600 Y-3.1650
G01 X6.3477 Y-3.1656
G01 X6.3356 Y-3.1674
G01 X6.3237 Y-3.1704
G01 X6.3122 Y-3.1745
G01 X6.3011 Y-3.1798
G01 X6.2906 Y-3.1861
G01 X6.2807 Y-3.1934
G01 X6.2716 Y-3.2016
G01 X6.2634 Y-3.2107
G01 X6.2561 Y-3.2206
G01 X6.2498 Y-3.2311
G01 X6.2445 Y-3.2422
G01 X6.2404 Y-3.2537
G01 X6.2374 Y-3.2656
G01 X6.2356 Y-3.2777
G01 X6.2350 Y-3.2900
G01 X6.2350 Y-6.2900
G01 X6.2356 Y-6.3023
G01 X6.2374 Y-6.3144
G01 X6.2404 Y-6.3263
G01 X6.2445 Y-6.3378
G01 X6.2498 Y-6.3489
G01 X6.2561 Y-6.3594
G01 X6.2634 Y-6.3693
G01 X6.2716 Y-6.3784
G01 X6.2807 Y-6.3866
G01 X6.2906 Y-6.3939
G01 X6.3011 Y-6.4002
G01 X6.3122 Y-6.4055
G01 X6.3237 Y-6.4096
G01 X6.3356 Y-6.4126
G01 X6.3477 Y-6.4144
G01 X6.3600 Y-6.4150
G01 X6.6099 Y-6.4150
G01 X6.6099 Y-8.7810
G01 X6.6112 Y-8.8116
G01 X6.6124 Y-8.8239
G01 X6.6160 Y-8.8481
G01 X6.6184 Y-8.8602
G01 X6.6244 Y-8.8840
G01 X6.6280 Y-8.8957
G01 X6.6362 Y-8.9188
G01 X6.6409 Y-8.9302
G01 X6.6514 Y-8.9524
G01 X6.6572 Y-8.9632
G01 X6.6698 Y-8.9842
G01 X6.6766 Y-8.9944
G01 X6.6912 Y-9.0141
G01 X6.6990 Y-9.0236
G01 X6.7197 Y-9.0463
G01 X8.8364 Y-11.1629
G01 X8.3946 Y-11.6046
G01 X8.3864 Y-11.6137
G01 X8.3791 Y-11.6236
G01 X8.3728 Y-11.6341
G01 X8.3675 Y-11.6452
G01 X8.3634 Y-11.6567
G01 X8.3604 Y-11.6686
G01 X8.3586 Y-11.6807
G01 X8.3580 Y-11.6930
G01 X8.3586 Y-11.7053
G01 X8.3604 Y-11.7174
G01 X8.3634 Y-11.7293
G01 X8.3675 Y-11.7408
G01 X8.3728 Y-11.7519
G01 X8.3791 Y-11.7624
G01 X8.3864 Y-11.7723
G01 X8.3946 Y-11.7814
G01 X9.8086 Y-13.1954
G01 X9.8177 Y-13.2036
G01 X9.8276 Y-13.2109
G01 X9.8381 Y-13.2172
G01 X9.8492 Y-13.2225
G01 X9.8607 Y-13.2266
G01 X9.8726 Y-13.2296
G01 X9.8847 Y-13.2314
G01 X9.8970 Y-13.2320
G01 X9.9093 Y-13.2314
G01 X9.9214 Y-13.2296
G01 X9.9333 Y-13.2266
G01 X9.9448 Y-13.2225
G01 X9.9559 Y-13.2172
G01 X9.9664 Y-13.2109
G01 X9.9763 Y-13.2036
G01 X9.9854 Y-13.1954
G01 X11.3994 Y-11.7814
G00 Z2.0000
G00 X7.6100 Y-14.6150
G01 F60.00
G01 Z-0.1000
G01 F120.00
G01 X7.6223 Y-14.6144
G01 X7.6344 Y-14.6126
G01 X7.6463 Y-14.6096
G01 X7.6578 Y-14.6055
G01 X7.6689 Y-14.6002
G01 X7.6794 Y-14.5939
G01 X7.6893 Y-14.5866
G01 X7.6984 Y-14.5784
G01 X7.7066 Y-14.5693
G01 X7.7139 Y-14.5594
G01 X7.7202 Y-14.5489
G01 X7.7255 Y-14.5378
G01 X7.7296 Y-14.5263
G01 X7.7326 Y-14.5144
G01 X7.7344 Y-14.5023
G01 X7.7350 Y-14.4900
G01 X7.7350 Y-11.4900
G01 X7.7344 Y-11.4777
G01 X7.7326 Y-11.4656
G01 X7.7296 Y-11.4537
G01 X7.7255 Y-11.4422
G01 X7.7202 Y-11.4311
G01 X7.7139 Y-11.4206
G01 X7.7066 Y-11.4107
G01 X7.6984 Y-11.4016
G01 X7.6893 Y-11.3934
G01 X7.6794 Y-11.3861
G01 X7.6689 Y-11.3798
G01 X7.6578 Y-11.3745
G01 X7.6463 Y-11.3704
G01 X7.6344 Y-11.3674
G01 X7.6223 Y-11.3656
G01 X7.6100 Y-11.3650
G01 X7.3601 Y-11.3650
G01 X7.3601 Y-10.7950
G01 X7.3588 Y-10.7644
G01 X7.3576 Y-10.7521
G01 X7.3540 Y-10.7279
G01 X7.3516 Y-10.7158
G01 X7.3456 Y-10.6920
G01 X7.3420 Y-10.6803
G01 X7.3338 Y-10.6572
G01 X7.3291 Y-10.6458
G01 X7.3186 Y-10.6236
G01 X7.3128 Y-10.6128
G01 X7.3002 Y-10.5918
G01 X7.2934 Y-10.5816
G01 X7.2788 Y-10.5619
G01 X7.2710 Y-10.5524
G01 X7.2503 Y-10.5297
G01 X5.9803 Y-9.2597
G01 X5.9576 Y-9.2390
G01 X5.9481 Y-9.2312
G01 X5.9284 Y-9.2166
G01 X5.9182 Y-9.2098
G01 X5.8972 Y-9.1972
G01 X5.8864 Y-9.1914
G01 X5.8642 Y-9.1809
G01 X5.8528 Y-9.1762
G01 X5.8297 Y-9.1680
G01 X5.8180 Y-9.1644
G01 X5.7942 Y-9.1584
G01 X5.7821 Y-9.1560
G01 X5.7579 Y-9.1524
G01 X5.7456 Y-9.1512
G01 X5.7150 Y-9.1499
G01 X-3.6546 Y-9.1499
G01 X-5.9749 Y-6.8296
G01 X-5.9749 Y-6.3050
G01 X-5.2500 Y-6.3050
G01 X-5.2377 Y-6.3044
G01 X-5.2256 Y-6.3026
G01 X-5.2137 Y-6.2996
G01 X-5.2022 Y-6.2955
G01 X-5.1911 Y-6.2902
G01 X-5.1806 Y-6.2839
G01 X-5.1707 Y-6.2766
G01 X-5.1616 Y-6.2684
G01 X-5.1534 Y-6.2593
G01 X-5.1461 Y-6.2494
G01 X-5.1398 Y-6.2389
G01 X-5.1345 Y-6.2278
G01 X-5.1304 Y-6.2163
G01 X-5.1274 Y-6.2044
G01 X-5.1256 Y-6.1923
G01 X-5.1250 Y-6.1800
G01 X-5.1250 Y-3.9800
G01 X-5.1256 Y-3.9677
G01 X-5.1274 Y-3.9556
G01 X-5.1304 Y-3.9437
G01 X-5.1345 Y-3.9322
G01 X-5.1398 Y-3.9211
G01 X-5.1461 Y-3.9106
G01 X-5.1534 Y-3.9007
G01 X-5.1616 Y-3.8916
G01 X-5.1707 Y-3.8834
G01 X-5.1806 Y-3.8761
G01 X-5.1911 Y-3.8698
G01 X-5.2022 Y-3.8645
G01 X-5.2137 Y-3.8604
G01 X-5.2256 Y-3.8574
G01 X-5.2377 Y-3.8556
G01 X-5.2500 Y-3.8550
G01 X-7.4500 Y-3.8550
G01 X-7.4623 Y-3.8556
G01 X-7.4744 Y-3.8574
G01 X-7.4863 Y-3.8604
G01 X-7.4978 Y-3.8645
G01 X-7.5089 Y-3.8698
G01 X-7.5194 Y-3.8761
G01 X-7.5293 Y-3.8834
G01 X-7.5384 Y-3.8916
G01 X-7.5466 Y-3.9007
G01 X-7.5539 Y-3.9106
G01 X-7.5602 Y-3.9211
G01 X-7.5655 Y-3.9322
G01 X-7.5696 Y-3.9437
G01 X-7.5726 Y-3.9556
G01 X-7.5744 Y-3.9677
G01 X-7.5750 Y-3.9800
G01 X-7.5750 Y-6.1800
G01 X-7.5744 Y-6.1923
G01 X-7.5726 Y-6.2044
G01 X-7.5696 Y-6.2163
G01 X-7.5655 Y-6.2278
G01 X-7.5602 Y-6.2389
G01 X-7.5539 Y-6.2494
G01 X-7.5466 Y-6.2593
G01 X-7.5384 Y-6.2684
G01 X-7.5293 Y-6.2766
G01 X-7.5194 Y-6.2839
G01 X-7.5089 Y-6.2902
G01 X-7.4978 Y-6.2955
G01 X-7.4863 Y-6.2996
G01 X-7.4744 Y-6.3026
G01 X-7.4623 Y-6.3044
G01 X-7.4500 Y-6.3050
G01 X-6.7251 Y-6.3050
G01 X-6.7251 Y-6.9850
G01 X-6.7238 Y-7.0156
G01 X-6.7226 Y-7.0279
G01 X-6.7190 Y-7.0521
G01 X-6.7166 Y-7.0642
G01 X-6.7106 Y-7.0880
G01 X-6.7070 Y-7.0997
G01 X-6.6988 Y-7.1228
G01 X-6.6941 Y-7.1342
G01 X-6.6836 Y-7.1564
G01 X-6.6778 Y-7.1672
G01 X-6.6652 Y-7.1882
G01 X-6.6584 Y-7.1984
G01 X-6.6438 Y-7.2181
G01 X-6.6360 Y-7.2276
G01 X-6.6153 Y-7.2503
G01 X-4.0753 Y-9.7903
G01 X-4.0526 Y-9.8110
G01 X-4.0431 Y-9.8188
G01 X-4.0234 Y-9.8334
G01 X-4.0132 Y-9.8402
G01 X-3.9922 Y-9.8528
G01 X-3.9814 Y-9.8586
G01 X-3.9592 Y-9.8691
G01 X-3.9478 Y-9.8738
G01 X-3.9247 Y-9.8820
G01 X-3.9130 Y-9.8856
G01 X-3.8892 Y-9.8916
G01 X-3.8771 Y-9.8940
G01 X-3.8529 Y-9.8976
G01 X-3.8406 Y-9.8988
G01 X-3.8100 Y-9.9001
G01 X5.5596 Y-9.9001
G01 X6.6099 Y-10.9504
G01 X6.6099 Y-11.3650
G01 X6.3600 Y-11.3650
G01 X6.3477 Y-11.3656
G01 X6.3356 Y-11.3674
G01 X6.3237 Y-11.3704
G01 X6.3122 Y-11.3745
G01 X6.3011 Y-11.3798
G01 X6.2906 Y-11.3861
G01 X6.2807 Y-11.3934
G01 X6.2716 Y-11.4016
G01 X6.2634 Y-11.4107
G01 X6.2561 Y-11.4206
G01 X6.2498 Y-11.4311
G01 X6.2445 Y-11.4422
G01 X6.2404 Y-11.4537
G01 X6.2374 Y-11.4656
G01 X6.2356 Y-11.4777
G01 X6.2350 Y-11.4900
G01 X6.2350 Y-14.4900
G01 X6.2356 Y-14.5023
G01 X6.2374 Y-14.5144
G01 X6.2404 Y-14.5263
G01 X6.2445 Y-14.5378
G01 X6.2498 Y-14.5489
G01 X6.2561 Y-14.5594
G01 X6.2634 Y-14.5693
G01 X6.2716 Y-14.5784
G01 X6.2807 Y-14.5866
G01 X6.2906 Y-14.5939
G01 X6.3011 Y-14.6002
G01 X6.3122 Y-14.6055
G01 X6.3237 Y-14.6096
G01 X6.3356 Y-14.6126
G01 X6.3477 Y-14.6144
G01 X6.3600 Y-14.6150
G01 X7.6100 Y-14.6150
G00 Z2.0000
G00 X5.1950 Y-3.2900
G01 F60.00
G01 Z-0.1000
G01 F120.00
G01 X5.1944 Y-3.2777
G01 X5.1926 Y-3.2656
G01 X5.1896 Y-3.2537
G01 X5.1855 Y-3.2422
G01 X5.1802 Y-3.2311
G01 X5.1739 Y-3.2206
G01 X5.1666 Y-3.2107
G01 X5.1584 Y-3.2016
G01 X5.1493 Y-3.1934
G01 X5.1394 Y-3.1861
G01 X5.1289 Y-3.1798
G01 X5.1178 Y-3.1745
G01 X5.1063 Y-3.1704
G01 X5.0944 Y-3.1674
G01 X5.0823 Y-3.1656
G01 X5.0700 Y-3.1650
G01 X3.8200 Y-3.1650
G01 X3.8077 Y-3.1656
G01 X3.7956 Y-3.1674
G01 X3.7837 Y-3.1704
G01 X3.7722 Y-3.1745
G01 X3.7611 Y-3.1798
G01 X3.7506 Y-3.1861
G01 X3.7407 Y-3.1934
G01 X3.7316 Y-3.2016
G01 X3.7234 Y-3.2107
G01 X3.7161 Y-3.2206
G01 X3.7098 Y-3.2311
G01 X3.7045 Y-3.2422
G01 X3.7004 Y-3.2537
G01 X3.6974 Y-3.2656
G01 X3.6956 Y-3.2777
G01 X3.6950 Y-3.2900
G01 X3.6950 Y-4.7049
G01 X3.2650 Y-4.7049
G01 X3.2650 Y-4.3800
G01 X3.2644 Y-4.3677
G01 X3.2626 Y-4.3556
G01 X3.2596 Y-4.3437
G01 X3.2555 Y-4.3322
G01 X3.2502 Y-4.3211
G01 X3.2439 Y-4.3106
G01 X3.2366 Y-4.3007
G01 X3.2284 Y-4.2916
G01 X3.2193 Y-4.2834
G01 X3.2094 Y-4.2761
G01 X3.1989 Y-4.2698
G01 X3.1878 Y-4.2645
G01 X3.1763 Y-4.2604
G01 X3.1644 Y-4.2574
G01 X3.1523 Y-4.2556
G01 X3.1400 Y-4.2550
G01 X1.9400 Y-4.2550
G01 X1.9277 Y-4.2556
G01 X1.9156 Y-4.2574
G01 X1.9037 Y-4.2604
G01 X1.8922 Y-4.2645
G01 X1.8811 Y-4.2698
G01 X1.8706 Y-4.2761
G01 X1.8607 Y-4.2834
G01 X1.8516 Y-4.2916
G01 X1.8434 Y-4.3007
G01 X1.8361 Y-4.3106
G01 X1.8298 Y-4.3211
G01 X1.8245 Y-4.3322
G01 X1.8204 Y-4.3437
G01 X1.8174 Y-4.3556
G01 X1.8156 Y-4.3677
G01 X1.8150 Y-4.3800
G01 X1.8150 Y-5.7800
G01 X1.8156 Y-5.7923
G01 X1.8174 Y-5.8044
G01 X1.8204 Y-5.8163
G01 X1.8245 Y-5.8278
G01 X1.8298 Y-5.8389
G01 X1.8361 Y-5.8494
G01 X1.8434 Y-5.8593
G01 X1.8516 Y-5.8684
G01 X1.8607 Y-5.8766
G01 X1.8706 Y-5.8839
G01 X1.8811 Y-5.8902
G01 X1.8922 Y-5.8955
G01 X1.9037 Y-5.8996
G01 X1.9156 Y-5.9026
G01 X1.9277 Y-5.9044
G01 X1.9400 Y-5.9050
G01 X3.1400 Y-5.9050
G01 X3.1523 Y-5.9044
G01 X3.1644 Y-5.9026
G01 X3.1763 Y-5.8996
G01 X3.1878 Y-5.8955
G01 X3.1989 Y-5.8902
G01 X3.2094 Y-5.8839
G01 X3.2193 Y-5.8766
G01 X3.2284 Y-5.8684
G01 X3.2366 Y-5.8593
G01 X3.2439 Y-5.8494
G01 X3.2502 Y-5.8389
G01 X3.2555 Y-5.8278
G01 X3.2596 Y-5.8163
G01 X3.2626 Y-5.8044
G01 X3.2644 Y-5.7923
G01 X3.2650 Y-5.7800
G01 X3.2650 Y-5.4551
G01 X3.6950 Y-5.4551
G01 X3.6950 Y-6.2900
G01 X3.6956 Y-6.3023
G01 X3.6974 Y-6.3144
G01 X3.7004 Y-6.3263
G01 X3.7045 Y-6.3378
G01 X3.7098 Y-6.3489
G01 X3.7161 Y-6.3594
G01 X3.7234 Y-6.3693
G01 X3.7316 Y-6.3784
G01 X3.7407 Y-6.3866
G01 X3.7506 Y-6.3939
G01 X3.7611 Y-6.4002
G01 X3.7722 Y-6.4055
G01 X3.7837 Y-6.4096
G01 X3.7956 Y-6.4126
G01 X3.8077 Y-6.4144
G01 X3.8200 Y-6.4150
G01 X5.0700 Y-6.4150
G01 X5.0823 Y-6.4144
G01 X5.0944 Y-6.4126
G01 X5.1063 Y-6.4096
G01 X5.1178 Y-6.4055
G01 X5.1289 Y-6.4002
G01 X5.1394 Y-6.3939
G01 X5.1493 Y-6.3866
G01 X5.1584 Y-6.3784
G01 X5.1666 Y-6.3693
G01 X5.1739 Y-6.3594
G01 X5.1802 Y-6.3489
G01 X5.1855 Y-6.3378
G01 X5.1896 Y-6.3263
G01 X5.1926 Y-6.3144
G01 X5.1944 Y-6.3023
G01 X5.1950 Y-6.2900
G01 X5.1950 Y-3.2900
G00 Z2.0000
G00 X15.7502 Y0.0061
G01 F60.00
G01 Z-0.1000
G01 F120.00
G01 X15.7502 Y-0.0061
G01 X15.7574 Y-0.1532
G01 X15.7586 Y-0.1654
G01 X15.7802 Y-0.3110
G01 X15.7826 Y-0.3230
G01 X15.8183 Y-0.4658
G01 X15.8219 Y-0.4775
G01 X15.8715 Y-0.6161
G01 X15.8762 Y-0.6275
G01 X15.9391 Y-0.7605
G01 X15.9449 Y-0.7714
G01 X16.0206 Y-0.8976
G01 X16.0274 Y-0.9078
G01 X16.1151 Y-1.0261
G01 X16.1229 Y-1.0355
G01 X16.2217 Y-1.1446
G01 X16.2304 Y-1.1533
G01 X16.3395 Y-1.2521
G01 X16.3489 Y-1.2599
G01 X16.4672 Y-1.3476
G01 X16.4774 Y-1.3544
G01 X16.6036 Y-1.4301
G01 X16.6145 Y-1.4359
G01 X16.7475 Y-1.4988
G01 X16.7589 Y-1.5035
G01 X16.8975 Y-1.5531
G01 X16.9092 Y-1.5567
G01 X17.0520 Y-1.5924
G01 X17.0640 Y-1.5948
G01 X17.2096 Y-1.6164
G01 X17.2218 Y-1.6176
G01 X17.3689 Y-1.6248
G01 X17.3811 Y-1.6248
G01 X17.5282 Y-1.6176
G01 X17.5404 Y-1.6164
G01 X17.6860 Y-1.5948
G01 X17.6980 Y-1.5924
G01 X17.8408 Y-1.5567
G01 X17.8525 Y-1.5531
G01 X17.9911 Y-1.5035
G01 X18.0025 Y-1.4988
G01 X18.1355 Y-1.4359
G01 X18.1464 Y-1.4301
G01 X18.2726 Y-1.3544
G01 X18.2828 Y-1.3476
G01 X18.4011 Y-1.2599
G01 X18.4105 Y-1.2521
G01 X18.5196 Y-1.1533
G01 X18.5283 Y-1.1446
G01 X18.6271 Y-1.0355
G01 X18.6349 Y-1.0261
G01 X18.7226 Y-0.9078
G01 X18.7294 Y-0.8976
G01 X18.8051 Y-0.7714
G01 X18.8109 Y-0.7605
G01 X18.8738 Y-0.6275
G01 X18.8785 Y-0.6161
G01 X18.9281 Y-0.4775
G01 X18.9317 Y-0.4658
G01 X18.9674 Y-0.3230
G01 X18.9698 Y-0.3110
G01 X18.9914 Y-0.1654
G01 X18.9926 Y-0.1532
G01 X18.9998 Y-0.0061
G01 X18.9998 Y0.0061
G01 X18.9926 Y0.1532
G01 X18.9914 Y0.1654
G01 X18.9698 Y0.3110
G01 X18.9674 Y0.3230
G01 X18.9317 Y0.4658
G01 X18.9281 Y0.4775
G01 X18.8785 Y0.6161
G01 X18.8738 Y0.6275
G01 X18.8109 Y0.7605
G01 X18.8051 Y0.7714
G01 X18.7294 Y0.8976
G01 X18.7226 Y0.9078
G01 X18.6349 Y1.0261
G01 X18.6271 Y1.0355
G01 X18.5283 Y1.1446
G01 X18.5196 Y1.1533
G01 X18.4105 Y1.2521
G01 X18.4011 Y1.2599
G01 X18.2828 Y1.3476
G01 X18.2726 Y1.3544
G01 X18.1464 Y1.4301
G01 X18.1355 Y1.4359
G01 X18.0025 Y1.4988
G01 X17.9911 Y1.5035
G01 X17.8525 Y1.5531
G01 X17.8408 Y1.5567
G01 X17.6980 Y1.5924
G01 X17.6860 Y1.5948
G01 X17.5404 Y1.6164
G01 X17.5282 Y1.6176
G01 X17.3811 Y1.6248
G01 X17.3689 Y1.6248
G01 X17.2218 Y1.6176
G01 X17.2096 Y1.6164
G01 X17.0640 Y1.5948
G01 X17.0520 Y1.5924
G01 X16.9092 Y1.5567
G01 X16.8975 Y1.5531
G01 X16.7589 Y1.5035
G01 X16.7475 Y1.4988
G01 X16.6145 Y1.4359
G01 X16.6036 Y1.4301
G01 X16.4774 Y1.3544
G01 X16.4672 Y1.3476
G01 X16.3489 Y1.2599
G01 X16.3395 Y1.2521
G01 X16.2304 Y1.1533
G01 X16.2217 Y1.1446
G01 X16.1229 Y1.0355
G01 X16.1151 Y1.0261
G01 X16.0274 Y0.9078
G01 X16.0206 Y0.8976
G01 X15.9449 Y0.7714
G01 X15.9391 Y0.7605
G01 X15.8762 Y0.6275
G01 X15.8715 Y0.6161
G01 X15.8219 Y0.4775
G01 X15.8183 Y0.4658
G01 X15.7826 Y0.3230
G01 X15.7802 Y0.3110
G01 X15.7586 Y0.1654
G01 X15.7574 Y0.1532
G01 X15.7502 Y0.0061
G00 Z2.0000
G00 X-10.1906 Y-9.9854
G01 F60.00
G01 Z-0.1000
G01 F120.00
G01 X-10.1824 Y-9.9763
G01 X-10.1751 Y-9.9664
G01 X-10.1688 Y-9.9559
G01 X-10.1635 Y-9.9448
G01 X-10.1594 Y-9.9333
G01 X-10.1564 Y-9.9214
G01 X-10.1546 Y-9.9093
G01 X-10.1540 Y-9.8970
G01 X-10.1546 Y-9.8847
G01 X-10.1564 Y-9.8726
G01 X-10.1594 Y-9.8607
G01 X-10.1635 Y-9.8492
G01 X-10.1688 Y-9.8381
G01 X-10.1751 Y-9.8276
G01 X-10.1824 Y-9.8177
G01 X-10.1906 Y-9.8086
G01 X-11.6046 Y-8.3946
G01 X-11.6137 Y-8.3864
G01 X-11.6236 Y-8.3791
G01 X-11.6341 Y-8.3728
G01 X-11.6452 Y-8.3675
G01 X-11.6567 Y-8.3634
G01 X-11.6686 Y-8.3604
G01 X-11.6807 Y-8.3586
G01 X-11.6930 Y-8.3580
G01 X-11.7053 Y-8.3586
G01 X-11.7174 Y-8.3604
G01 X-11.7293 Y-8.3634
G01 X-11.7408 Y-8.3675
G01 X-11.7519 Y-8.3728
G01 X-11.7624 Y-8.3791
G01 X-11.7723 Y-8.3864
G01 X-11.7814 Y-8.3946
G01 X-11.9691 Y-8.5824
G01 X-13.1450 Y-7.4065
G01 X-13.1450 Y-6.5120
G01 X-13.1456 Y-6.4997
G01 X-13.1474 Y-6.4876
G01 X-13.1504 Y-6.4757
G01 X-13.1545 Y-6.4642
G01 X-13.1598 Y-6.4531
G01 X-13.1661 Y-6.4426
G01 X-13.1734 Y-6.4327
G01 X-13.1816 Y-6.4236
G01 X-13.1907 Y-6.4154
G01 X-13.2006 Y-6.4081
G01 X-13.2111 Y-6.4018
G01 X-13.2222 Y-6.3965
G01 X-13.2337 Y-6.3924
G01 X-13.2456 Y-6.3894
G01 X-13.2577 Y-6.3876
G01 X-13.2700 Y-6.3870
G01 X-14.6700 Y-6.3870
G01 X-14.6823 Y-6.3876
G01 X-14.6944 Y-6.3894
G01 X-14.7063 Y-6.3924
G01 X-14.7178 Y-6.3965
G01 X-14.7289 Y-6.4018
G01 X-14.7394 Y-6.4081
G01 X-14.7493 Y-6.4154
G01 X-14.7584 Y-6.4236
G01 X-14.7666 Y-6.4327
G01 X-14.7739 Y-6.4426
G01 X-14.7802 Y-6.4531
G01 X-14.7855 Y-6.4642
G01 X-14.7896 Y-6.4757
G01 X-14.7926 Y-6.4876
G01 X-14.7944 Y-6.4997
G01 X-14.7950 Y-6.5120
G01 X-14.7950 Y-7.7120
G01 X-14.7944 Y-7.7243
G01 X-14.7926 Y-7.7364
G01 X-14.7896 Y-7.7483
G01 X-14.7855 Y-7.7598
G01 X-14.7802 Y-7.7709
G01 X-14.7739 Y-7.7814
G01 X-14.7666 Y-7.7913
G01 X-14.7584 Y-7.8004
G01 X-14.7493 Y-7.8086
G01 X-14.7394 Y-7.8159
G01 X-14.7289 Y-7.8222
G01 X-14.7178 Y-7.8275
G01 X-14.7063 Y-7.8316
G01 X-14.6944 Y-7.8346
G01 X-14.6823 Y-7.8364
G01 X-14.6700 Y-7.8370
G01 X-13.7755 Y-7.8370
G01 X-12.4996 Y-9.1129
G01 X-13.1954 Y-9.8086
G01 X-13.2036 Y-9.8177
G01 X-13.2109 Y-9.8276
G01 X-13.2172 Y-9.8381
G01 X-13.2225 Y-9.8492
G01 X-13.2266 Y-9.8607
G01 X-13.2296 Y-9.8726
G01 X-13.2314 Y-9.8847
G01 X-13.2320 Y-9.8970
G01 X-13.2314 Y-9.9093
G01 X-13.2296 Y-9.9214
G01 X-13.2266 Y-9.9333
G01 X-13.2225 Y-9.9448
G01 X-13.2172 Y-9.9559
G01 X-13.2109 Y-9.9664
G01 X-13.2036 Y-9.9763
G01 X-13.1954 Y-9.9854
G01 X-11.7814 Y-11.3994
G01 X-11.7723 Y-11.4076
G01 X-11.7624 Y-11.4149
G01 X-11.7519 Y-11.4212
G01 X-11.7408 Y-11.4265
G01 X-11.7293 Y-11.4306
G01 X-11.7174 Y-11.4336
G01 X-11.7053 Y-11.4354
G01 X-11.6930 Y-11.4360
G01 X-11.6807 Y-11.4354
G01 X-11.6686 Y-11.4336
G01 X-11.6567 Y-11.4306
G01 X-11.6452 Y-11.4265
G01 X-11.6341 Y-11.4212
G01 X-11.6236 Y-11.4149
G01 X-11.6137 Y-11.4076
G01 X-11.6046 Y-11.3994
G01 X-10.1906 Y-9.9854
G00 Z2.0000
G00 X-18.9998 Y0.0061
G01 F60.00
G01 Z-0.1000
G01 F120.00
G01 X-18.9998 Y-0.0061
G01 X-18.9926 Y-0.1532
G01 X-18.9914 Y-0.1654
G01 X-18.9698 Y-0.3110
G01 X-18.9674 Y-0.3230
G01 X-18.9317 Y-0.4658
G01 X-18.9281 Y-0.4775
G01 X-18.8785 Y-0.6161
G01 X-18.8738 Y-0.6275
G01 X-18.8109 Y-0.7605
G01 X-18.8051 Y-0.7714
G01 X-18.7294 Y-0.8976
G01 X-18.7226 Y-0.9078
G01 X-18.6349 Y-1.0261
G01 X-18.6271 Y-1.0355
G01 X-18.5283 Y-1.1446
G01 X-18.5196 Y-1.1533
G01 X-18.4105 Y-1.2521
G01 X-18.4011 Y-1.2599
G01 X-18.2828 Y-1.3476
G01 X-18.2726 Y-1.3544
G01 X-18.1464 Y-1.4301
G01 X-18.1355 Y-1.4359
G01 X-18.0025 Y-1.4988
G01 X-17.9911 Y-1.5035
G01 X-17.8525 Y-1.5531
G01 X-17.8408 Y-1.5567
G01 X-17.6980 Y-1.5924
G01 X-17.6860 Y-1.5948
G01 X-17.5404 Y-1.6164
G01 X-17.5282 Y-1.6176
G01 X-17.3811 Y-1.6248
G01 X-17.3689 Y-1.6248
G01 X-17.2218 Y-1.6176
G01 X-17.2096 Y-1.6164
G01 X-17.0640 Y-1.5948
G01 X-17.0520 Y-1.5924
G01 X-16.9092 Y-1.5567
G01 X-16.8975 Y-1.5531
G01 X-16.7589 Y-1.5035
G01 X-16.7475 Y-1.4988
G01 X-16.6145 Y-1.4359
G01 X-16.6036 Y-1.4301
G01 X-16.4774 Y-1.3544
G01 X-16.4672 Y-1.3476
G01 X-16.3489 Y-1.2599
G01 X-16.3395 Y-1.2521
G01 X-16.2304 Y-1.1533
G01 X-16.2217 Y-1.1446
G01 X-16.1229 Y-1.0355
G01 X-16.1151 Y-1.0261
G01 X-16.0274 Y-0.9078
G01 X-16.0206 Y-0.8976
G01 X-15.9449 Y-0.7714
G01 X-15.9391 Y-0.7605
G01 X-15.8762 Y-0.6275
G01 X-15.8715 Y-0.6161
G01 X-15.8219 Y-0.4775
G01 X-15.8183 Y-0.4658
G01 X-15.7826 Y-0.3230
G01 X-15.7802 Y-0.3110
G01 X-15.7586 Y-0.1654
G01 X-15.7574 Y-0.1532
G01 X-15.7502 Y-0.0061
G01 X-15.7502 Y0.0061
G01 X-15.7574 Y0.1532
G01 X-15.7586 Y0.1654
G01 X-15.7802 Y0.3110
G01 X-15.7826 Y0.3230
G01 X-15.8183 Y0.4658
G01 X-15.8219 Y0.4775
G01 X-15.8715 Y0.6161
G01 X-15.8762 Y0.6275
G01 X-15.9391 Y0.7605
G01 X-15.9449 Y0.7714
G01 X-16.0206 Y0.8976
G01 X-16.0274 Y0.9078
G01 X-16.1151 Y1.0261
G01 X-16.1229 Y1.0355
G01 X-16.2217 Y1.1446
G01 X-16.2304 Y1.1533
G01 X-16.3395 Y1.2521
G01 X-16.3489 Y1.2599
G01 X-16.4672 Y1.3476
G01 X-16.4774 Y1.3544
G01 X-16.6036 Y1.4301
G01 X-16.6145 Y1.4359
G01 X-16.7475 Y1.4988
G01 X-16.7589 Y1.5035
G01 X-16.8975 Y1.5531
G01 X-16.9092 Y1.5567
G01 X-17.0520 Y1.5924
G01 X-17.0640 Y1.5948
G01 X-17.2096 Y1.6164
G01 X-17.2218 Y1.6176
G01 X-17.3689 Y1.6248
G01 X-17.3811 Y1.6248
G01 X-17.5282 Y1.6176
G01 X-17.5404 Y1.6164
G01 X-17.6860 Y1.5948
G01 X-17.6980 Y1.5924
G01 X-17.8408 Y1.5567
G01 X-17.8525 Y1.5531
G01 X-17.9911 Y1.5035
G01 X-18.0025 Y1.4988
G01 X-18.1355 Y1.4359
G01 X-18.1464 Y1.4301
G01 X-18.2726 Y1.3544
G01 X-18.2828 Y1.3476
G01 X-18.4011 Y1.2599
G01 X-18.4105 Y1.2521
G01 X-18.5196 Y1.1533
G01 X-18.5283 Y1.1446
G01 X-18.6271 Y1.0355
G01 X-18.6349 Y1.0261
G01 X-18.7226 Y0.9078
G01 X-18.7294 Y0.8976
G01 X-18.8051 Y0.7714
G01 X-18.8109 Y0.7605
G01 X-18.8738 Y0.6275
G01 X-18.8785 Y0.6161
G01 X-18.9281 Y0.4775
G01 X-18.9317 Y0.4658
G01 X-18.9674 Y0.3230
G01 X-18.9698 Y0.3110
G01 X-18.9914 Y0.1654
G01 X-18.9926 Y0.1532
G01 X-18.9998 Y0.0061
G00 Z2.0000
M05
G00 Z2.0000
G00 Z15.00
G00 X0.0 Y0.0

