(G-CODE GENERATED BY FLATCAM v8.991 - www.flatcam.org - Version Date: 2019/12/27)

(Name: AutoToolZeroProbe_Copper_Signal_Bot.gbr_iso_cnc_0.55)
(Type: G-code from Geometry)
(Units: MM)

(Created on Monday, 13 April 2020 at 11:40)

(TOOL DIAMETER: 0.55 mm)
(Feedrate: 120.0 mm/min)
(Feedrate_Z: 60.0 mm/min)
(Feedrate rapids 1500.0 mm/min)

(Z_Cut: -0.1 mm)
(Z_Move: 2.0 mm)
(Z Toolchange: 15.0 mm)
(X,Y Toolchange: 0.0000, 0.0000 mm)
(Z Start: None mm)
(Z End: 15.0 mm)
(Steps per circle: 64)
(Preprocessor Geometry: default)

(X range:  -19.1497 ...   19.1497  mm)
(Y range:  -14.7650 ...    7.5251  mm)

(Spindle Speed: None RPM)
G21
G90
G94




G01 F120.00
G00 Z2.0000
S15000
M03
M1
G00 X-0.5251 Y1.6952
G01 F60.00
G01 Z-0.1000
G01 F120.00
G01 X-0.6667 Y1.6447
G01 X-0.6916 Y1.6344
G01 X-0.8247 Y1.5715
G01 X-0.8485 Y1.5588
G01 X-0.9747 Y1.4831
G01 X-0.9972 Y1.4681
G01 X-1.1154 Y1.3804
G01 X-1.1363 Y1.3633
G01 X-1.2453 Y1.2644
G01 X-1.2644 Y1.2453
G01 X-1.3633 Y1.1363
G01 X-1.3804 Y1.1154
G01 X-1.4681 Y0.9972
G01 X-1.4831 Y0.9747
G01 X-1.5588 Y0.8485
G01 X-1.5715 Y0.8247
G01 X-1.6344 Y0.6916
G01 X-1.6447 Y0.6667
G01 X-1.6943 Y0.5281
G01 X-1.7022 Y0.5022
G01 X-1.7379 Y0.3595
G01 X-1.7432 Y0.3330
G01 X-1.7648 Y0.1874
G01 X-1.7674 Y0.1605
G01 X-1.7747 Y0.0135
G01 X-1.7747 Y-0.0135
G01 X-1.7674 Y-0.1605
G01 X-1.7648 Y-0.1874
G01 X-1.7432 Y-0.3330
G01 X-1.7379 Y-0.3595
G01 X-1.7022 Y-0.5022
G01 X-1.6943 Y-0.5281
G01 X-1.6447 Y-0.6667
G01 X-1.6344 Y-0.6916
G01 X-1.5715 Y-0.8247
G01 X-1.5588 Y-0.8485
G01 X-1.4831 Y-0.9747
G01 X-1.4681 Y-0.9972
G01 X-1.3804 Y-1.1154
G01 X-1.3633 Y-1.1363
G01 X-1.2644 Y-1.2453
G01 X-1.2453 Y-1.2644
G01 X-1.1363 Y-1.3633
G01 X-1.1154 Y-1.3804
G01 X-0.9972 Y-1.4681
G01 X-0.9747 Y-1.4831
G01 X-0.8485 Y-1.5588
G01 X-0.8247 Y-1.5715
G01 X-0.6916 Y-1.6344
G01 X-0.6667 Y-1.6447
G01 X-0.5281 Y-1.6943
G01 X-0.5022 Y-1.7022
G01 X-0.3595 Y-1.7379
G01 X-0.3330 Y-1.7432
G01 X-0.1874 Y-1.7648
G01 X-0.1605 Y-1.7674
G01 X-0.0135 Y-1.7747
G01 X0.0135 Y-1.7747
G01 X0.1605 Y-1.7674
G01 X0.1874 Y-1.7648
G01 X0.3330 Y-1.7432
G01 X0.3595 Y-1.7379
G01 X0.5022 Y-1.7022
G01 X0.5281 Y-1.6943
G01 X0.6667 Y-1.6447
G01 X0.6916 Y-1.6344
G01 X0.8247 Y-1.5715
G01 X0.8485 Y-1.5588
G01 X0.9747 Y-1.4831
G01 X0.9972 Y-1.4681
G01 X1.1154 Y-1.3804
G01 X1.1363 Y-1.3633
G01 X1.2453 Y-1.2644
G01 X1.2644 Y-1.2453
G01 X1.3633 Y-1.1363
G01 X1.3804 Y-1.1154
G01 X1.4681 Y-0.9972
G01 X1.4831 Y-0.9747
G01 X1.5588 Y-0.8485
G01 X1.5715 Y-0.8247
G01 X1.6344 Y-0.6916
G01 X1.6447 Y-0.6667
G01 X1.6943 Y-0.5281
G01 X1.7022 Y-0.5022
G01 X1.7379 Y-0.3595
G01 X1.7432 Y-0.3330
G01 X1.7648 Y-0.1874
G01 X1.7674 Y-0.1605
G01 X1.7747 Y-0.0135
G01 X1.7747 Y0.0135
G01 X1.7674 Y0.1605
G01 X1.7648 Y0.1874
G01 X1.7432 Y0.3330
G01 X1.7379 Y0.3595
G01 X1.7022 Y0.5022
G01 X1.6943 Y0.5281
G01 X1.6447 Y0.6667
G01 X1.6344 Y0.6916
G01 X1.5715 Y0.8247
G01 X1.5588 Y0.8485
G01 X1.4831 Y0.9747
G01 X1.4681 Y0.9972
G01 X1.3804 Y1.1154
G01 X1.3633 Y1.1363
G01 X1.2644 Y1.2453
G01 X1.2453 Y1.2644
G01 X1.1363 Y1.3633
G01 X1.1154 Y1.3804
G01 X0.9972 Y1.4681
G01 X0.9747 Y1.4831
G01 X0.8485 Y1.5588
G01 X0.8247 Y1.5715
G01 X0.6916 Y1.6344
G01 X0.6667 Y1.6447
G01 X0.5251 Y1.6952
G01 X0.5251 Y4.8625
G01 X2.1375 Y6.4749
G01 X10.7825 Y6.4749
G01 X12.4749 Y4.7825
G01 X12.4749 Y2.8750
G01 X12.3000 Y2.8750
G01 X12.2730 Y2.8737
G01 X12.2464 Y2.8697
G01 X12.2202 Y2.8632
G01 X12.1948 Y2.8541
G01 X12.1704 Y2.8425
G01 X12.1472 Y2.8287
G01 X12.1255 Y2.8126
G01 X12.1055 Y2.7945
G01 X12.0874 Y2.7745
G01 X12.0713 Y2.7528
G01 X12.0575 Y2.7296
G01 X12.0459 Y2.7052
G01 X12.0368 Y2.6798
G01 X12.0303 Y2.6536
G01 X12.0263 Y2.6270
G01 X12.0250 Y2.6000
G01 X12.0250 Y1.4000
G01 X12.0263 Y1.3730
G01 X12.0303 Y1.3464
G01 X12.0368 Y1.3202
G01 X12.0459 Y1.2948
G01 X12.0575 Y1.2704
G01 X12.0713 Y1.2472
G01 X12.0874 Y1.2255
G01 X12.1055 Y1.2055
G01 X12.1255 Y1.1874
G01 X12.1472 Y1.1713
G01 X12.1704 Y1.1575
G01 X12.1948 Y1.1459
G01 X12.2202 Y1.1368
G01 X12.2464 Y1.1303
G01 X12.2730 Y1.1263
G01 X12.3000 Y1.1250
G01 X13.7000 Y1.1250
G01 X13.7270 Y1.1263
G01 X13.7536 Y1.1303
G01 X13.7798 Y1.1368
G01 X13.8052 Y1.1459
G01 X13.8296 Y1.1575
G01 X13.8528 Y1.1713
G01 X13.8745 Y1.1874
G01 X13.8945 Y1.2055
G01 X13.9126 Y1.2255
G01 X13.9287 Y1.2472
G01 X13.9425 Y1.2704
G01 X13.9541 Y1.2948
G01 X13.9632 Y1.3202
G01 X13.9697 Y1.3464
G01 X13.9737 Y1.3730
G01 X13.9750 Y1.4000
G01 X13.9750 Y2.6000
G01 X13.9737 Y2.6270
G01 X13.9697 Y2.6536
G01 X13.9632 Y2.6798
G01 X13.9541 Y2.7052
G01 X13.9425 Y2.7296
G01 X13.9287 Y2.7528
G01 X13.9126 Y2.7745
G01 X13.8945 Y2.7945
G01 X13.8745 Y2.8126
G01 X13.8528 Y2.8287
G01 X13.8296 Y2.8425
G01 X13.8052 Y2.8541
G01 X13.7798 Y2.8632
G01 X13.7536 Y2.8697
G01 X13.7270 Y2.8737
G01 X13.7000 Y2.8750
G01 X13.5251 Y2.8750
G01 X13.5251 Y5.0000
G01 X13.5248 Y5.0135
G01 X13.5236 Y5.0380
G01 X13.5209 Y5.0649
G01 X13.5173 Y5.0891
G01 X13.5121 Y5.1156
G01 X13.5061 Y5.1394
G01 X13.4983 Y5.1653
G01 X13.4900 Y5.1884
G01 X13.4797 Y5.2133
G01 X13.4692 Y5.2355
G01 X13.4565 Y5.2593
G01 X13.4438 Y5.2803
G01 X13.4289 Y5.3028
G01 X13.4142 Y5.3225
G01 X13.3971 Y5.3434
G01 X13.3713 Y5.3713
G01 X11.3713 Y7.3713
G01 X11.3434 Y7.3971
G01 X11.3225 Y7.4142
G01 X11.3028 Y7.4289
G01 X11.2803 Y7.4438
G01 X11.2593 Y7.4565
G01 X11.2355 Y7.4692
G01 X11.2133 Y7.4797
G01 X11.1884 Y7.4900
G01 X11.1653 Y7.4983
G01 X11.1394 Y7.5061
G01 X11.1156 Y7.5121
G01 X11.0891 Y7.5173
G01 X11.0649 Y7.5209
G01 X11.0380 Y7.5236
G01 X11.0000 Y7.5251
G01 X1.9200 Y7.5251
G01 X1.8820 Y7.5236
G01 X1.8551 Y7.5209
G01 X1.8309 Y7.5173
G01 X1.8044 Y7.5121
G01 X1.7806 Y7.5061
G01 X1.7547 Y7.4983
G01 X1.7316 Y7.4900
G01 X1.7067 Y7.4797
G01 X1.6845 Y7.4692
G01 X1.6607 Y7.4565
G01 X1.6397 Y7.4438
G01 X1.6172 Y7.4289
G01 X1.5975 Y7.4142
G01 X1.5766 Y7.3971
G01 X1.5585 Y7.3806
G01 X1.5487 Y7.3713
G01 X-0.3713 Y5.4513
G01 X-0.3971 Y5.4234
G01 X-0.4142 Y5.4025
G01 X-0.4289 Y5.3828
G01 X-0.4438 Y5.3603
G01 X-0.4565 Y5.3393
G01 X-0.4692 Y5.3155
G01 X-0.4797 Y5.2933
G01 X-0.4900 Y5.2684
G01 X-0.4983 Y5.2453
G01 X-0.5061 Y5.2194
G01 X-0.5121 Y5.1956
G01 X-0.5173 Y5.1691
G01 X-0.5209 Y5.1449
G01 X-0.5236 Y5.1180
G01 X-0.5251 Y5.0800
G01 X-0.5251 Y1.6952
G00 Z2.0000
G00 X-2.3960 Y2.1370
G01 F60.00
G01 Z-0.1000
G01 F120.00
G01 X-2.3690 Y2.1383
G01 X-2.3424 Y2.1423
G01 X-2.3162 Y2.1488
G01 X-2.2908 Y2.1579
G01 X-2.2664 Y2.1695
G01 X-2.2432 Y2.1833
G01 X-2.2215 Y2.1994
G01 X-2.2015 Y2.2175
G01 X-2.1834 Y2.2375
G01 X-2.1673 Y2.2592
G01 X-2.1535 Y2.2824
G01 X-2.1419 Y2.3068
G01 X-2.1328 Y2.3322
G01 X-2.1263 Y2.3584
G01 X-2.1223 Y2.3850
G01 X-2.1210 Y2.4120
G01 X-2.1210 Y4.6120
G01 X-2.1223 Y4.6390
G01 X-2.1263 Y4.6656
G01 X-2.1328 Y4.6918
G01 X-2.1419 Y4.7172
G01 X-2.1535 Y4.7416
G01 X-2.1673 Y4.7648
G01 X-2.1834 Y4.7865
G01 X-2.2015 Y4.8065
G01 X-2.2215 Y4.8246
G01 X-2.2432 Y4.8407
G01 X-2.2664 Y4.8545
G01 X-2.2908 Y4.8661
G01 X-2.3162 Y4.8752
G01 X-2.3424 Y4.8817
G01 X-2.3690 Y4.8857
G01 X-2.3960 Y4.8870
G01 X-4.1960 Y4.8870
G01 X-4.2230 Y4.8857
G01 X-4.2496 Y4.8817
G01 X-4.2758 Y4.8752
G01 X-4.3012 Y4.8661
G01 X-4.3256 Y4.8545
G01 X-4.3488 Y4.8407
G01 X-4.3705 Y4.8246
G01 X-4.3905 Y4.8065
G01 X-4.4086 Y4.7865
G01 X-4.4247 Y4.7648
G01 X-4.4385 Y4.7416
G01 X-4.4501 Y4.7172
G01 X-4.4592 Y4.6918
G01 X-4.4657 Y4.6656
G01 X-4.4697 Y4.6390
G01 X-4.4710 Y4.6120
G01 X-4.4710 Y2.4120
G01 X-4.4697 Y2.3850
G01 X-4.4657 Y2.3584
G01 X-4.4592 Y2.3322
G01 X-4.4501 Y2.3068
G01 X-4.4385 Y2.2824
G01 X-4.4247 Y2.2592
G01 X-4.4086 Y2.2375
G01 X-4.3905 Y2.2175
G01 X-4.3705 Y2.1994
G01 X-4.3488 Y2.1833
G01 X-4.3256 Y2.1695
G01 X-4.3012 Y2.1579
G01 X-4.2758 Y2.1488
G01 X-4.2496 Y2.1423
G01 X-4.2230 Y2.1383
G01 X-4.1960 Y2.1370
G01 X-2.3960 Y2.1370
G00 Z2.0000
G00 X2.6840 Y2.1370
G01 F60.00
G01 Z-0.1000
G01 F120.00
G01 X2.7110 Y2.1383
G01 X2.7376 Y2.1423
G01 X2.7638 Y2.1488
G01 X2.7892 Y2.1579
G01 X2.8136 Y2.1695
G01 X2.8368 Y2.1833
G01 X2.8585 Y2.1994
G01 X2.8785 Y2.2175
G01 X2.8966 Y2.2375
G01 X2.9127 Y2.2592
G01 X2.9265 Y2.2824
G01 X2.9381 Y2.3068
G01 X2.9472 Y2.3322
G01 X2.9537 Y2.3584
G01 X2.9577 Y2.3850
G01 X2.9590 Y2.4120
G01 X2.9590 Y4.6120
G01 X2.9577 Y4.6390
G01 X2.9537 Y4.6656
G01 X2.9472 Y4.6918
G01 X2.9381 Y4.7172
G01 X2.9265 Y4.7416
G01 X2.9127 Y4.7648
G01 X2.8966 Y4.7865
G01 X2.8785 Y4.8065
G01 X2.8585 Y4.8246
G01 X2.8368 Y4.8407
G01 X2.8136 Y4.8545
G01 X2.7892 Y4.8661
G01 X2.7638 Y4.8752
G01 X2.7376 Y4.8817
G01 X2.7110 Y4.8857
G01 X2.6840 Y4.8870
G01 X0.8840 Y4.8870
G01 X0.8570 Y4.8857
G01 X0.8304 Y4.8817
G01 X0.8042 Y4.8752
G01 X0.7788 Y4.8661
G01 X0.7544 Y4.8545
G01 X0.7312 Y4.8407
G01 X0.7095 Y4.8246
G01 X0.6895 Y4.8065
G01 X0.6714 Y4.7865
G01 X0.6553 Y4.7648
G01 X0.6415 Y4.7416
G01 X0.6299 Y4.7172
G01 X0.6208 Y4.6918
G01 X0.6143 Y4.6656
G01 X0.6103 Y4.6390
G01 X0.6090 Y4.6120
G01 X0.6090 Y2.4120
G01 X0.6103 Y2.3850
G01 X0.6143 Y2.3584
G01 X0.6208 Y2.3322
G01 X0.6299 Y2.3068
G01 X0.6415 Y2.2824
G01 X0.6553 Y2.2592
G01 X0.6714 Y2.2375
G01 X0.6895 Y2.2175
G01 X0.7095 Y2.1994
G01 X0.7312 Y2.1833
G01 X0.7544 Y2.1695
G01 X0.7788 Y2.1579
G01 X0.8042 Y2.1488
G01 X0.8304 Y2.1423
G01 X0.8570 Y2.1383
G01 X0.8840 Y2.1370
G01 X2.6840 Y2.1370
G00 Z2.0000
G00 X3.4999 Y2.1370
G01 F60.00
G01 Z-0.1000
G01 F120.00
G01 X3.4893 Y2.1228
G01 X3.4755 Y2.0996
G01 X3.4639 Y2.0752
G01 X3.4548 Y2.0498
G01 X3.4483 Y2.0236
G01 X3.4443 Y1.9970
G01 X3.4430 Y1.9700
G01 X3.4430 Y0.5700
G01 X3.4443 Y0.5430
G01 X3.4483 Y0.5164
G01 X3.4548 Y0.4902
G01 X3.4639 Y0.4648
G01 X3.4755 Y0.4404
G01 X3.4893 Y0.4172
G01 X3.5054 Y0.3955
G01 X3.5235 Y0.3755
G01 X3.5435 Y0.3574
G01 X3.5652 Y0.3413
G01 X3.5884 Y0.3275
G01 X3.6128 Y0.3159
G01 X3.6382 Y0.3068
G01 X3.6644 Y0.3003
G01 X3.6910 Y0.2963
G01 X3.7180 Y0.2950
G01 X4.9180 Y0.2950
G01 X4.9450 Y0.2963
G01 X4.9716 Y0.3003
G01 X4.9978 Y0.3068
G01 X5.0232 Y0.3159
G01 X5.0476 Y0.3275
G01 X5.0708 Y0.3413
G01 X5.0925 Y0.3574
G01 X5.1125 Y0.3755
G01 X5.1306 Y0.3955
G01 X5.1467 Y0.4172
G01 X5.1605 Y0.4404
G01 X5.1721 Y0.4648
G01 X5.1812 Y0.4902
G01 X5.1877 Y0.5164
G01 X5.1917 Y0.5430
G01 X5.1930 Y0.5700
G01 X5.1930 Y1.9700
G01 X5.1917 Y1.9970
G01 X5.1877 Y2.0236
G01 X5.1812 Y2.0498
G01 X5.1721 Y2.0752
G01 X5.1605 Y2.0996
G01 X5.1467 Y2.1228
G01 X5.1361 Y2.1370
G01 X5.2240 Y2.1370
G01 X5.2510 Y2.1383
G01 X5.2776 Y2.1423
G01 X5.3038 Y2.1488
G01 X5.3292 Y2.1579
G01 X5.3536 Y2.1695
G01 X5.3768 Y2.1833
G01 X5.3985 Y2.1994
G01 X5.4185 Y2.2175
G01 X5.4366 Y2.2375
G01 X5.4527 Y2.2592
G01 X5.4665 Y2.2824
G01 X5.4781 Y2.3068
G01 X5.4872 Y2.3322
G01 X5.4937 Y2.3584
G01 X5.4977 Y2.3850
G01 X5.4990 Y2.4120
G01 X5.4990 Y4.6120
G01 X5.4977 Y4.6390
G01 X5.4937 Y4.6656
G01 X5.4872 Y4.6918
G01 X5.4781 Y4.7172
G01 X5.4665 Y4.7416
G01 X5.4527 Y4.7648
G01 X5.4366 Y4.7865
G01 X5.4185 Y4.8065
G01 X5.3985 Y4.8246
G01 X5.3768 Y4.8407
G01 X5.3536 Y4.8545
G01 X5.3292 Y4.8661
G01 X5.3038 Y4.8752
G01 X5.2776 Y4.8817
G01 X5.2510 Y4.8857
G01 X5.2240 Y4.8870
G01 X4.9946 Y4.8870
G01 X5.2975 Y5.1899
G01 X10.0675 Y5.1899
G01 X10.3817 Y4.8757
G01 X10.3576 Y4.8817
G01 X10.3310 Y4.8857
G01 X10.3040 Y4.8870
G01 X8.5040 Y4.8870
G01 X8.4770 Y4.8857
G01 X8.4504 Y4.8817
G01 X8.4242 Y4.8752
G01 X8.3988 Y4.8661
G01 X8.3744 Y4.8545
G01 X8.3512 Y4.8407
G01 X8.3295 Y4.8246
G01 X8.3095 Y4.8065
G01 X8.2914 Y4.7865
G01 X8.2753 Y4.7648
G01 X8.2615 Y4.7416
G01 X8.2499 Y4.7172
G01 X8.2408 Y4.6918
G01 X8.2343 Y4.6656
G01 X8.2303 Y4.6390
G01 X8.2290 Y4.6120
G01 X8.2290 Y2.4120
G01 X8.2303 Y2.3850
G01 X8.2343 Y2.3584
G01 X8.2408 Y2.3322
G01 X8.2499 Y2.3068
G01 X8.2615 Y2.2824
G01 X8.2753 Y2.2592
G01 X8.2914 Y2.2375
G01 X8.3095 Y2.2175
G01 X8.3295 Y2.1994
G01 X8.3512 Y2.1833
G01 X8.3744 Y2.1695
G01 X8.3988 Y2.1579
G01 X8.4242 Y2.1488
G01 X8.4504 Y2.1423
G01 X8.4770 Y2.1383
G01 X8.5040 Y2.1370
G01 X10.3040 Y2.1370
G01 X10.3310 Y2.1383
G01 X10.3576 Y2.1423
G01 X10.3838 Y2.1488
G01 X10.4092 Y2.1579
G01 X10.4336 Y2.1695
G01 X10.4568 Y2.1833
G01 X10.4785 Y2.1994
G01 X10.4985 Y2.2175
G01 X10.5166 Y2.2375
G01 X10.5249 Y2.2487
G01 X10.5249 Y-1.0250
G01 X10.3680 Y-1.0250
G01 X10.3410 Y-1.0263
G01 X10.3144 Y-1.0303
G01 X10.2882 Y-1.0368
G01 X10.2628 Y-1.0459
G01 X10.2384 Y-1.0575
G01 X10.2152 Y-1.0713
G01 X10.1935 Y-1.0874
G01 X10.1735 Y-1.1055
G01 X10.1554 Y-1.1255
G01 X10.1393 Y-1.1472
G01 X10.1255 Y-1.1704
G01 X10.1139 Y-1.1948
G01 X10.1048 Y-1.2202
G01 X10.0983 Y-1.2464
G01 X10.0943 Y-1.2730
G01 X10.0930 Y-1.3000
G01 X10.0930 Y-2.7000
G01 X10.0943 Y-2.7270
G01 X10.0983 Y-2.7536
G01 X10.1048 Y-2.7798
G01 X10.1139 Y-2.8052
G01 X10.1255 Y-2.8296
G01 X10.1393 Y-2.8528
G01 X10.1554 Y-2.8745
G01 X10.1735 Y-2.8945
G01 X10.1935 Y-2.9126
G01 X10.2152 Y-2.9287
G01 X10.2384 Y-2.9425
G01 X10.2628 Y-2.9541
G01 X10.2882 Y-2.9632
G01 X10.3144 Y-2.9697
G01 X10.3410 Y-2.9737
G01 X10.3680 Y-2.9750
G01 X10.4683 Y-2.9750
G01 X10.4618 Y-2.9932
G01 X10.4553 Y-3.0194
G01 X10.4513 Y-3.0460
G01 X10.4500 Y-3.0730
G01 X10.4500 Y-4.2730
G01 X10.4513 Y-4.3000
G01 X10.4553 Y-4.3266
G01 X10.4618 Y-4.3528
G01 X10.4709 Y-4.3782
G01 X10.4825 Y-4.4026
G01 X10.4963 Y-4.4258
G01 X10.5124 Y-4.4475
G01 X10.5305 Y-4.4675
G01 X10.5505 Y-4.4856
G01 X10.5722 Y-4.5017
G01 X10.5954 Y-4.5155
G01 X10.6198 Y-4.5271
G01 X10.6452 Y-4.5362
G01 X10.6714 Y-4.5427
G01 X10.6980 Y-4.5467
G01 X10.7250 Y-4.5480
G01 X11.3750 Y-4.5480
G01 X11.4020 Y-4.5467
G01 X11.4286 Y-4.5427
G01 X11.4548 Y-4.5362
G01 X11.4802 Y-4.5271
G01 X11.5046 Y-4.5155
G01 X11.5278 Y-4.5017
G01 X11.5495 Y-4.4856
G01 X11.5695 Y-4.4675
G01 X11.5876 Y-4.4475
G01 X11.6037 Y-4.4258
G01 X11.6175 Y-4.4026
G01 X11.6291 Y-4.3782
G01 X11.6382 Y-4.3528
G01 X11.6447 Y-4.3266
G01 X11.6487 Y-4.3000
G01 X11.6500 Y-4.2730
G01 X11.6500 Y-3.0730
G01 X11.6487 Y-3.0460
G01 X11.6447 Y-3.0194
G01 X11.6382 Y-2.9932
G01 X11.6291 Y-2.9679
G01 X11.6478 Y-2.9632
G01 X11.6732 Y-2.9541
G01 X11.6976 Y-2.9425
G01 X11.7208 Y-2.9287
G01 X11.7425 Y-2.9126
G01 X11.7625 Y-2.8945
G01 X11.7806 Y-2.8745
G01 X11.7967 Y-2.8528
G01 X11.8105 Y-2.8296
G01 X11.8221 Y-2.8052
G01 X11.8312 Y-2.7798
G01 X11.8377 Y-2.7536
G01 X11.8417 Y-2.7270
G01 X11.8430 Y-2.7000
G01 X11.8430 Y-1.3000
G01 X11.8417 Y-1.2730
G01 X11.8377 Y-1.2464
G01 X11.8312 Y-1.2202
G01 X11.8221 Y-1.1948
G01 X11.8105 Y-1.1704
G01 X11.7967 Y-1.1472
G01 X11.7806 Y-1.1255
G01 X11.7625 Y-1.1055
G01 X11.7425 Y-1.0874
G01 X11.7208 Y-1.0713
G01 X11.6976 Y-1.0575
G01 X11.6732 Y-1.0459
G01 X11.6478 Y-1.0368
G01 X11.6216 Y-1.0303
G01 X11.5950 Y-1.0263
G01 X11.5751 Y-1.0254
G01 X11.5751 Y4.9500
G01 X11.5736 Y4.9880
G01 X11.5709 Y5.0149
G01 X11.5673 Y5.0391
G01 X11.5621 Y5.0656
G01 X11.5561 Y5.0894
G01 X11.5483 Y5.1153
G01 X11.5400 Y5.1384
G01 X11.5297 Y5.1633
G01 X11.5192 Y5.1855
G01 X11.5065 Y5.2093
G01 X11.4938 Y5.2303
G01 X11.4789 Y5.2528
G01 X11.4642 Y5.2725
G01 X11.4471 Y5.2934
G01 X11.4213 Y5.3213
G01 X10.6563 Y6.0863
G01 X10.6284 Y6.1121
G01 X10.6075 Y6.1292
G01 X10.5878 Y6.1439
G01 X10.5653 Y6.1588
G01 X10.5443 Y6.1715
G01 X10.5205 Y6.1842
G01 X10.4983 Y6.1947
G01 X10.4734 Y6.2050
G01 X10.4503 Y6.2133
G01 X10.4244 Y6.2211
G01 X10.4006 Y6.2271
G01 X10.3741 Y6.2323
G01 X10.3499 Y6.2359
G01 X10.3230 Y6.2386
G01 X10.2850 Y6.2401
G01 X5.0800 Y6.2401
G01 X5.0420 Y6.2386
G01 X5.0151 Y6.2359
G01 X4.9909 Y6.2323
G01 X4.9644 Y6.2271
G01 X4.9406 Y6.2211
G01 X4.9147 Y6.2133
G01 X4.8916 Y6.2050
G01 X4.8667 Y6.1947
G01 X4.8445 Y6.1842
G01 X4.8207 Y6.1715
G01 X4.7997 Y6.1588
G01 X4.7772 Y6.1439
G01 X4.7575 Y6.1292
G01 X4.7366 Y6.1121
G01 X4.7087 Y6.0863
G01 X3.9527 Y5.3303
G01 X3.9269 Y5.3024
G01 X3.9098 Y5.2815
G01 X3.8951 Y5.2618
G01 X3.8802 Y5.2393
G01 X3.8675 Y5.2183
G01 X3.8548 Y5.1945
G01 X3.8443 Y5.1723
G01 X3.8340 Y5.1474
G01 X3.8257 Y5.1243
G01 X3.8179 Y5.0984
G01 X3.8119 Y5.0746
G01 X3.8067 Y5.0481
G01 X3.8031 Y5.0239
G01 X3.8004 Y4.9970
G01 X3.7989 Y4.9590
G01 X3.7989 Y4.8870
G01 X3.4240 Y4.8870
G01 X3.3970 Y4.8857
G01 X3.3704 Y4.8817
G01 X3.3442 Y4.8752
G01 X3.3188 Y4.8661
G01 X3.2944 Y4.8545
G01 X3.2712 Y4.8407
G01 X3.2495 Y4.8246
G01 X3.2295 Y4.8065
G01 X3.2114 Y4.7865
G01 X3.1953 Y4.7648
G01 X3.1815 Y4.7416
G01 X3.1699 Y4.7172
G01 X3.1608 Y4.6918
G01 X3.1543 Y4.6656
G01 X3.1503 Y4.6390
G01 X3.1490 Y4.6120
G01 X3.1490 Y2.4120
G01 X3.1503 Y2.3850
G01 X3.1543 Y2.3584
G01 X3.1608 Y2.3322
G01 X3.1699 Y2.3068
G01 X3.1815 Y2.2824
G01 X3.1953 Y2.2592
G01 X3.2114 Y2.2375
G01 X3.2295 Y2.2175
G01 X3.2495 Y2.1994
G01 X3.2712 Y2.1833
G01 X3.2944 Y2.1695
G01 X3.3188 Y2.1579
G01 X3.3442 Y2.1488
G01 X3.3704 Y2.1423
G01 X3.3970 Y2.1383
G01 X3.4240 Y2.1370
G01 X3.4999 Y2.1370
G00 Z2.0000
G00 X5.3450 Y-3.2900
G01 F60.00
G01 Z-0.1000
G01 F120.00
G01 X5.3437 Y-3.2630
G01 X5.3397 Y-3.2364
G01 X5.3332 Y-3.2102
G01 X5.3241 Y-3.1848
G01 X5.3125 Y-3.1604
G01 X5.2987 Y-3.1372
G01 X5.2826 Y-3.1155
G01 X5.2645 Y-3.0955
G01 X5.2445 Y-3.0774
G01 X5.2228 Y-3.0613
G01 X5.1996 Y-3.0475
G01 X5.1752 Y-3.0359
G01 X5.1498 Y-3.0268
G01 X5.1236 Y-3.0203
G01 X5.0970 Y-3.0163
G01 X5.0700 Y-3.0150
G01 X3.8200 Y-3.0150
G01 X3.7930 Y-3.0163
G01 X3.7664 Y-3.0203
G01 X3.7402 Y-3.0268
G01 X3.7148 Y-3.0359
G01 X3.6904 Y-3.0475
G01 X3.6672 Y-3.0613
G01 X3.6455 Y-3.0774
G01 X3.6255 Y-3.0955
G01 X3.6074 Y-3.1155
G01 X3.5913 Y-3.1372
G01 X3.5775 Y-3.1604
G01 X3.5659 Y-3.1848
G01 X3.5568 Y-3.2102
G01 X3.5503 Y-3.2364
G01 X3.5463 Y-3.2630
G01 X3.5450 Y-3.2900
G01 X3.5450 Y-4.5549
G01 X3.4150 Y-4.5549
G01 X3.4150 Y-4.3800
G01 X3.4137 Y-4.3530
G01 X3.4097 Y-4.3264
G01 X3.4032 Y-4.3002
G01 X3.3941 Y-4.2748
G01 X3.3825 Y-4.2504
G01 X3.3687 Y-4.2272
G01 X3.3526 Y-4.2055
G01 X3.3345 Y-4.1855
G01 X3.3145 Y-4.1674
G01 X3.2928 Y-4.1513
G01 X3.2696 Y-4.1375
G01 X3.2452 Y-4.1259
G01 X3.2198 Y-4.1168
G01 X3.1936 Y-4.1103
G01 X3.1670 Y-4.1063
G01 X3.1400 Y-4.1050
G01 X1.9400 Y-4.1050
G01 X1.9130 Y-4.1063
G01 X1.8864 Y-4.1103
G01 X1.8602 Y-4.1168
G01 X1.8348 Y-4.1259
G01 X1.8104 Y-4.1375
G01 X1.7872 Y-4.1513
G01 X1.7655 Y-4.1674
G01 X1.7455 Y-4.1855
G01 X1.7274 Y-4.2055
G01 X1.7113 Y-4.2272
G01 X1.6975 Y-4.2504
G01 X1.6859 Y-4.2748
G01 X1.6768 Y-4.3002
G01 X1.6703 Y-4.3264
G01 X1.6663 Y-4.3530
G01 X1.6650 Y-4.3800
G01 X1.6650 Y-5.7800
G01 X1.6663 Y-5.8070
G01 X1.6703 Y-5.8336
G01 X1.6768 Y-5.8598
G01 X1.6859 Y-5.8852
G01 X1.6975 Y-5.9096
G01 X1.7113 Y-5.9328
G01 X1.7274 Y-5.9545
G01 X1.7455 Y-5.9745
G01 X1.7655 Y-5.9926
G01 X1.7872 Y-6.0087
G01 X1.8104 Y-6.0225
G01 X1.8348 Y-6.0341
G01 X1.8602 Y-6.0432
G01 X1.8864 Y-6.0497
G01 X1.9130 Y-6.0537
G01 X1.9400 Y-6.0550
G01 X3.1400 Y-6.0550
G01 X3.1670 Y-6.0537
G01 X3.1936 Y-6.0497
G01 X3.2198 Y-6.0432
G01 X3.2452 Y-6.0341
G01 X3.2696 Y-6.0225
G01 X3.2928 Y-6.0087
G01 X3.3145 Y-5.9926
G01 X3.3345 Y-5.9745
G01 X3.3526 Y-5.9545
G01 X3.3687 Y-5.9328
G01 X3.3825 Y-5.9096
G01 X3.3941 Y-5.8852
G01 X3.4032 Y-5.8598
G01 X3.4097 Y-5.8336
G01 X3.4137 Y-5.8070
G01 X3.4150 Y-5.7800
G01 X3.4150 Y-5.6051
G01 X3.5450 Y-5.6051
G01 X3.5450 Y-6.2900
G01 X3.5463 Y-6.3170
G01 X3.5503 Y-6.3436
G01 X3.5568 Y-6.3698
G01 X3.5659 Y-6.3952
G01 X3.5775 Y-6.4196
G01 X3.5913 Y-6.4428
G01 X3.6074 Y-6.4645
G01 X3.6255 Y-6.4845
G01 X3.6455 Y-6.5026
G01 X3.6672 Y-6.5187
G01 X3.6904 Y-6.5325
G01 X3.7148 Y-6.5441
G01 X3.7402 Y-6.5532
G01 X3.7664 Y-6.5597
G01 X3.7930 Y-6.5637
G01 X3.8200 Y-6.5650
G01 X5.0700 Y-6.5650
G01 X5.0970 Y-6.5637
G01 X5.1236 Y-6.5597
G01 X5.1498 Y-6.5532
G01 X5.1752 Y-6.5441
G01 X5.1996 Y-6.5325
G01 X5.2228 Y-6.5187
G01 X5.2445 Y-6.5026
G01 X5.2645 Y-6.4845
G01 X5.2826 Y-6.4645
G01 X5.2987 Y-6.4428
G01 X5.3125 Y-6.4196
G01 X5.3241 Y-6.3952
G01 X5.3332 Y-6.3698
G01 X5.3397 Y-6.3436
G01 X5.3437 Y-6.3170
G01 X5.3450 Y-6.2900
G01 X5.3450 Y-3.2900
G00 Z2.0000
G00 X12.3690 Y-2.9731
G01 F60.00
G01 Z-0.1000
G01 F120.00
G01 X12.3618 Y-2.9932
G01 X12.3553 Y-3.0194
G01 X12.3513 Y-3.0460
G01 X12.3500 Y-3.0730
G01 X12.3500 Y-4.2730
G01 X12.3513 Y-4.3000
G01 X12.3553 Y-4.3266
G01 X12.3618 Y-4.3528
G01 X12.3709 Y-4.3782
G01 X12.3825 Y-4.4026
G01 X12.3963 Y-4.4258
G01 X12.4124 Y-4.4475
G01 X12.4305 Y-4.4675
G01 X12.4505 Y-4.4856
G01 X12.4722 Y-4.5017
G01 X12.4954 Y-4.5155
G01 X12.5198 Y-4.5271
G01 X12.5452 Y-4.5362
G01 X12.5714 Y-4.5427
G01 X12.5980 Y-4.5467
G01 X12.6250 Y-4.5480
G01 X13.2750 Y-4.5480
G01 X13.3020 Y-4.5467
G01 X13.3286 Y-4.5427
G01 X13.3548 Y-4.5362
G01 X13.3802 Y-4.5271
G01 X13.4046 Y-4.5155
G01 X13.4278 Y-4.5017
G01 X13.4495 Y-4.4856
G01 X13.4695 Y-4.4675
G01 X13.4876 Y-4.4475
G01 X13.5037 Y-4.4258
G01 X13.5175 Y-4.4026
G01 X13.5291 Y-4.3782
G01 X13.5382 Y-4.3528
G01 X13.5447 Y-4.3266
G01 X13.5487 Y-4.3000
G01 X13.5500 Y-4.2730
G01 X13.5500 Y-3.0730
G01 X13.5487 Y-3.0460
G01 X13.5447 Y-3.0194
G01 X13.5382 Y-2.9932
G01 X13.5317 Y-2.9750
G01 X13.6000 Y-2.9750
G01 X13.6270 Y-2.9737
G01 X13.6536 Y-2.9697
G01 X13.6798 Y-2.9632
G01 X13.7052 Y-2.9541
G01 X13.7296 Y-2.9425
G01 X13.7528 Y-2.9287
G01 X13.7745 Y-2.9126
G01 X13.7945 Y-2.8945
G01 X13.8126 Y-2.8745
G01 X13.8287 Y-2.8528
G01 X13.8425 Y-2.8296
G01 X13.8541 Y-2.8052
G01 X13.8632 Y-2.7798
G01 X13.8697 Y-2.7536
G01 X13.8737 Y-2.7270
G01 X13.8750 Y-2.7000
G01 X13.8750 Y-1.3000
G01 X13.8737 Y-1.2730
G01 X13.8697 Y-1.2464
G01 X13.8632 Y-1.2202
G01 X13.8541 Y-1.1948
G01 X13.8425 Y-1.1704
G01 X13.8287 Y-1.1472
G01 X13.8126 Y-1.1255
G01 X13.7945 Y-1.1055
G01 X13.7745 Y-1.0874
G01 X13.7528 Y-1.0713
G01 X13.7296 Y-1.0575
G01 X13.7052 Y-1.0459
G01 X13.6798 Y-1.0368
G01 X13.6536 Y-1.0303
G01 X13.6270 Y-1.0263
G01 X13.6000 Y-1.0250
G01 X13.4751 Y-1.0250
G01 X13.4751 Y-0.9070
G01 X13.7000 Y-0.9070
G01 X13.7270 Y-0.9057
G01 X13.7536 Y-0.9017
G01 X13.7798 Y-0.8952
G01 X13.8052 Y-0.8861
G01 X13.8296 Y-0.8745
G01 X13.8528 Y-0.8607
G01 X13.8745 Y-0.8446
G01 X13.8945 Y-0.8265
G01 X13.9126 Y-0.8065
G01 X13.9287 Y-0.7848
G01 X13.9425 Y-0.7616
G01 X13.9541 Y-0.7372
G01 X13.9632 Y-0.7118
G01 X13.9697 Y-0.6856
G01 X13.9737 Y-0.6590
G01 X13.9750 Y-0.6320
G01 X13.9750 Y0.5680
G01 X13.9737 Y0.5950
G01 X13.9697 Y0.6216
G01 X13.9632 Y0.6478
G01 X13.9541 Y0.6732
G01 X13.9425 Y0.6976
G01 X13.9287 Y0.7208
G01 X13.9126 Y0.7425
G01 X13.8945 Y0.7625
G01 X13.8745 Y0.7806
G01 X13.8528 Y0.7967
G01 X13.8296 Y0.8105
G01 X13.8052 Y0.8221
G01 X13.7798 Y0.8312
G01 X13.7536 Y0.8377
G01 X13.7270 Y0.8417
G01 X13.7000 Y0.8430
G01 X12.3000 Y0.8430
G01 X12.2730 Y0.8417
G01 X12.2464 Y0.8377
G01 X12.2202 Y0.8312
G01 X12.1948 Y0.8221
G01 X12.1704 Y0.8105
G01 X12.1472 Y0.7967
G01 X12.1255 Y0.7806
G01 X12.1055 Y0.7625
G01 X12.0874 Y0.7425
G01 X12.0713 Y0.7208
G01 X12.0575 Y0.6976
G01 X12.0459 Y0.6732
G01 X12.0368 Y0.6478
G01 X12.0303 Y0.6216
G01 X12.0263 Y0.5950
G01 X12.0250 Y0.5680
G01 X12.0250 Y-0.6320
G01 X12.0263 Y-0.6590
G01 X12.0303 Y-0.6856
G01 X12.0368 Y-0.7118
G01 X12.0459 Y-0.7372
G01 X12.0575 Y-0.7616
G01 X12.0713 Y-0.7848
G01 X12.0874 Y-0.8065
G01 X12.1055 Y-0.8265
G01 X12.1255 Y-0.8446
G01 X12.1472 Y-0.8607
G01 X12.1704 Y-0.8745
G01 X12.1948 Y-0.8861
G01 X12.2202 Y-0.8952
G01 X12.2464 Y-0.9017
G01 X12.2730 Y-0.9057
G01 X12.3000 Y-0.9070
G01 X12.4249 Y-0.9070
G01 X12.4249 Y-1.0250
G01 X12.4000 Y-1.0250
G01 X12.3730 Y-1.0263
G01 X12.3464 Y-1.0303
G01 X12.3202 Y-1.0368
G01 X12.2948 Y-1.0459
G01 X12.2704 Y-1.0575
G01 X12.2472 Y-1.0713
G01 X12.2255 Y-1.0874
G01 X12.2055 Y-1.1055
G01 X12.1874 Y-1.1255
G01 X12.1713 Y-1.1472
G01 X12.1575 Y-1.1704
G01 X12.1459 Y-1.1948
G01 X12.1368 Y-1.2202
G01 X12.1303 Y-1.2464
G01 X12.1263 Y-1.2730
G01 X12.1250 Y-1.3000
G01 X12.1250 Y-2.7000
G01 X12.1263 Y-2.7270
G01 X12.1303 Y-2.7536
G01 X12.1368 Y-2.7798
G01 X12.1459 Y-2.8052
G01 X12.1575 Y-2.8296
G01 X12.1713 Y-2.8528
G01 X12.1874 Y-2.8745
G01 X12.2055 Y-2.8945
G01 X12.2255 Y-2.9126
G01 X12.2472 Y-2.9287
G01 X12.2704 Y-2.9425
G01 X12.2948 Y-2.9541
G01 X12.3202 Y-2.9632
G01 X12.3464 Y-2.9697
G01 X12.3690 Y-2.9731
G00 Z2.0000
G00 X11.4749 Y-7.1152
G01 F60.00
G01 Z-0.1000
G01 F120.00
G01 X11.4749 Y-8.3122
G01 X10.0845 Y-9.7025
G01 X10.0664 Y-9.7225
G01 X10.0503 Y-9.7442
G01 X10.0365 Y-9.7674
G01 X10.0249 Y-9.7918
G01 X10.0158 Y-9.8172
G01 X10.0093 Y-9.8434
G01 X10.0053 Y-9.8700
G01 X10.0040 Y-9.8970
G01 X10.0053 Y-9.9240
G01 X10.0093 Y-9.9506
G01 X10.0158 Y-9.9768
G01 X10.0249 Y-10.0022
G01 X10.0365 Y-10.0266
G01 X10.0520 Y-10.0520
G01 X10.0266 Y-10.0365
G01 X10.0022 Y-10.0249
G01 X9.9768 Y-10.0158
G01 X9.9506 Y-10.0093
G01 X9.9240 Y-10.0053
G01 X9.8970 Y-10.0040
G01 X9.8700 Y-10.0053
G01 X9.8434 Y-10.0093
G01 X9.8172 Y-10.0158
G01 X9.7918 Y-10.0249
G01 X9.7674 Y-10.0365
G01 X9.7442 Y-10.0503
G01 X9.7225 Y-10.0664
G01 X9.7025 Y-10.0845
G01 X9.3669 Y-10.4202
G01 X7.5101 Y-8.5635
G01 X7.5101 Y-6.5650
G01 X7.6100 Y-6.5650
G01 X7.6370 Y-6.5637
G01 X7.6636 Y-6.5597
G01 X7.6898 Y-6.5532
G01 X7.7152 Y-6.5441
G01 X7.7396 Y-6.5325
G01 X7.7628 Y-6.5187
G01 X7.7845 Y-6.5026
G01 X7.8045 Y-6.4845
G01 X7.8226 Y-6.4645
G01 X7.8387 Y-6.4428
G01 X7.8525 Y-6.4196
G01 X7.8641 Y-6.3952
G01 X7.8732 Y-6.3698
G01 X7.8797 Y-6.3436
G01 X7.8837 Y-6.3170
G01 X7.8850 Y-6.2900
G01 X7.8850 Y-3.2900
G01 X7.8837 Y-3.2630
G01 X7.8797 Y-3.2364
G01 X7.8732 Y-3.2102
G01 X7.8641 Y-3.1848
G01 X7.8525 Y-3.1604
G01 X7.8387 Y-3.1372
G01 X7.8226 Y-3.1155
G01 X7.8045 Y-3.0955
G01 X7.7845 Y-3.0774
G01 X7.7628 Y-3.0613
G01 X7.7396 Y-3.0475
G01 X7.7152 Y-3.0359
G01 X7.6898 Y-3.0268
G01 X7.6636 Y-3.0203
G01 X7.6370 Y-3.0163
G01 X7.6100 Y-3.0150
G01 X6.3600 Y-3.0150
G01 X6.3330 Y-3.0163
G01 X6.3064 Y-3.0203
G01 X6.2802 Y-3.0268
G01 X6.2548 Y-3.0359
G01 X6.2304 Y-3.0475
G01 X6.2072 Y-3.0613
G01 X6.1855 Y-3.0774
G01 X6.1655 Y-3.0955
G01 X6.1474 Y-3.1155
G01 X6.1313 Y-3.1372
G01 X6.1175 Y-3.1604
G01 X6.1059 Y-3.1848
G01 X6.0968 Y-3.2102
G01 X6.0903 Y-3.2364
G01 X6.0863 Y-3.2630
G01 X6.0850 Y-3.2900
G01 X6.0850 Y-6.2900
G01 X6.0863 Y-6.3170
G01 X6.0903 Y-6.3436
G01 X6.0968 Y-6.3698
G01 X6.1059 Y-6.3952
G01 X6.1175 Y-6.4196
G01 X6.1313 Y-6.4428
G01 X6.1474 Y-6.4645
G01 X6.1655 Y-6.4845
G01 X6.1855 Y-6.5026
G01 X6.2072 Y-6.5187
G01 X6.2304 Y-6.5325
G01 X6.2548 Y-6.5441
G01 X6.2802 Y-6.5532
G01 X6.3064 Y-6.5597
G01 X6.3330 Y-6.5637
G01 X6.3600 Y-6.5650
G01 X6.4599 Y-6.5650
G01 X6.4599 Y-8.7810
G01 X6.4614 Y-8.8190
G01 X6.4641 Y-8.8459
G01 X6.4677 Y-8.8701
G01 X6.4729 Y-8.8966
G01 X6.4789 Y-8.9204
G01 X6.4867 Y-8.9463
G01 X6.4950 Y-8.9694
G01 X6.5053 Y-8.9943
G01 X6.5158 Y-9.0165
G01 X6.5285 Y-9.0403
G01 X6.5412 Y-9.0613
G01 X6.5561 Y-9.0838
G01 X6.5708 Y-9.1035
G01 X6.5879 Y-9.1244
G01 X6.6137 Y-9.1523
G01 X8.6242 Y-11.1629
G01 X8.2885 Y-11.4985
G01 X8.2704 Y-11.5185
G01 X8.2543 Y-11.5402
G01 X8.2405 Y-11.5634
G01 X8.2289 Y-11.5878
G01 X8.2198 Y-11.6132
G01 X8.2133 Y-11.6394
G01 X8.2093 Y-11.6660
G01 X8.2080 Y-11.6930
G01 X8.2093 Y-11.7200
G01 X8.2133 Y-11.7466
G01 X8.2198 Y-11.7728
G01 X8.2289 Y-11.7982
G01 X8.2405 Y-11.8226
G01 X8.2543 Y-11.8458
G01 X8.2704 Y-11.8675
G01 X8.2885 Y-11.8875
G01 X9.7025 Y-13.3015
G01 X9.7225 Y-13.3196
G01 X9.7442 Y-13.3357
G01 X9.7674 Y-13.3495
G01 X9.7918 Y-13.3611
G01 X9.8172 Y-13.3702
G01 X9.8434 Y-13.3767
G01 X9.8700 Y-13.3807
G01 X9.8970 Y-13.3820
G01 X9.9240 Y-13.3807
G01 X9.9506 Y-13.3767
G01 X9.9768 Y-13.3702
G01 X10.0022 Y-13.3611
G01 X10.0266 Y-13.3495
G01 X10.0498 Y-13.3357
G01 X10.0715 Y-13.3196
G01 X10.0915 Y-13.3015
G01 X11.5055 Y-11.8875
G01 X11.5236 Y-11.8675
G01 X11.5397 Y-11.8458
G01 X11.5535 Y-11.8226
G01 X11.5651 Y-11.7982
G01 X11.5742 Y-11.7728
G01 X11.5807 Y-11.7466
G01 X11.5847 Y-11.7200
G01 X11.5860 Y-11.6930
G01 X11.5847 Y-11.6660
G01 X11.5807 Y-11.6394
G01 X11.5742 Y-11.6132
G01 X11.5651 Y-11.5878
G01 X11.5535 Y-11.5634
G01 X11.5380 Y-11.5380
G01 X11.5634 Y-11.5535
G01 X11.5878 Y-11.5651
G01 X11.6132 Y-11.5742
G01 X11.6394 Y-11.5807
G01 X11.6660 Y-11.5847
G01 X11.6930 Y-11.5860
G01 X11.7200 Y-11.5847
G01 X11.7466 Y-11.5807
G01 X11.7728 Y-11.5742
G01 X11.7982 Y-11.5651
G01 X11.8226 Y-11.5535
G01 X11.8458 Y-11.5397
G01 X11.8675 Y-11.5236
G01 X11.8875 Y-11.5055
G01 X13.3015 Y-10.0915
G01 X13.3196 Y-10.0715
G01 X13.3357 Y-10.0498
G01 X13.3495 Y-10.0266
G01 X13.3611 Y-10.0022
G01 X13.3702 Y-9.9768
G01 X13.3767 Y-9.9506
G01 X13.3807 Y-9.9240
G01 X13.3820 Y-9.8970
G01 X13.3807 Y-9.8700
G01 X13.3767 Y-9.8434
G01 X13.3702 Y-9.8172
G01 X13.3611 Y-9.7918
G01 X13.3495 Y-9.7674
G01 X13.3357 Y-9.7442
G01 X13.3196 Y-9.7225
G01 X13.3015 Y-9.7025
G01 X12.5251 Y-8.9262
G01 X12.5251 Y-7.1152
G01 X12.5376 Y-7.1015
G01 X12.5537 Y-7.0798
G01 X12.5675 Y-7.0566
G01 X12.5791 Y-7.0322
G01 X12.5882 Y-7.0068
G01 X12.5947 Y-6.9806
G01 X12.5987 Y-6.9540
G01 X12.6000 Y-6.9270
G01 X12.6000 Y-5.7270
G01 X12.5987 Y-5.7000
G01 X12.5947 Y-5.6734
G01 X12.5882 Y-5.6472
G01 X12.5791 Y-5.6218
G01 X12.5675 Y-5.5974
G01 X12.5537 Y-5.5742
G01 X12.5376 Y-5.5525
G01 X12.5195 Y-5.5325
G01 X12.4995 Y-5.5144
G01 X12.4778 Y-5.4983
G01 X12.4546 Y-5.4845
G01 X12.4302 Y-5.4729
G01 X12.4048 Y-5.4638
G01 X12.3786 Y-5.4573
G01 X12.3520 Y-5.4533
G01 X12.3250 Y-5.4520
G01 X11.6750 Y-5.4520
G01 X11.6480 Y-5.4533
G01 X11.6214 Y-5.4573
G01 X11.5952 Y-5.4638
G01 X11.5698 Y-5.4729
G01 X11.5454 Y-5.4845
G01 X11.5222 Y-5.4983
G01 X11.5005 Y-5.5144
G01 X11.4805 Y-5.5325
G01 X11.4624 Y-5.5525
G01 X11.4463 Y-5.5742
G01 X11.4325 Y-5.5974
G01 X11.4209 Y-5.6218
G01 X11.4118 Y-5.6472
G01 X11.4053 Y-5.6734
G01 X11.4013 Y-5.7000
G01 X11.4000 Y-5.7270
G01 X11.4000 Y-6.9270
G01 X11.4013 Y-6.9540
G01 X11.4053 Y-6.9806
G01 X11.4118 Y-7.0068
G01 X11.4209 Y-7.0322
G01 X11.4325 Y-7.0566
G01 X11.4463 Y-7.0798
G01 X11.4624 Y-7.1015
G01 X11.4749 Y-7.1152
G00 Z2.0000
G00 X15.6003 Y0.0135
G01 F60.00
G01 Z-0.1000
G01 F120.00
G01 X15.6003 Y-0.0135
G01 X15.6076 Y-0.1605
G01 X15.6102 Y-0.1874
G01 X15.6318 Y-0.3330
G01 X15.6371 Y-0.3595
G01 X15.6728 Y-0.5022
G01 X15.6807 Y-0.5281
G01 X15.7303 Y-0.6667
G01 X15.7406 Y-0.6916
G01 X15.8035 Y-0.8247
G01 X15.8162 Y-0.8485
G01 X15.8919 Y-0.9747
G01 X15.9069 Y-0.9972
G01 X15.9946 Y-1.1154
G01 X16.0117 Y-1.1363
G01 X16.1106 Y-1.2453
G01 X16.1297 Y-1.2644
G01 X16.2387 Y-1.3633
G01 X16.2596 Y-1.3804
G01 X16.3778 Y-1.4681
G01 X16.4003 Y-1.4831
G01 X16.5265 Y-1.5588
G01 X16.5503 Y-1.5715
G01 X16.6834 Y-1.6344
G01 X16.7083 Y-1.6447
G01 X16.8469 Y-1.6943
G01 X16.8728 Y-1.7022
G01 X17.0155 Y-1.7379
G01 X17.0420 Y-1.7432
G01 X17.1876 Y-1.7648
G01 X17.2145 Y-1.7674
G01 X17.3615 Y-1.7747
G01 X17.3885 Y-1.7747
G01 X17.5355 Y-1.7674
G01 X17.5624 Y-1.7648
G01 X17.7080 Y-1.7432
G01 X17.7345 Y-1.7379
G01 X17.8772 Y-1.7022
G01 X17.9031 Y-1.6943
G01 X18.0417 Y-1.6447
G01 X18.0666 Y-1.6344
G01 X18.1997 Y-1.5715
G01 X18.2235 Y-1.5588
G01 X18.3497 Y-1.4831
G01 X18.3722 Y-1.4681
G01 X18.4904 Y-1.3804
G01 X18.5113 Y-1.3633
G01 X18.6203 Y-1.2644
G01 X18.6394 Y-1.2453
G01 X18.7383 Y-1.1363
G01 X18.7554 Y-1.1154
G01 X18.8431 Y-0.9972
G01 X18.8581 Y-0.9747
G01 X18.9338 Y-0.8485
G01 X18.9465 Y-0.8247
G01 X19.0094 Y-0.6916
G01 X19.0197 Y-0.6667
G01 X19.0693 Y-0.5281
G01 X19.0772 Y-0.5022
G01 X19.1129 Y-0.3595
G01 X19.1182 Y-0.3330
G01 X19.1398 Y-0.1874
G01 X19.1424 Y-0.1605
G01 X19.1497 Y-0.0135
G01 X19.1497 Y0.0135
G01 X19.1424 Y0.1605
G01 X19.1398 Y0.1874
G01 X19.1182 Y0.3330
G01 X19.1129 Y0.3595
G01 X19.0772 Y0.5022
G01 X19.0693 Y0.5281
G01 X19.0197 Y0.6667
G01 X19.0094 Y0.6916
G01 X18.9465 Y0.8247
G01 X18.9338 Y0.8485
G01 X18.8581 Y0.9747
G01 X18.8431 Y0.9972
G01 X18.7554 Y1.1154
G01 X18.7383 Y1.1363
G01 X18.6394 Y1.2453
G01 X18.6203 Y1.2644
G01 X18.5113 Y1.3633
G01 X18.4904 Y1.3804
G01 X18.3722 Y1.4681
G01 X18.3497 Y1.4831
G01 X18.2235 Y1.5588
G01 X18.1997 Y1.5715
G01 X18.0666 Y1.6344
G01 X18.0417 Y1.6447
G01 X17.9031 Y1.6943
G01 X17.8772 Y1.7022
G01 X17.7345 Y1.7379
G01 X17.7080 Y1.7432
G01 X17.5624 Y1.7648
G01 X17.5355 Y1.7674
G01 X17.3885 Y1.7747
G01 X17.3615 Y1.7747
G01 X17.2145 Y1.7674
G01 X17.1876 Y1.7648
G01 X17.0420 Y1.7432
G01 X17.0155 Y1.7379
G01 X16.8728 Y1.7022
G01 X16.8469 Y1.6943
G01 X16.7083 Y1.6447
G01 X16.6834 Y1.6344
G01 X16.5503 Y1.5715
G01 X16.5265 Y1.5588
G01 X16.4003 Y1.4831
G01 X16.3778 Y1.4681
G01 X16.2596 Y1.3804
G01 X16.2387 Y1.3633
G01 X16.1297 Y1.2644
G01 X16.1106 Y1.2453
G01 X16.0117 Y1.1363
G01 X15.9946 Y1.1154
G01 X15.9069 Y0.9972
G01 X15.8919 Y0.9747
G01 X15.8162 Y0.8485
G01 X15.8035 Y0.8247
G01 X15.7406 Y0.6916
G01 X15.7303 Y0.6667
G01 X15.6807 Y0.5281
G01 X15.6728 Y0.5022
G01 X15.6371 Y0.3595
G01 X15.6318 Y0.3330
G01 X15.6102 Y0.1874
G01 X15.6076 Y0.1605
G01 X15.6003 Y0.0135
G00 Z2.0000
G00 X-10.1600 Y-3.7641
G01 F60.00
G01 Z-0.1000
G01 F120.00
G01 X-10.1428 Y-3.7513
G01 X-10.1196 Y-3.7375
G01 X-10.0952 Y-3.7259
G01 X-10.0698 Y-3.7168
G01 X-10.0436 Y-3.7103
G01 X-10.0170 Y-3.7063
G01 X-9.9900 Y-3.7050
G01 X-9.4151 Y-3.7050
G01 X-9.4151 Y-2.2450
G01 X-9.9980 Y-2.2450
G01 X-10.0250 Y-2.2437
G01 X-10.0516 Y-2.2397
G01 X-10.0778 Y-2.2332
G01 X-10.1032 Y-2.2241
G01 X-10.1276 Y-2.2125
G01 X-10.1508 Y-2.1987
G01 X-10.1725 Y-2.1826
G01 X-10.1925 Y-2.1645
G01 X-10.2106 Y-2.1445
G01 X-10.2267 Y-2.1228
G01 X-10.2405 Y-2.0996
G01 X-10.2521 Y-2.0752
G01 X-10.2612 Y-2.0498
G01 X-10.2677 Y-2.0236
G01 X-10.2717 Y-1.9970
G01 X-10.2730 Y-1.9700
G01 X-10.2730 Y-0.5700
G01 X-10.2717 Y-0.5430
G01 X-10.2677 Y-0.5164
G01 X-10.2612 Y-0.4902
G01 X-10.2521 Y-0.4648
G01 X-10.2405 Y-0.4404
G01 X-10.2267 Y-0.4172
G01 X-10.2106 Y-0.3955
G01 X-10.1925 Y-0.3755
G01 X-10.1725 Y-0.3574
G01 X-10.1508 Y-0.3413
G01 X-10.1276 Y-0.3275
G01 X-10.1032 Y-0.3159
G01 X-10.0778 Y-0.3068
G01 X-10.0516 Y-0.3003
G01 X-10.0250 Y-0.2963
G01 X-9.9980 Y-0.2950
G01 X-9.4151 Y-0.2950
G01 X-9.4151 Y-0.0000
G01 X-9.4136 Y0.0380
G01 X-9.4109 Y0.0649
G01 X-9.4073 Y0.0891
G01 X-9.4021 Y0.1156
G01 X-9.3961 Y0.1394
G01 X-9.3883 Y0.1653
G01 X-9.3800 Y0.1884
G01 X-9.3697 Y0.2133
G01 X-9.3592 Y0.2355
G01 X-9.3465 Y0.2593
G01 X-9.3338 Y0.2803
G01 X-9.3189 Y0.3028
G01 X-9.3042 Y0.3225
G01 X-9.2871 Y0.3434
G01 X-9.2613 Y0.3713
G01 X-7.4956 Y2.1370
G01 X-9.0084 Y2.1370
G01 X-10.9049 Y0.2405
G01 X-10.9049 Y-0.2950
G01 X-10.8300 Y-0.2950
G01 X-10.8030 Y-0.2963
G01 X-10.7764 Y-0.3003
G01 X-10.7502 Y-0.3068
G01 X-10.7248 Y-0.3159
G01 X-10.7004 Y-0.3275
G01 X-10.6772 Y-0.3413
G01 X-10.6555 Y-0.3574
G01 X-10.6355 Y-0.3755
G01 X-10.6174 Y-0.3955
G01 X-10.6013 Y-0.4172
G01 X-10.5875 Y-0.4404
G01 X-10.5759 Y-0.4648
G01 X-10.5668 Y-0.4902
G01 X-10.5603 Y-0.5164
G01 X-10.5563 Y-0.5430
G01 X-10.5550 Y-0.5700
G01 X-10.5550 Y-1.9700
G01 X-10.5563 Y-1.9970
G01 X-10.5603 Y-2.0236
G01 X-10.5668 Y-2.0498
G01 X-10.5759 Y-2.0752
G01 X-10.5875 Y-2.0996
G01 X-10.6013 Y-2.1228
G01 X-10.6174 Y-2.1445
G01 X-10.6355 Y-2.1645
G01 X-10.6555 Y-2.1826
G01 X-10.6772 Y-2.1987
G01 X-10.7004 Y-2.2125
G01 X-10.7248 Y-2.2241
G01 X-10.7502 Y-2.2332
G01 X-10.7764 Y-2.2397
G01 X-10.8030 Y-2.2437
G01 X-10.8300 Y-2.2450
G01 X-10.9049 Y-2.2450
G01 X-10.9049 Y-3.7050
G01 X-10.3300 Y-3.7050
G01 X-10.3030 Y-3.7063
G01 X-10.2764 Y-3.7103
G01 X-10.2502 Y-3.7168
G01 X-10.2248 Y-3.7259
G01 X-10.2004 Y-3.7375
G01 X-10.1772 Y-3.7513
G01 X-10.1600 Y-3.7641
G00 Z2.0000
G00 X-11.5380 Y-11.5380
G01 F60.00
G01 Z-0.1000
G01 F120.00
G01 X-11.5535 Y-11.5634
G01 X-11.5651 Y-11.5878
G01 X-11.5742 Y-11.6132
G01 X-11.5807 Y-11.6394
G01 X-11.5847 Y-11.6660
G01 X-11.5860 Y-11.6930
G01 X-11.5847 Y-11.7200
G01 X-11.5807 Y-11.7466
G01 X-11.5742 Y-11.7728
G01 X-11.5651 Y-11.7982
G01 X-11.5535 Y-11.8226
G01 X-11.5397 Y-11.8458
G01 X-11.5236 Y-11.8675
G01 X-11.5055 Y-11.8875
G01 X-10.0915 Y-13.3015
G01 X-10.0715 Y-13.3196
G01 X-10.0498 Y-13.3357
G01 X-10.0266 Y-13.3495
G01 X-10.0022 Y-13.3611
G01 X-9.9768 Y-13.3702
G01 X-9.9506 Y-13.3767
G01 X-9.9240 Y-13.3807
G01 X-9.8970 Y-13.3820
G01 X-9.8700 Y-13.3807
G01 X-9.8434 Y-13.3767
G01 X-9.8172 Y-13.3702
G01 X-9.7918 Y-13.3611
G01 X-9.7674 Y-13.3495
G01 X-9.7442 Y-13.3357
G01 X-9.7225 Y-13.3196
G01 X-9.7025 Y-13.3015
G01 X-8.2885 Y-11.8875
G01 X-8.2704 Y-11.8675
G01 X-8.2543 Y-11.8458
G01 X-8.2405 Y-11.8226
G01 X-8.2289 Y-11.7982
G01 X-8.2198 Y-11.7728
G01 X-8.2133 Y-11.7466
G01 X-8.2093 Y-11.7200
G01 X-8.2080 Y-11.6930
G01 X-8.2093 Y-11.6660
G01 X-8.2133 Y-11.6394
G01 X-8.2198 Y-11.6132
G01 X-8.2289 Y-11.5878
G01 X-8.2405 Y-11.5634
G01 X-8.2543 Y-11.5402
G01 X-8.2704 Y-11.5185
G01 X-8.2885 Y-11.4985
G01 X-8.6242 Y-11.1629
G01 X-7.9920 Y-10.5306
G01 X-6.0863 Y-12.4363
G01 X-6.0765 Y-12.4456
G01 X-6.0584 Y-12.4621
G01 X-6.0375 Y-12.4792
G01 X-6.0178 Y-12.4939
G01 X-5.9953 Y-12.5088
G01 X-5.9743 Y-12.5215
G01 X-5.9505 Y-12.5342
G01 X-5.9283 Y-12.5447
G01 X-5.9034 Y-12.5550
G01 X-5.8803 Y-12.5633
G01 X-5.8544 Y-12.5711
G01 X-5.8306 Y-12.5771
G01 X-5.8041 Y-12.5823
G01 X-5.7799 Y-12.5859
G01 X-5.7530 Y-12.5886
G01 X-5.7150 Y-12.5901
G01 X3.5450 Y-12.5901
G01 X3.5450 Y-14.4900
G01 X3.5463 Y-14.5170
G01 X3.5503 Y-14.5436
G01 X3.5568 Y-14.5698
G01 X3.5659 Y-14.5952
G01 X3.5775 Y-14.6196
G01 X3.5913 Y-14.6428
G01 X3.6074 Y-14.6645
G01 X3.6255 Y-14.6845
G01 X3.6455 Y-14.7026
G01 X3.6672 Y-14.7187
G01 X3.6904 Y-14.7325
G01 X3.7148 Y-14.7441
G01 X3.7402 Y-14.7532
G01 X3.7664 Y-14.7597
G01 X3.7930 Y-14.7637
G01 X3.8200 Y-14.7650
G01 X5.0700 Y-14.7650
G01 X5.0970 Y-14.7637
G01 X5.1236 Y-14.7597
G01 X5.1498 Y-14.7532
G01 X5.1752 Y-14.7441
G01 X5.1996 Y-14.7325
G01 X5.2228 Y-14.7187
G01 X5.2445 Y-14.7026
G01 X5.2645 Y-14.6845
G01 X5.2826 Y-14.6645
G01 X5.2987 Y-14.6428
G01 X5.3125 Y-14.6196
G01 X5.3241 Y-14.5952
G01 X5.3332 Y-14.5698
G01 X5.3397 Y-14.5436
G01 X5.3437 Y-14.5170
G01 X5.3450 Y-14.4900
G01 X5.3450 Y-11.4900
G01 X5.3437 Y-11.4630
G01 X5.3397 Y-11.4364
G01 X5.3332 Y-11.4102
G01 X5.3241 Y-11.3848
G01 X5.3125 Y-11.3604
G01 X5.2987 Y-11.3372
G01 X5.2826 Y-11.3155
G01 X5.2645 Y-11.2955
G01 X5.2445 Y-11.2774
G01 X5.2228 Y-11.2613
G01 X5.1996 Y-11.2475
G01 X5.1752 Y-11.2359
G01 X5.1498 Y-11.2268
G01 X5.1236 Y-11.2203
G01 X5.0970 Y-11.2163
G01 X5.0700 Y-11.2150
G01 X3.8200 Y-11.2150
G01 X3.7930 Y-11.2163
G01 X3.7664 Y-11.2203
G01 X3.7402 Y-11.2268
G01 X3.7148 Y-11.2359
G01 X3.6904 Y-11.2475
G01 X3.6672 Y-11.2613
G01 X3.6455 Y-11.2774
G01 X3.6255 Y-11.2955
G01 X3.6074 Y-11.3155
G01 X3.5913 Y-11.3372
G01 X3.5775 Y-11.3604
G01 X3.5659 Y-11.3848
G01 X3.5568 Y-11.4102
G01 X3.5503 Y-11.4364
G01 X3.5463 Y-11.4630
G01 X3.5450 Y-11.4900
G01 X3.5450 Y-11.5399
G01 X-5.4975 Y-11.5399
G01 X-8.3649 Y-8.6725
G01 X-8.3649 Y-6.4550
G01 X-7.7900 Y-6.4550
G01 X-7.7630 Y-6.4537
G01 X-7.7364 Y-6.4497
G01 X-7.7102 Y-6.4432
G01 X-7.6848 Y-6.4341
G01 X-7.6604 Y-6.4225
G01 X-7.6372 Y-6.4087
G01 X-7.6200 Y-6.3959
G01 X-7.6028 Y-6.4087
G01 X-7.5796 Y-6.4225
G01 X-7.5552 Y-6.4341
G01 X-7.5298 Y-6.4432
G01 X-7.5036 Y-6.4497
G01 X-7.4770 Y-6.4537
G01 X-7.4500 Y-6.4550
G01 X-6.8751 Y-6.4550
G01 X-6.8751 Y-6.9850
G01 X-6.8736 Y-7.0230
G01 X-6.8709 Y-7.0499
G01 X-6.8673 Y-7.0741
G01 X-6.8621 Y-7.1006
G01 X-6.8561 Y-7.1244
G01 X-6.8483 Y-7.1503
G01 X-6.8400 Y-7.1734
G01 X-6.8297 Y-7.1983
G01 X-6.8192 Y-7.2205
G01 X-6.8065 Y-7.2443
G01 X-6.7938 Y-7.2653
G01 X-6.7789 Y-7.2878
G01 X-6.7642 Y-7.3075
G01 X-6.7471 Y-7.3284
G01 X-6.7213 Y-7.3563
G01 X-4.1813 Y-9.8963
G01 X-4.1534 Y-9.9221
G01 X-4.1325 Y-9.9392
G01 X-4.1128 Y-9.9539
G01 X-4.0903 Y-9.9688
G01 X-4.0693 Y-9.9815
G01 X-4.0455 Y-9.9942
G01 X-4.0233 Y-10.0047
G01 X-3.9984 Y-10.0150
G01 X-3.9753 Y-10.0233
G01 X-3.9494 Y-10.0311
G01 X-3.9256 Y-10.0371
G01 X-3.8991 Y-10.0423
G01 X-3.8749 Y-10.0459
G01 X-3.8480 Y-10.0486
G01 X-3.8100 Y-10.0501
G01 X5.4975 Y-10.0501
G01 X6.4599 Y-11.0125
G01 X6.4599 Y-11.2150
G01 X6.3600 Y-11.2150
G01 X6.3330 Y-11.2163
G01 X6.3064 Y-11.2203
G01 X6.2802 Y-11.2268
G01 X6.2548 Y-11.2359
G01 X6.2304 Y-11.2475
G01 X6.2072 Y-11.2613
G01 X6.1855 Y-11.2774
G01 X6.1655 Y-11.2955
G01 X6.1474 Y-11.3155
G01 X6.1313 Y-11.3372
G01 X6.1175 Y-11.3604
G01 X6.1059 Y-11.3848
G01 X6.0968 Y-11.4102
G01 X6.0903 Y-11.4364
G01 X6.0863 Y-11.4630
G01 X6.0850 Y-11.4900
G01 X6.0850 Y-14.4900
G01 X6.0863 Y-14.5170
G01 X6.0903 Y-14.5436
G01 X6.0968 Y-14.5698
G01 X6.1059 Y-14.5952
G01 X6.1175 Y-14.6196
G01 X6.1313 Y-14.6428
G01 X6.1474 Y-14.6645
G01 X6.1655 Y-14.6845
G01 X6.1855 Y-14.7026
G01 X6.2072 Y-14.7187
G01 X6.2304 Y-14.7325
G01 X6.2548 Y-14.7441
G01 X6.2802 Y-14.7532
G01 X6.3064 Y-14.7597
G01 X6.3330 Y-14.7637
G01 X6.3600 Y-14.7650
G01 X7.6100 Y-14.7650
G01 X7.6370 Y-14.7637
G01 X7.6636 Y-14.7597
G01 X7.6898 Y-14.7532
G01 X7.7152 Y-14.7441
G01 X7.7396 Y-14.7325
G01 X7.7628 Y-14.7187
G01 X7.7845 Y-14.7026
G01 X7.8045 Y-14.6845
G01 X7.8226 Y-14.6645
G01 X7.8387 Y-14.6428
G01 X7.8525 Y-14.6196
G01 X7.8641 Y-14.5952
G01 X7.8732 Y-14.5698
G01 X7.8797 Y-14.5436
G01 X7.8837 Y-14.5170
G01 X7.8850 Y-14.4900
G01 X7.8850 Y-11.4900
G01 X7.8837 Y-11.4630
G01 X7.8797 Y-11.4364
G01 X7.8732 Y-11.4102
G01 X7.8641 Y-11.3848
G01 X7.8525 Y-11.3604
G01 X7.8387 Y-11.3372
G01 X7.8226 Y-11.3155
G01 X7.8045 Y-11.2955
G01 X7.7845 Y-11.2774
G01 X7.7628 Y-11.2613
G01 X7.7396 Y-11.2475
G01 X7.7152 Y-11.2359
G01 X7.6898 Y-11.2268
G01 X7.6636 Y-11.2203
G01 X7.6370 Y-11.2163
G01 X7.6100 Y-11.2150
G01 X7.5101 Y-11.2150
G01 X7.5101 Y-10.7950
G01 X7.5086 Y-10.7570
G01 X7.5059 Y-10.7301
G01 X7.5023 Y-10.7059
G01 X7.4971 Y-10.6794
G01 X7.4911 Y-10.6556
G01 X7.4833 Y-10.6297
G01 X7.4750 Y-10.6066
G01 X7.4647 Y-10.5817
G01 X7.4542 Y-10.5595
G01 X7.4415 Y-10.5357
G01 X7.4288 Y-10.5147
G01 X7.4139 Y-10.4922
G01 X7.3992 Y-10.4725
G01 X7.3821 Y-10.4516
G01 X7.3563 Y-10.4237
G01 X6.0863 Y-9.1537
G01 X6.0584 Y-9.1279
G01 X6.0375 Y-9.1108
G01 X6.0178 Y-9.0961
G01 X5.9953 Y-9.0812
G01 X5.9743 Y-9.0685
G01 X5.9505 Y-9.0558
G01 X5.9283 Y-9.0453
G01 X5.9034 Y-9.0350
G01 X5.8803 Y-9.0267
G01 X5.8544 Y-9.0189
G01 X5.8306 Y-9.0129
G01 X5.8041 Y-9.0077
G01 X5.7799 Y-9.0041
G01 X5.7530 Y-9.0014
G01 X5.7150 Y-8.9999
G01 X-3.5925 Y-8.9999
G01 X-5.8249 Y-6.7675
G01 X-5.8249 Y-6.4550
G01 X-5.2500 Y-6.4550
G01 X-5.2230 Y-6.4537
G01 X-5.1964 Y-6.4497
G01 X-5.1702 Y-6.4432
G01 X-5.1448 Y-6.4341
G01 X-5.1204 Y-6.4225
G01 X-5.0972 Y-6.4087
G01 X-5.0800 Y-6.3959
G01 X-5.0628 Y-6.4087
G01 X-5.0396 Y-6.4225
G01 X-5.0152 Y-6.4341
G01 X-4.9898 Y-6.4432
G01 X-4.9636 Y-6.4497
G01 X-4.9370 Y-6.4537
G01 X-4.9100 Y-6.4550
G01 X-2.7100 Y-6.4550
G01 X-2.6830 Y-6.4537
G01 X-2.6564 Y-6.4497
G01 X-2.6302 Y-6.4432
G01 X-2.6048 Y-6.4341
G01 X-2.5804 Y-6.4225
G01 X-2.5572 Y-6.4087
G01 X-2.5355 Y-6.3926
G01 X-2.5155 Y-6.3745
G01 X-2.4974 Y-6.3545
G01 X-2.4813 Y-6.3328
G01 X-2.4675 Y-6.3096
G01 X-2.4559 Y-6.2852
G01 X-2.4468 Y-6.2598
G01 X-2.4403 Y-6.2336
G01 X-2.4363 Y-6.2070
G01 X-2.4350 Y-6.1800
G01 X-2.4350 Y-5.6051
G01 X-0.3670 Y-5.6051
G01 X-0.3670 Y-5.7800
G01 X-0.3657 Y-5.8070
G01 X-0.3617 Y-5.8336
G01 X-0.3552 Y-5.8598
G01 X-0.3461 Y-5.8852
G01 X-0.3345 Y-5.9096
G01 X-0.3207 Y-5.9328
G01 X-0.3046 Y-5.9545
G01 X-0.2865 Y-5.9745
G01 X-0.2665 Y-5.9926
G01 X-0.2448 Y-6.0087
G01 X-0.2216 Y-6.0225
G01 X-0.1972 Y-6.0341
G01 X-0.1718 Y-6.0432
G01 X-0.1456 Y-6.0497
G01 X-0.1190 Y-6.0537
G01 X-0.0920 Y-6.0550
G01 X1.1080 Y-6.0550
G01 X1.1350 Y-6.0537
G01 X1.1616 Y-6.0497
G01 X1.1878 Y-6.0432
G01 X1.2132 Y-6.0341
G01 X1.2376 Y-6.0225
G01 X1.2608 Y-6.0087
G01 X1.2825 Y-5.9926
G01 X1.3025 Y-5.9745
G01 X1.3206 Y-5.9545
G01 X1.3367 Y-5.9328
G01 X1.3505 Y-5.9096
G01 X1.3621 Y-5.8852
G01 X1.3712 Y-5.8598
G01 X1.3777 Y-5.8336
G01 X1.3817 Y-5.8070
G01 X1.3830 Y-5.7800
G01 X1.3830 Y-4.3800
G01 X1.3817 Y-4.3530
G01 X1.3777 Y-4.3264
G01 X1.3712 Y-4.3002
G01 X1.3621 Y-4.2748
G01 X1.3505 Y-4.2504
G01 X1.3367 Y-4.2272
G01 X1.3206 Y-4.2055
G01 X1.3025 Y-4.1855
G01 X1.2825 Y-4.1674
G01 X1.2608 Y-4.1513
G01 X1.2376 Y-4.1375
G01 X1.2132 Y-4.1259
G01 X1.1878 Y-4.1168
G01 X1.1616 Y-4.1103
G01 X1.1350 Y-4.1063
G01 X1.1080 Y-4.1050
G01 X1.0826 Y-4.1050
G01 X2.7575 Y-2.4301
G01 X4.4450 Y-2.4301
G01 X4.4585 Y-2.4298
G01 X4.4830 Y-2.4286
G01 X4.5099 Y-2.4259
G01 X4.5341 Y-2.4223
G01 X4.5606 Y-2.4171
G01 X4.5844 Y-2.4111
G01 X4.6103 Y-2.4033
G01 X4.6334 Y-2.3950
G01 X4.6583 Y-2.3847
G01 X4.6805 Y-2.3742
G01 X4.7043 Y-2.3615
G01 X4.7253 Y-2.3488
G01 X4.7478 Y-2.3339
G01 X4.7675 Y-2.3192
G01 X4.7884 Y-2.3021
G01 X4.8163 Y-2.2763
G01 X6.7213 Y-0.3713
G01 X6.7471 Y-0.3434
G01 X6.7642 Y-0.3225
G01 X6.7789 Y-0.3028
G01 X6.7938 Y-0.2803
G01 X6.8065 Y-0.2593
G01 X6.8192 Y-0.2355
G01 X6.8297 Y-0.2133
G01 X6.8400 Y-0.1884
G01 X6.8483 Y-0.1653
G01 X6.8561 Y-0.1394
G01 X6.8621 Y-0.1156
G01 X6.8673 Y-0.0891
G01 X6.8709 Y-0.0649
G01 X6.8736 Y-0.0380
G01 X6.8751 Y0.0000
G01 X6.8751 Y0.2950
G01 X6.9500 Y0.2950
G01 X6.9770 Y0.2963
G01 X7.0036 Y0.3003
G01 X7.0298 Y0.3068
G01 X7.0552 Y0.3159
G01 X7.0796 Y0.3275
G01 X7.1028 Y0.3413
G01 X7.1245 Y0.3574
G01 X7.1445 Y0.3755
G01 X7.1626 Y0.3955
G01 X7.1787 Y0.4172
G01 X7.1925 Y0.4404
G01 X7.2041 Y0.4648
G01 X7.2132 Y0.4902
G01 X7.2197 Y0.5164
G01 X7.2237 Y0.5430
G01 X7.2250 Y0.5700
G01 X7.2250 Y1.9700
G01 X7.2237 Y1.9970
G01 X7.2197 Y2.0236
G01 X7.2132 Y2.0498
G01 X7.2041 Y2.0752
G01 X7.1925 Y2.0996
G01 X7.1787 Y2.1228
G01 X7.1681 Y2.1370
G01 X7.7640 Y2.1370
G01 X7.7910 Y2.1383
G01 X7.8176 Y2.1423
G01 X7.8438 Y2.1488
G01 X7.8692 Y2.1579
G01 X7.8936 Y2.1695
G01 X7.9168 Y2.1833
G01 X7.9385 Y2.1994
G01 X7.9585 Y2.2175
G01 X7.9766 Y2.2375
G01 X7.9927 Y2.2592
G01 X8.0065 Y2.2824
G01 X8.0181 Y2.3068
G01 X8.0272 Y2.3322
G01 X8.0337 Y2.3584
G01 X8.0377 Y2.3850
G01 X8.0390 Y2.4120
G01 X8.0390 Y4.6120
G01 X8.0377 Y4.6390
G01 X8.0337 Y4.6656
G01 X8.0272 Y4.6918
G01 X8.0181 Y4.7172
G01 X8.0065 Y4.7416
G01 X7.9927 Y4.7648
G01 X7.9766 Y4.7865
G01 X7.9585 Y4.8065
G01 X7.9385 Y4.8246
G01 X7.9168 Y4.8407
G01 X7.8936 Y4.8545
G01 X7.8692 Y4.8661
G01 X7.8438 Y4.8752
G01 X7.8176 Y4.8817
G01 X7.7910 Y4.8857
G01 X7.7640 Y4.8870
G01 X5.9640 Y4.8870
G01 X5.9370 Y4.8857
G01 X5.9104 Y4.8817
G01 X5.8842 Y4.8752
G01 X5.8588 Y4.8661
G01 X5.8344 Y4.8545
G01 X5.8112 Y4.8407
G01 X5.7895 Y4.8246
G01 X5.7695 Y4.8065
G01 X5.7514 Y4.7865
G01 X5.7353 Y4.7648
G01 X5.7215 Y4.7416
G01 X5.7099 Y4.7172
G01 X5.7008 Y4.6918
G01 X5.6943 Y4.6656
G01 X5.6903 Y4.6390
G01 X5.6890 Y4.6120
G01 X5.6890 Y2.4120
G01 X5.6903 Y2.3850
G01 X5.6943 Y2.3584
G01 X5.7008 Y2.3322
G01 X5.7099 Y2.3068
G01 X5.7215 Y2.2824
G01 X5.7353 Y2.2592
G01 X5.7460 Y2.2448
G01 X5.7230 Y2.2437
G01 X5.6964 Y2.2397
G01 X5.6702 Y2.2332
G01 X5.6448 Y2.2241
G01 X5.6204 Y2.2125
G01 X5.5972 Y2.1987
G01 X5.5755 Y2.1826
G01 X5.5555 Y2.1645
G01 X5.5374 Y2.1445
G01 X5.5213 Y2.1228
G01 X5.5075 Y2.0996
G01 X5.4959 Y2.0752
G01 X5.4868 Y2.0498
G01 X5.4803 Y2.0236
G01 X5.4763 Y1.9970
G01 X5.4750 Y1.9700
G01 X5.4750 Y0.5700
G01 X5.4763 Y0.5430
G01 X5.4803 Y0.5164
G01 X5.4868 Y0.4902
G01 X5.4959 Y0.4648
G01 X5.5075 Y0.4404
G01 X5.5213 Y0.4172
G01 X5.5374 Y0.3955
G01 X5.5555 Y0.3755
G01 X5.5755 Y0.3574
G01 X5.5972 Y0.3413
G01 X5.6204 Y0.3275
G01 X5.6448 Y0.3159
G01 X5.6702 Y0.3068
G01 X5.6964 Y0.3003
G01 X5.7230 Y0.2963
G01 X5.7500 Y0.2950
G01 X5.8249 Y0.2950
G01 X5.8249 Y0.2175
G01 X4.2275 Y-1.3799
G01 X2.5400 Y-1.3799
G01 X2.5265 Y-1.3802
G01 X2.5020 Y-1.3814
G01 X2.4751 Y-1.3841
G01 X2.4509 Y-1.3877
G01 X2.4244 Y-1.3929
G01 X2.4006 Y-1.3989
G01 X2.3747 Y-1.4067
G01 X2.3516 Y-1.4150
G01 X2.3267 Y-1.4253
G01 X2.3045 Y-1.4358
G01 X2.2807 Y-1.4485
G01 X2.2597 Y-1.4612
G01 X2.2372 Y-1.4761
G01 X2.2175 Y-1.4908
G01 X2.1966 Y-1.5079
G01 X2.1687 Y-1.5337
G01 X0.1367 Y-3.5657
G01 X0.1109 Y-3.5936
G01 X0.0938 Y-3.6145
G01 X0.0791 Y-3.6342
G01 X0.0642 Y-3.6567
G01 X0.0515 Y-3.6777
G01 X0.0388 Y-3.7015
G01 X0.0283 Y-3.7237
G01 X0.0180 Y-3.7486
G01 X0.0097 Y-3.7717
G01 X0.0019 Y-3.7976
G01 X-0.0041 Y-3.8214
G01 X-0.0093 Y-3.8479
G01 X-0.0129 Y-3.8721
G01 X-0.0156 Y-3.8990
G01 X-0.0168 Y-3.9235
G01 X-0.0171 Y-3.9370
G01 X-0.0171 Y-4.1050
G01 X-0.0920 Y-4.1050
G01 X-0.1190 Y-4.1063
G01 X-0.1456 Y-4.1103
G01 X-0.1718 Y-4.1168
G01 X-0.1972 Y-4.1259
G01 X-0.2216 Y-4.1375
G01 X-0.2448 Y-4.1513
G01 X-0.2665 Y-4.1674
G01 X-0.2865 Y-4.1855
G01 X-0.3046 Y-4.2055
G01 X-0.3207 Y-4.2272
G01 X-0.3345 Y-4.2504
G01 X-0.3461 Y-4.2748
G01 X-0.3552 Y-4.3002
G01 X-0.3617 Y-4.3264
G01 X-0.3657 Y-4.3530
G01 X-0.3670 Y-4.3800
G01 X-0.3670 Y-4.5549
G01 X-2.4350 Y-4.5549
G01 X-2.4350 Y-3.9800
G01 X-2.4363 Y-3.9530
G01 X-2.4403 Y-3.9264
G01 X-2.4468 Y-3.9002
G01 X-2.4559 Y-3.8748
G01 X-2.4675 Y-3.8504
G01 X-2.4813 Y-3.8272
G01 X-2.4974 Y-3.8055
G01 X-2.5155 Y-3.7855
G01 X-2.5355 Y-3.7674
G01 X-2.5572 Y-3.7513
G01 X-2.5804 Y-3.7375
G01 X-2.6048 Y-3.7259
G01 X-2.6302 Y-3.7168
G01 X-2.6564 Y-3.7103
G01 X-2.6830 Y-3.7063
G01 X-2.7100 Y-3.7050
G01 X-4.9100 Y-3.7050
G01 X-4.9370 Y-3.7063
G01 X-4.9636 Y-3.7103
G01 X-4.9898 Y-3.7168
G01 X-5.0152 Y-3.7259
G01 X-5.0396 Y-3.7375
G01 X-5.0628 Y-3.7513
G01 X-5.0800 Y-3.7641
G01 X-5.0972 Y-3.7513
G01 X-5.1204 Y-3.7375
G01 X-5.1448 Y-3.7259
G01 X-5.1702 Y-3.7168
G01 X-5.1964 Y-3.7103
G01 X-5.2230 Y-3.7063
G01 X-5.2500 Y-3.7050
G01 X-7.4500 Y-3.7050
G01 X-7.4770 Y-3.7063
G01 X-7.5036 Y-3.7103
G01 X-7.5298 Y-3.7168
G01 X-7.5552 Y-3.7259
G01 X-7.5796 Y-3.7375
G01 X-7.6028 Y-3.7513
G01 X-7.6200 Y-3.7641
G01 X-7.6372 Y-3.7513
G01 X-7.6604 Y-3.7375
G01 X-7.6848 Y-3.7259
G01 X-7.7102 Y-3.7168
G01 X-7.7364 Y-3.7103
G01 X-7.7630 Y-3.7063
G01 X-7.7900 Y-3.7050
G01 X-8.3649 Y-3.7050
G01 X-8.3649 Y-0.2175
G01 X-6.0104 Y2.1370
G01 X-4.9360 Y2.1370
G01 X-4.9090 Y2.1383
G01 X-4.8824 Y2.1423
G01 X-4.8562 Y2.1488
G01 X-4.8308 Y2.1579
G01 X-4.8064 Y2.1695
G01 X-4.7832 Y2.1833
G01 X-4.7615 Y2.1994
G01 X-4.7415 Y2.2175
G01 X-4.7234 Y2.2375
G01 X-4.7073 Y2.2592
G01 X-4.6935 Y2.2824
G01 X-4.6819 Y2.3068
G01 X-4.6728 Y2.3322
G01 X-4.6663 Y2.3584
G01 X-4.6623 Y2.3850
G01 X-4.6610 Y2.4120
G01 X-4.6610 Y4.6120
G01 X-4.6623 Y4.6390
G01 X-4.6663 Y4.6656
G01 X-4.6728 Y4.6918
G01 X-4.6819 Y4.7172
G01 X-4.6935 Y4.7416
G01 X-4.7073 Y4.7648
G01 X-4.7234 Y4.7865
G01 X-4.7415 Y4.8065
G01 X-4.7615 Y4.8246
G01 X-4.7832 Y4.8407
G01 X-4.8064 Y4.8545
G01 X-4.8308 Y4.8661
G01 X-4.8562 Y4.8752
G01 X-4.8824 Y4.8817
G01 X-4.9090 Y4.8857
G01 X-4.9360 Y4.8870
G01 X-6.7360 Y4.8870
G01 X-6.7630 Y4.8857
G01 X-6.7896 Y4.8817
G01 X-6.8158 Y4.8752
G01 X-6.8412 Y4.8661
G01 X-6.8656 Y4.8545
G01 X-6.8888 Y4.8407
G01 X-6.9105 Y4.8246
G01 X-6.9305 Y4.8065
G01 X-6.9486 Y4.7865
G01 X-6.9647 Y4.7648
G01 X-6.9785 Y4.7416
G01 X-6.9901 Y4.7172
G01 X-6.9992 Y4.6918
G01 X-7.0057 Y4.6656
G01 X-7.0097 Y4.6390
G01 X-7.0110 Y4.6120
G01 X-7.0110 Y2.6216
G01 X-7.2010 Y2.4316
G01 X-7.2010 Y4.6120
G01 X-7.2023 Y4.6390
G01 X-7.2063 Y4.6656
G01 X-7.2128 Y4.6918
G01 X-7.2219 Y4.7172
G01 X-7.2335 Y4.7416
G01 X-7.2473 Y4.7648
G01 X-7.2634 Y4.7865
G01 X-7.2815 Y4.8065
G01 X-7.3015 Y4.8246
G01 X-7.3232 Y4.8407
G01 X-7.3464 Y4.8545
G01 X-7.3708 Y4.8661
G01 X-7.3962 Y4.8752
G01 X-7.4224 Y4.8817
G01 X-7.4490 Y4.8857
G01 X-7.4760 Y4.8870
G01 X-9.2760 Y4.8870
G01 X-9.3030 Y4.8857
G01 X-9.3296 Y4.8817
G01 X-9.3558 Y4.8752
G01 X-9.3812 Y4.8661
G01 X-9.4056 Y4.8545
G01 X-9.4288 Y4.8407
G01 X-9.4505 Y4.8246
G01 X-9.4705 Y4.8065
G01 X-9.4886 Y4.7865
G01 X-9.5047 Y4.7648
G01 X-9.5185 Y4.7416
G01 X-9.5301 Y4.7172
G01 X-9.5392 Y4.6918
G01 X-9.5457 Y4.6656
G01 X-9.5497 Y4.6390
G01 X-9.5510 Y4.6120
G01 X-9.5510 Y3.0796
G01 X-11.8013 Y0.8293
G01 X-11.8271 Y0.8014
G01 X-11.8442 Y0.7805
G01 X-11.8589 Y0.7608
G01 X-11.8738 Y0.7383
G01 X-11.8865 Y0.7173
G01 X-11.8992 Y0.6935
G01 X-11.9097 Y0.6713
G01 X-11.9200 Y0.6464
G01 X-11.9283 Y0.6233
G01 X-11.9361 Y0.5974
G01 X-11.9421 Y0.5736
G01 X-11.9473 Y0.5471
G01 X-11.9509 Y0.5229
G01 X-11.9536 Y0.4960
G01 X-11.9551 Y0.4580
G01 X-11.9551 Y-0.2950
G01 X-12.0300 Y-0.2950
G01 X-12.0570 Y-0.2963
G01 X-12.0836 Y-0.3003
G01 X-12.1098 Y-0.3068
G01 X-12.1352 Y-0.3159
G01 X-12.1596 Y-0.3275
G01 X-12.1828 Y-0.3413
G01 X-12.2045 Y-0.3574
G01 X-12.2245 Y-0.3755
G01 X-12.2426 Y-0.3955
G01 X-12.2587 Y-0.4172
G01 X-12.2725 Y-0.4404
G01 X-12.2841 Y-0.4648
G01 X-12.2932 Y-0.4902
G01 X-12.2997 Y-0.5164
G01 X-12.3037 Y-0.5430
G01 X-12.3050 Y-0.5700
G01 X-12.3050 Y-1.9700
G01 X-12.3037 Y-1.9970
G01 X-12.2997 Y-2.0236
G01 X-12.2932 Y-2.0498
G01 X-12.2841 Y-2.0752
G01 X-12.2725 Y-2.0996
G01 X-12.2587 Y-2.1228
G01 X-12.2426 Y-2.1445
G01 X-12.2245 Y-2.1645
G01 X-12.2045 Y-2.1826
G01 X-12.1828 Y-2.1987
G01 X-12.1596 Y-2.2125
G01 X-12.1352 Y-2.2241
G01 X-12.1098 Y-2.2332
G01 X-12.0836 Y-2.2397
G01 X-12.0570 Y-2.2437
G01 X-12.0300 Y-2.2450
G01 X-11.9551 Y-2.2450
G01 X-11.9551 Y-3.7050
G01 X-12.5300 Y-3.7050
G01 X-12.5570 Y-3.7063
G01 X-12.5836 Y-3.7103
G01 X-12.6098 Y-3.7168
G01 X-12.6352 Y-3.7259
G01 X-12.6596 Y-3.7375
G01 X-12.6828 Y-3.7513
G01 X-12.7045 Y-3.7674
G01 X-12.7245 Y-3.7855
G01 X-12.7426 Y-3.8055
G01 X-12.7587 Y-3.8272
G01 X-12.7725 Y-3.8504
G01 X-12.7841 Y-3.8748
G01 X-12.7932 Y-3.9002
G01 X-12.7997 Y-3.9264
G01 X-12.8037 Y-3.9530
G01 X-12.8050 Y-3.9800
G01 X-12.8050 Y-4.5549
G01 X-12.9950 Y-4.5549
G01 X-12.9950 Y-4.4800
G01 X-12.9963 Y-4.4530
G01 X-13.0003 Y-4.4264
G01 X-13.0068 Y-4.4002
G01 X-13.0159 Y-4.3748
G01 X-13.0275 Y-4.3504
G01 X-13.0413 Y-4.3272
G01 X-13.0574 Y-4.3055
G01 X-13.0755 Y-4.2855
G01 X-13.0955 Y-4.2674
G01 X-13.1172 Y-4.2513
G01 X-13.1404 Y-4.2375
G01 X-13.1648 Y-4.2259
G01 X-13.1902 Y-4.2168
G01 X-13.2164 Y-4.2103
G01 X-13.2430 Y-4.2063
G01 X-13.2700 Y-4.2050
G01 X-14.6700 Y-4.2050
G01 X-14.6970 Y-4.2063
G01 X-14.7236 Y-4.2103
G01 X-14.7498 Y-4.2168
G01 X-14.7752 Y-4.2259
G01 X-14.7996 Y-4.2375
G01 X-14.8228 Y-4.2513
G01 X-14.8445 Y-4.2674
G01 X-14.8645 Y-4.2855
G01 X-14.8826 Y-4.3055
G01 X-14.8987 Y-4.3272
G01 X-14.9125 Y-4.3504
G01 X-14.9241 Y-4.3748
G01 X-14.9332 Y-4.4002
G01 X-14.9397 Y-4.4264
G01 X-14.9437 Y-4.4530
G01 X-14.9450 Y-4.4800
G01 X-14.9450 Y-5.6800
G01 X-14.9437 Y-5.7070
G01 X-14.9397 Y-5.7336
G01 X-14.9332 Y-5.7598
G01 X-14.9241 Y-5.7852
G01 X-14.9125 Y-5.8096
G01 X-14.8987 Y-5.8328
G01 X-14.8826 Y-5.8545
G01 X-14.8645 Y-5.8745
G01 X-14.8445 Y-5.8926
G01 X-14.8228 Y-5.9087
G01 X-14.7996 Y-5.9225
G01 X-14.7752 Y-5.9341
G01 X-14.7498 Y-5.9432
G01 X-14.7236 Y-5.9497
G01 X-14.6970 Y-5.9537
G01 X-14.6700 Y-5.9550
G01 X-13.2700 Y-5.9550
G01 X-13.2430 Y-5.9537
G01 X-13.2164 Y-5.9497
G01 X-13.1902 Y-5.9432
G01 X-13.1648 Y-5.9341
G01 X-13.1404 Y-5.9225
G01 X-13.1172 Y-5.9087
G01 X-13.0955 Y-5.8926
G01 X-13.0755 Y-5.8745
G01 X-13.0574 Y-5.8545
G01 X-13.0413 Y-5.8328
G01 X-13.0275 Y-5.8096
G01 X-13.0159 Y-5.7852
G01 X-13.0068 Y-5.7598
G01 X-13.0003 Y-5.7336
G01 X-12.9963 Y-5.7070
G01 X-12.9950 Y-5.6800
G01 X-12.9950 Y-5.6051
G01 X-12.8050 Y-5.6051
G01 X-12.8050 Y-6.1800
G01 X-12.8037 Y-6.2070
G01 X-12.7997 Y-6.2336
G01 X-12.7932 Y-6.2598
G01 X-12.7841 Y-6.2852
G01 X-12.7725 Y-6.3096
G01 X-12.7587 Y-6.3328
G01 X-12.7426 Y-6.3545
G01 X-12.7245 Y-6.3745
G01 X-12.7045 Y-6.3926
G01 X-12.6828 Y-6.4087
G01 X-12.6596 Y-6.4225
G01 X-12.6352 Y-6.4341
G01 X-12.6098 Y-6.4432
G01 X-12.5836 Y-6.4497
G01 X-12.5570 Y-6.4537
G01 X-12.5300 Y-6.4550
G01 X-10.3300 Y-6.4550
G01 X-10.3030 Y-6.4537
G01 X-10.2764 Y-6.4497
G01 X-10.2502 Y-6.4432
G01 X-10.2248 Y-6.4341
G01 X-10.2004 Y-6.4225
G01 X-10.1772 Y-6.4087
G01 X-10.1600 Y-6.3959
G01 X-10.1428 Y-6.4087
G01 X-10.1196 Y-6.4225
G01 X-10.0952 Y-6.4341
G01 X-10.0698 Y-6.4432
G01 X-10.0436 Y-6.4497
G01 X-10.0170 Y-6.4537
G01 X-9.9900 Y-6.4550
G01 X-9.4151 Y-6.4550
G01 X-9.4151 Y-8.8900
G01 X-9.4136 Y-8.9280
G01 X-9.4109 Y-8.9549
G01 X-9.4073 Y-8.9791
G01 X-9.4021 Y-9.0056
G01 X-9.3961 Y-9.0294
G01 X-9.3883 Y-9.0553
G01 X-9.3800 Y-9.0784
G01 X-9.3697 Y-9.1033
G01 X-9.3592 Y-9.1255
G01 X-9.3465 Y-9.1493
G01 X-9.3338 Y-9.1703
G01 X-9.3189 Y-9.1928
G01 X-9.3042 Y-9.2125
G01 X-9.2871 Y-9.2334
G01 X-9.2613 Y-9.2613
G01 X-8.7346 Y-9.7880
G01 X-9.3669 Y-10.4202
G01 X-9.7025 Y-10.0845
G01 X-9.7225 Y-10.0664
G01 X-9.7442 Y-10.0503
G01 X-9.7674 Y-10.0365
G01 X-9.7918 Y-10.0249
G01 X-9.8172 Y-10.0158
G01 X-9.8434 Y-10.0093
G01 X-9.8700 Y-10.0053
G01 X-9.8970 Y-10.0040
G01 X-9.9240 Y-10.0053
G01 X-9.9506 Y-10.0093
G01 X-9.9768 Y-10.0158
G01 X-10.0022 Y-10.0249
G01 X-10.0266 Y-10.0365
G01 X-10.0520 Y-10.0520
G01 X-10.0365 Y-10.0266
G01 X-10.0249 Y-10.0022
G01 X-10.0158 Y-9.9768
G01 X-10.0093 Y-9.9506
G01 X-10.0053 Y-9.9240
G01 X-10.0040 Y-9.8970
G01 X-10.0053 Y-9.8700
G01 X-10.0093 Y-9.8434
G01 X-10.0158 Y-9.8172
G01 X-10.0249 Y-9.7918
G01 X-10.0365 Y-9.7674
G01 X-10.0503 Y-9.7442
G01 X-10.0664 Y-9.7225
G01 X-10.0845 Y-9.7025
G01 X-11.4985 Y-8.2885
G01 X-11.5185 Y-8.2704
G01 X-11.5402 Y-8.2543
G01 X-11.5634 Y-8.2405
G01 X-11.5878 Y-8.2289
G01 X-11.6132 Y-8.2198
G01 X-11.6394 Y-8.2133
G01 X-11.6660 Y-8.2093
G01 X-11.6930 Y-8.2080
G01 X-11.7200 Y-8.2093
G01 X-11.7466 Y-8.2133
G01 X-11.7728 Y-8.2198
G01 X-11.7982 Y-8.2289
G01 X-11.8226 Y-8.2405
G01 X-11.8458 Y-8.2543
G01 X-11.8675 Y-8.2704
G01 X-11.8875 Y-8.2885
G01 X-11.9691 Y-8.3702
G01 X-12.9950 Y-7.3444
G01 X-12.9950 Y-6.5120
G01 X-12.9963 Y-6.4850
G01 X-13.0003 Y-6.4584
G01 X-13.0068 Y-6.4322
G01 X-13.0159 Y-6.4068
G01 X-13.0275 Y-6.3824
G01 X-13.0413 Y-6.3592
G01 X-13.0574 Y-6.3375
G01 X-13.0755 Y-6.3175
G01 X-13.0955 Y-6.2994
G01 X-13.1172 Y-6.2833
G01 X-13.1404 Y-6.2695
G01 X-13.1648 Y-6.2579
G01 X-13.1902 Y-6.2488
G01 X-13.2164 Y-6.2423
G01 X-13.2430 Y-6.2383
G01 X-13.2700 Y-6.2370
G01 X-14.6700 Y-6.2370
G01 X-14.6970 Y-6.2383
G01 X-14.7236 Y-6.2423
G01 X-14.7498 Y-6.2488
G01 X-14.7752 Y-6.2579
G01 X-14.7996 Y-6.2695
G01 X-14.8228 Y-6.2833
G01 X-14.8445 Y-6.2994
G01 X-14.8645 Y-6.3175
G01 X-14.8826 Y-6.3375
G01 X-14.8987 Y-6.3592
G01 X-14.9125 Y-6.3824
G01 X-14.9241 Y-6.4068
G01 X-14.9332 Y-6.4322
G01 X-14.9397 Y-6.4584
G01 X-14.9437 Y-6.4850
G01 X-14.9450 Y-6.5120
G01 X-14.9450 Y-7.7120
G01 X-14.9437 Y-7.7390
G01 X-14.9397 Y-7.7656
G01 X-14.9332 Y-7.7918
G01 X-14.9241 Y-7.8172
G01 X-14.9125 Y-7.8416
G01 X-14.8987 Y-7.8648
G01 X-14.8826 Y-7.8865
G01 X-14.8645 Y-7.9065
G01 X-14.8445 Y-7.9246
G01 X-14.8228 Y-7.9407
G01 X-14.7996 Y-7.9545
G01 X-14.7752 Y-7.9661
G01 X-14.7498 Y-7.9752
G01 X-14.7236 Y-7.9817
G01 X-14.6970 Y-7.9857
G01 X-14.6700 Y-7.9870
G01 X-13.8376 Y-7.9870
G01 X-12.7118 Y-9.1129
G01 X-13.3015 Y-9.7025
G01 X-13.3196 Y-9.7225
G01 X-13.3357 Y-9.7442
G01 X-13.3495 Y-9.7674
G01 X-13.3611 Y-9.7918
G01 X-13.3702 Y-9.8172
G01 X-13.3767 Y-9.8434
G01 X-13.3807 Y-9.8700
G01 X-13.3820 Y-9.8970
G01 X-13.3807 Y-9.9240
G01 X-13.3767 Y-9.9506
G01 X-13.3702 Y-9.9768
G01 X-13.3611 Y-10.0022
G01 X-13.3495 Y-10.0266
G01 X-13.3357 Y-10.0498
G01 X-13.3196 Y-10.0715
G01 X-13.3015 Y-10.0915
G01 X-11.8875 Y-11.5055
G01 X-11.8675 Y-11.5236
G01 X-11.8458 Y-11.5397
G01 X-11.8226 Y-11.5535
G01 X-11.7982 Y-11.5651
G01 X-11.7728 Y-11.5742
G01 X-11.7466 Y-11.5807
G01 X-11.7200 Y-11.5847
G01 X-11.6930 Y-11.5860
G01 X-11.6660 Y-11.5847
G01 X-11.6394 Y-11.5807
G01 X-11.6132 Y-11.5742
G01 X-11.5878 Y-11.5651
G01 X-11.5634 Y-11.5535
G01 X-11.5380 Y-11.5380
G00 Z2.0000
G00 X-19.1497 Y0.0135
G01 F60.00
G01 Z-0.1000
G01 F120.00
G01 X-19.1497 Y-0.0135
G01 X-19.1424 Y-0.1605
G01 X-19.1398 Y-0.1874
G01 X-19.1182 Y-0.3330
G01 X-19.1129 Y-0.3595
G01 X-19.0772 Y-0.5022
G01 X-19.0693 Y-0.5281
G01 X-19.0197 Y-0.6667
G01 X-19.0094 Y-0.6916
G01 X-18.9465 Y-0.8247
G01 X-18.9338 Y-0.8485
G01 X-18.8581 Y-0.9747
G01 X-18.8431 Y-0.9972
G01 X-18.7554 Y-1.1154
G01 X-18.7383 Y-1.1363
G01 X-18.6394 Y-1.2453
G01 X-18.6203 Y-1.2644
G01 X-18.5113 Y-1.3633
G01 X-18.4904 Y-1.3804
G01 X-18.3722 Y-1.4681
G01 X-18.3497 Y-1.4831
G01 X-18.2235 Y-1.5588
G01 X-18.1997 Y-1.5715
G01 X-18.0666 Y-1.6344
G01 X-18.0417 Y-1.6447
G01 X-17.9031 Y-1.6943
G01 X-17.8772 Y-1.7022
G01 X-17.7345 Y-1.7379
G01 X-17.7080 Y-1.7432
G01 X-17.5624 Y-1.7648
G01 X-17.5355 Y-1.7674
G01 X-17.3885 Y-1.7747
G01 X-17.3615 Y-1.7747
G01 X-17.2145 Y-1.7674
G01 X-17.1876 Y-1.7648
G01 X-17.0420 Y-1.7432
G01 X-17.0155 Y-1.7379
G01 X-16.8728 Y-1.7022
G01 X-16.8469 Y-1.6943
G01 X-16.7083 Y-1.6447
G01 X-16.6834 Y-1.6344
G01 X-16.5503 Y-1.5715
G01 X-16.5265 Y-1.5588
G01 X-16.4003 Y-1.4831
G01 X-16.3778 Y-1.4681
G01 X-16.2596 Y-1.3804
G01 X-16.2387 Y-1.3633
G01 X-16.1297 Y-1.2644
G01 X-16.1106 Y-1.2453
G01 X-16.0117 Y-1.1363
G01 X-15.9946 Y-1.1154
G01 X-15.9069 Y-0.9972
G01 X-15.8919 Y-0.9747
G01 X-15.8162 Y-0.8485
G01 X-15.8035 Y-0.8247
G01 X-15.7406 Y-0.6916
G01 X-15.7303 Y-0.6667
G01 X-15.6807 Y-0.5281
G01 X-15.6728 Y-0.5022
G01 X-15.6371 Y-0.3595
G01 X-15.6318 Y-0.3330
G01 X-15.6102 Y-0.1874
G01 X-15.6076 Y-0.1605
G01 X-15.6003 Y-0.0135
G01 X-15.6003 Y0.0135
G01 X-15.6076 Y0.1605
G01 X-15.6102 Y0.1874
G01 X-15.6318 Y0.3330
G01 X-15.6371 Y0.3595
G01 X-15.6728 Y0.5022
G01 X-15.6807 Y0.5281
G01 X-15.7303 Y0.6667
G01 X-15.7406 Y0.6916
G01 X-15.8035 Y0.8247
G01 X-15.8162 Y0.8485
G01 X-15.8919 Y0.9747
G01 X-15.9069 Y0.9972
G01 X-15.9946 Y1.1154
G01 X-16.0117 Y1.1363
G01 X-16.1106 Y1.2453
G01 X-16.1297 Y1.2644
G01 X-16.2387 Y1.3633
G01 X-16.2596 Y1.3804
G01 X-16.3778 Y1.4681
G01 X-16.4003 Y1.4831
G01 X-16.5265 Y1.5588
G01 X-16.5503 Y1.5715
G01 X-16.6834 Y1.6344
G01 X-16.7083 Y1.6447
G01 X-16.8469 Y1.6943
G01 X-16.8728 Y1.7022
G01 X-17.0155 Y1.7379
G01 X-17.0420 Y1.7432
G01 X-17.1876 Y1.7648
G01 X-17.2145 Y1.7674
G01 X-17.3615 Y1.7747
G01 X-17.3885 Y1.7747
G01 X-17.5355 Y1.7674
G01 X-17.5624 Y1.7648
G01 X-17.7080 Y1.7432
G01 X-17.7345 Y1.7379
G01 X-17.8772 Y1.7022
G01 X-17.9031 Y1.6943
G01 X-18.0417 Y1.6447
G01 X-18.0666 Y1.6344
G01 X-18.1997 Y1.5715
G01 X-18.2235 Y1.5588
G01 X-18.3497 Y1.4831
G01 X-18.3722 Y1.4681
G01 X-18.4904 Y1.3804
G01 X-18.5113 Y1.3633
G01 X-18.6203 Y1.2644
G01 X-18.6394 Y1.2453
G01 X-18.7383 Y1.1363
G01 X-18.7554 Y1.1154
G01 X-18.8431 Y0.9972
G01 X-18.8581 Y0.9747
G01 X-18.9338 Y0.8485
G01 X-18.9465 Y0.8247
G01 X-19.0094 Y0.6916
G01 X-19.0197 Y0.6667
G01 X-19.0693 Y0.5281
G01 X-19.0772 Y0.5022
G01 X-19.1129 Y0.3595
G01 X-19.1182 Y0.3330
G01 X-19.1398 Y0.1874
G01 X-19.1424 Y0.1605
G01 X-19.1497 Y0.0135
G00 Z2.0000
M05
G00 Z2.0000
G00 Z15.00
G00 X0.0 Y0.0

